(.../pcb-gcode-3_6_0_4/pcb-gcode.ulp)
(Copyright 2005 - 2012 by John Johnson)
(See readme.txt for licensing terms.)
(This file generated from the board:)
(.../2020/AtmelPcb/eagle/hviezda.brd)
(Current profile is .../pcb-gcode-3_6_0_4/profiles/generic.pp  )
(This file generated 11/11/20 11:30 AM)
(Settings from pcb-machine.h)
(  Tool Size)
(0.4000 )
(Z Axis Settings)
(  High     Up        Down     Drill)
(10.0000 	1.0000 	0.0000 	-1.0000 )
(spindle on time = 3.0000)
(milling depth = -0.2500)
(text depth = -0.1200)
(tool change at 12.7000 15.2400 25.4000 )
(feed rate xy = F300.00 )
(feed rate z  = F70.00 )
(Settings from pcb-defaults.h)
(isolate min = 0.0200)
(isolate max = 0.5000)
(isolate step = 0.3000)
(Generated bottom outlines, bottom drill, )
(Unit of measure: mm)
( Tool|       Size       |  Min Sub |  Max Sub |   Count )
( T01  0.650mm 0.0256in 0.0000in 0.0000in )
( T02  0.813mm 0.0320in 0.0000in 0.0000in )
( T03  1.016mm 0.0400in 0.0000in 0.0000in )
( T04  1.118mm 0.0440in 0.0000in 0.0000in )
( T05  2.540mm 0.1000in 0.0000in 0.0000in )
(Metric Mode)
G21
(Absolute Coordinates)
G90
M05
G00 Z25.4000 
G00 X12.7000 Y15.2400 
M06 T01  ; 0.6500 
G01 Z0.0000 F70.00 
M06 T01  ; 0.6500 
G00 Z1.0000 
M03
G04 P3.000000
G00 Z1.000000
G00 X-10.1600 Y48.0100 
G01 Z-1.0000 F70.00 
G01 Z1.000000
(R1.0000  P1.000000)
(G00 Z1.000000)
G00 X-10.1600 Y28.0100 
G01 Z-1.000000
G01 Z1.000000
M05
G00 Z25.4000 
M06 T02  ; 0.8128 
G01 Z0.0000 F70.00 
M06 T02  ; 0.8128 
G00 Z1.0000 
M03
G04 P3.000000
G00 Z1.000000
G00 X3.8100 Y46.9900 
G01 Z-1.0000 F70.00 
G01 Z1.000000
(R1.0000  P1.000000)
(G00 Z1.000000)
G00 X6.3500 Y46.9900 
G01 Z-1.000000
G01 Z1.000000
(G00 Z1.000000)
G00 X-35.5600 Y35.5600 
G01 Z-1.000000
G01 Z1.000000
(G00 Z1.000000)
G00 X-35.5600 Y39.3700 
G01 Z-1.000000
G01 Z1.000000
(G00 Z1.000000)
G00 X-35.5600 Y43.1800 
G01 Z-1.000000
G01 Z1.000000
(G00 Z1.000000)
G00 X-35.5600 Y46.9900 
G01 Z-1.000000
G01 Z1.000000
(G00 Z1.000000)
G00 X-45.7200 Y35.5600 
G01 Z-1.000000
G01 Z1.000000
(G00 Z1.000000)
G00 X-45.7200 Y39.3700 
G01 Z-1.000000
G01 Z1.000000
(G00 Z1.000000)
G00 X-45.7200 Y43.1800 
G01 Z-1.000000
G01 Z1.000000
(G00 Z1.000000)
G00 X-45.7200 Y46.9900 
G01 Z-1.000000
G01 Z1.000000
(G00 Z1.000000)
G00 X-45.7200 Y8.8900 
G01 Z-1.000000
G01 Z1.000000
(G00 Z1.000000)
G00 X-45.7200 Y11.4300 
G01 Z-1.000000
G01 Z1.000000
(G00 Z1.000000)
G00 X-56.5150 Y46.9900 
G01 Z-1.000000
G01 Z1.000000
(G00 Z1.000000)
G00 X-59.0550 Y46.9900 
G01 Z-1.000000
G01 Z1.000000
(G00 Z1.000000)
G00 X-6.3500 Y17.7800 
G01 Z-1.000000
G01 Z1.000000
(G00 Z1.000000)
G00 X-6.9850 Y8.8900 
G01 Z-1.000000
G01 Z1.000000
(G00 Z1.000000)
G00 X-6.9850 Y11.4300 
G01 Z-1.000000
G01 Z1.000000
(G00 Z1.000000)
G00 X-16.5100 Y17.7800 
G01 Z-1.000000
G01 Z1.000000
(G00 Z1.000000)
G00 X-24.1300 Y50.8000 
G01 Z-1.000000
G01 Z1.000000
(G00 Z1.000000)
G00 X-26.6700 Y68.5800 
G01 Z-1.000000
G01 Z1.000000
(G00 Z1.000000)
G00 X-26.6700 Y71.1200 
G01 Z-1.000000
G01 Z1.000000
(G00 Z1.000000)
G00 X-29.2100 Y50.8000 
G01 Z-1.000000
G01 Z1.000000
M05
G00 Z25.4000 
M06 T03  ; 1.0160 
G01 Z0.0000 F70.00 
M06 T03  ; 1.0160 
G00 Z1.0000 
M03
G04 P3.000000
G00 Z1.000000
G00 X-24.1300 Y22.8600 
G01 Z-1.0000 F70.00 
G01 Z1.000000
(R1.0000  P1.000000)
(G00 Z1.000000)
G00 X-24.1300 Y25.4000 
G01 Z-1.000000
G01 Z1.000000
(G00 Z1.000000)
G00 X-24.4094 Y55.1688 
G01 Z-1.000000
G01 Z1.000000
(G00 Z1.000000)
G00 X-24.4094 Y61.6712 
G01 Z-1.000000
G01 Z1.000000
(G00 Z1.000000)
G00 X-26.6700 Y22.8600 
G01 Z-1.000000
G01 Z1.000000
(G00 Z1.000000)
G00 X-26.6700 Y25.4000 
G01 Z-1.000000
G01 Z1.000000
(G00 Z1.000000)
G00 X-28.9306 Y55.1688 
G01 Z-1.000000
G01 Z1.000000
(G00 Z1.000000)
G00 X-28.9306 Y61.6712 
G01 Z-1.000000
G01 Z1.000000
(G00 Z1.000000)
G00 X-29.2100 Y22.8600 
G01 Z-1.000000
G01 Z1.000000
(G00 Z1.000000)
G00 X-29.2100 Y25.4000 
G01 Z-1.000000
G01 Z1.000000
M05
G00 Z25.4000 
M06 T04  ; 1.1176 
G01 Z0.0000 F70.00 
M06 T04  ; 1.1176 
G00 Z1.0000 
M03
G04 P3.000000
G00 Z1.000000
G00 X-22.8600 Y31.7500 
G01 Z-1.0000 F70.00 
G01 Z1.000000
(R1.0000  P1.000000)
(G00 Z1.000000)
G00 X-22.8600 Y34.2900 
G01 Z-1.000000
G01 Z1.000000
(G00 Z1.000000)
G00 X-22.8600 Y36.8300 
G01 Z-1.000000
G01 Z1.000000
(G00 Z1.000000)
G00 X-22.8600 Y39.3700 
G01 Z-1.000000
G01 Z1.000000
(G00 Z1.000000)
G00 X-22.8600 Y41.9100 
G01 Z-1.000000
G01 Z1.000000
(G00 Z1.000000)
G00 X-22.8600 Y44.4500 
G01 Z-1.000000
G01 Z1.000000
(G00 Z1.000000)
G00 X-22.8600 Y46.9900 
G01 Z-1.000000
G01 Z1.000000
(G00 Z1.000000)
G00 X-30.4800 Y31.7500 
G01 Z-1.000000
G01 Z1.000000
(G00 Z1.000000)
G00 X-30.4800 Y34.2900 
G01 Z-1.000000
G01 Z1.000000
(G00 Z1.000000)
G00 X-30.4800 Y36.8300 
G01 Z-1.000000
G01 Z1.000000
(G00 Z1.000000)
G00 X-30.4800 Y39.3700 
G01 Z-1.000000
G01 Z1.000000
(G00 Z1.000000)
G00 X-30.4800 Y41.9100 
G01 Z-1.000000
G01 Z1.000000
(G00 Z1.000000)
G00 X-30.4800 Y44.4500 
G01 Z-1.000000
G01 Z1.000000
(G00 Z1.000000)
G00 X-30.4800 Y46.9900 
G01 Z-1.000000
G01 Z1.000000
M05
G00 Z25.4000 
M06 T05  ; 2.5400 
G01 Z0.0000 F70.00 
M06 T05  ; 2.5400 
G00 Z1.0000 
M03
G04 P3.000000
G00 Z1.000000
G00 X-26.6700 Y76.2000 
G01 Z-1.0000 F70.00 
G01 Z1.000000
(R1.0000  P1.000000)
T01 
G00 Z10.0000 
M05
M02
