(.../pcb-gcode-3_6_0_4/pcb-gcode.ulp)
(Copyright 2005 - 2012 by John Johnson)
(See readme.txt for licensing terms.)
(This file generated from the board:)
(.../2020/AtmelPcb/eagle/hviezda.brd)
(Current profile is .../pcb-gcode-3_6_0_4/profiles/generic.pp  )
(This file generated 11/11/20 11:30 AM)
(Settings from pcb-machine.h)
(  Tool Size)
(0.4000 )
(Z Axis Settings)
(  High     Up        Down     Drill)
(10.0000 	1.0000 	0.0000 	-1.0000 )
(spindle on time = 3.0000)
(milling depth = -0.2500)
(text depth = -0.1200)
(tool change at 12.7000 15.2400 25.4000 )
(feed rate xy = F300.00 )
(feed rate z  = F70.00 )
(Settings from pcb-defaults.h)
(isolate min = 0.0200)
(isolate max = 0.5000)
(isolate step = 0.3000)
(Generated bottom outlines, bottom drill, )
(Unit of measure: mm)
(Metric Mode)
G21
(Absolute Coordinates)
G90
G00 X0.0000 Y0.0000 
M03
G04 P3.000000
G00 Z1.0000 
G00 X-11.0073 Y42.5397 
G01 Z0.0000 F70.00 
G01 X-10.9684 Y42.5875 F300.00 
G01 X-10.9384 Y42.6413 
G01 X-10.9343 Y42.6517 
G01 X-10.9311 Y42.6683 
G01 X-10.9197 Y42.6918 
G01 X-10.9112 Y42.7164 
G01 X-10.9003 Y42.7326 
G01 X-10.8619 Y42.8161 
G01 X-10.7809 Y43.0294 
G01 X-10.7196 Y43.2492 
G01 X-10.6784 Y43.4737 
G01 X-10.6578 Y43.7009 
G01 X-10.6552 Y43.8150 
G01 X-10.6578 Y43.9291 
G01 X-10.6609 Y43.9633 
G01 X-11.6246 Y42.7587 
G01 X-11.6125 Y42.7326 
G01 X-11.6016 Y42.7164 
G01 X-11.5932 Y42.6917 
G01 X-11.5818 Y42.6683 
G01 X-11.5786 Y42.6518 
G01 X-11.5744 Y42.6413 
G01 X-11.5445 Y42.5875 
G01 X-11.5055 Y42.5397 
G01 X-11.4588 Y42.4996 
G01 X-11.4057 Y42.4684 
G01 X-11.3479 Y42.4470 
G01 X-11.2872 Y42.4362 
G01 X-11.2564 Y42.4348 
G01 X-11.2256 Y42.4362 
G01 X-11.1650 Y42.4470 
G01 X-11.1072 Y42.4684 
G01 X-11.0541 Y42.4996 
G01 X-11.0073 Y42.5397 
G00 Z1.0000 
G00 X-10.9003 Y44.8974 
G01 Z0.0000 F70.00 
G01 X-10.9112 Y44.9136 F300.00 
G01 X-10.9197 Y44.9382 
G01 X-10.9311 Y44.9616 
G01 X-10.9343 Y44.9783 
G01 X-10.9384 Y44.9887 
G01 X-10.9684 Y45.0425 
G01 X-11.0073 Y45.0903 
G01 X-11.0541 Y45.1304 
G01 X-11.1072 Y45.1616 
G01 X-11.1650 Y45.1830 
G01 X-11.2256 Y45.1938 
G01 X-11.2564 Y45.1952 
G01 X-11.2872 Y45.1938 
G01 X-11.3479 Y45.1830 
G01 X-11.4057 Y45.1616 
G01 X-11.4588 Y45.1304 
G01 X-11.5055 Y45.0903 
G01 X-11.5445 Y45.0425 
G01 X-11.5744 Y44.9887 
G01 X-11.5786 Y44.9782 
G01 X-11.5818 Y44.9616 
G01 X-11.5932 Y44.9383 
G01 X-11.6016 Y44.9136 
G01 X-11.6125 Y44.8974 
G01 X-11.6509 Y44.8139 
G01 X-11.7319 Y44.6006 
G01 X-11.7933 Y44.3808 
G01 X-11.8344 Y44.1563 
G01 X-11.8551 Y43.9291 
G01 X-11.8577 Y43.8150 
G01 X-11.8551 Y43.7009 
G01 X-11.8520 Y43.6667 
G01 X-10.8883 Y44.8713 
G01 X-10.9003 Y44.8974 
G00 Z1.0000 
G00 X-5.2923 Y42.5397 
G01 Z0.0000 F70.00 
G01 X-5.2534 Y42.5875 F300.00 
G01 X-5.2234 Y42.6413 
G01 X-5.2193 Y42.6517 
G01 X-5.2161 Y42.6683 
G01 X-5.2047 Y42.6918 
G01 X-5.1962 Y42.7164 
G01 X-5.1853 Y42.7326 
G01 X-5.1469 Y42.8161 
G01 X-5.0659 Y43.0294 
G01 X-5.0046 Y43.2492 
G01 X-4.9634 Y43.4737 
G01 X-4.9428 Y43.7009 
G01 X-4.9402 Y43.8150 
G01 X-4.9428 Y43.9291 
G01 X-4.9459 Y43.9633 
G01 X-5.9096 Y42.7587 
G01 X-5.8975 Y42.7326 
G01 X-5.8866 Y42.7164 
G01 X-5.8782 Y42.6917 
G01 X-5.8668 Y42.6683 
G01 X-5.8636 Y42.6518 
G01 X-5.8594 Y42.6413 
G01 X-5.8295 Y42.5875 
G01 X-5.7905 Y42.5397 
G01 X-5.7438 Y42.4996 
G01 X-5.6907 Y42.4684 
G01 X-5.6329 Y42.4470 
G01 X-5.5722 Y42.4362 
G01 X-5.5414 Y42.4348 
G01 X-5.5106 Y42.4362 
G01 X-5.4500 Y42.4470 
G01 X-5.3922 Y42.4684 
G01 X-5.3391 Y42.4996 
G01 X-5.2923 Y42.5397 
G00 Z1.0000 
G00 X-5.1853 Y44.8974 
G01 Z0.0000 F70.00 
G01 X-5.1962 Y44.9136 F300.00 
G01 X-5.2047 Y44.9382 
G01 X-5.2161 Y44.9616 
G01 X-5.2193 Y44.9783 
G01 X-5.2234 Y44.9887 
G01 X-5.2534 Y45.0425 
G01 X-5.2923 Y45.0903 
G01 X-5.3391 Y45.1304 
G01 X-5.3922 Y45.1616 
G01 X-5.4500 Y45.1830 
G01 X-5.5106 Y45.1938 
G01 X-5.5414 Y45.1952 
G01 X-5.5722 Y45.1938 
G01 X-5.6329 Y45.1830 
G01 X-5.6907 Y45.1616 
G01 X-5.7438 Y45.1304 
G01 X-5.7905 Y45.0903 
G01 X-5.8295 Y45.0425 
G01 X-5.8594 Y44.9887 
G01 X-5.8636 Y44.9782 
G01 X-5.8668 Y44.9616 
G01 X-5.8782 Y44.9383 
G01 X-5.8866 Y44.9136 
G01 X-5.8975 Y44.8974 
G01 X-5.9359 Y44.8139 
G01 X-6.0169 Y44.6006 
G01 X-6.0783 Y44.3808 
G01 X-6.1194 Y44.1563 
G01 X-6.1401 Y43.9291 
G01 X-6.1427 Y43.8150 
G01 X-6.1401 Y43.7009 
G01 X-6.1370 Y43.6667 
G01 X-5.1733 Y44.8713 
G01 X-5.1853 Y44.8974 
G00 Z1.0000 
G00 X-27.5504 Y70.7553 
G01 Z0.0000 F70.00 
G01 X-27.5504 Y71.4847 F300.00 
G01 X-27.0347 Y72.0004 
G01 X-26.3053 Y72.0004 
G01 X-26.0513 Y71.7464 
G01 X-22.0274 Y71.7464 
G01 X-22.1699 Y72.0345 
G01 X-26.6695 Y81.1356 
G01 X-39.5429 Y55.0480 
G01 X-39.5676 Y54.9961 
G01 X-39.5702 Y54.9926 
G01 X-39.5722 Y54.9887 
G01 X-39.6071 Y54.9432 
G01 X-39.6414 Y54.8972 
G01 X-39.6446 Y54.8943 
G01 X-39.6473 Y54.8908 
G01 X-39.6904 Y54.8530 
G01 X-39.7330 Y54.8146 
G01 X-39.7368 Y54.8124 
G01 X-39.7401 Y54.8095 
G01 X-39.7898 Y54.7808 
G01 X-39.8391 Y54.7515 
G01 X-39.8432 Y54.7500 
G01 X-39.8470 Y54.7478 
G01 X-39.9012 Y54.7294 
G01 X-39.9553 Y54.7102 
G01 X-39.9597 Y54.7096 
G01 X-39.9638 Y54.7082 
G01 X-40.0207 Y54.7007 
G01 X-68.7841 Y50.5152 
G01 X-66.3451 Y48.1360 
G01 X-66.2888 Y48.0984 
G01 X-66.2016 Y48.0112 
G01 X-66.1725 Y47.9676 
G01 X-65.7984 Y47.6027 
G01 X-59.6873 Y47.6027 
G01 X-59.4197 Y47.8704 
G01 X-58.6903 Y47.8704 
G01 X-58.1746 Y47.3547 
G01 X-58.1746 Y46.6253 
G01 X-58.6903 Y46.1096 
G01 X-59.4197 Y46.1096 
G01 X-59.6600 Y46.3499 
G01 X-64.5141 Y46.3499 
G01 X-47.9525 Y30.1946 
G01 X-47.9109 Y30.1551 
G01 X-47.9085 Y30.1517 
G01 X-47.9054 Y30.1487 
G01 X-47.8728 Y30.1012 
G01 X-47.8397 Y30.0543 
G01 X-47.8380 Y30.0504 
G01 X-47.8356 Y30.0470 
G01 X-47.8130 Y29.9941 
G01 X-47.7896 Y29.9415 
G01 X-47.7886 Y29.9374 
G01 X-47.7870 Y29.9336 
G01 X-47.7751 Y29.8773 
G01 X-47.7624 Y29.8212 
G01 X-47.7623 Y29.8170 
G01 X-47.7614 Y29.8129 
G01 X-47.7607 Y29.7553 
G01 X-47.7592 Y29.6978 
G01 X-47.7599 Y29.6937 
G01 X-47.7599 Y29.6895 
G01 X-47.7704 Y29.6329 
G01 X-52.7100 Y0.9688 
G01 X-47.1147 Y3.9145 
G01 X-46.3464 Y4.3190 
G01 X-46.3464 Y8.2713 
G01 X-46.6004 Y8.5253 
G01 X-46.6004 Y9.2547 
G01 X-46.0847 Y9.7704 
G01 X-45.3553 Y9.7704 
G01 X-44.8396 Y9.2547 
G01 X-44.8396 Y8.5253 
G01 X-45.0936 Y8.2713 
G01 X-45.0936 Y4.9785 
G01 X-26.9072 Y14.5530 
G01 X-26.7889 Y14.5881 
G01 X-26.6660 Y14.5994 
G01 X-26.6573 Y14.5985 
G01 X-26.6486 Y14.5994 
G01 X-26.5257 Y14.5881 
G01 X-26.4074 Y14.5530 
G01 X-7.6114 Y4.6576 
G01 X-7.6114 Y8.2713 
G01 X-7.8654 Y8.5253 
G01 X-7.8654 Y9.2547 
G01 X-7.3497 Y9.7704 
G01 X-6.6203 Y9.7704 
G01 X-6.1046 Y9.2547 
G01 X-6.1046 Y8.5253 
G01 X-6.3586 Y8.2713 
G01 X-6.3586 Y4.0777 
G01 X-6.1904 Y3.9095 
G01 X-0.6046 Y0.9688 
G01 X-2.9560 Y14.6136 
G01 X-17.8417 Y14.6136 
G01 X-17.9627 Y14.6377 
G01 X-18.0767 Y14.6849 
G01 X-18.1793 Y14.7534 
G01 X-18.2666 Y14.8407 
G01 X-19.5366 Y16.1107 
G01 X-19.6051 Y16.2133 
G01 X-19.6523 Y16.3273 
G01 X-19.6764 Y16.4483 
G01 X-19.6764 Y19.1117 
G01 X-19.6523 Y19.2327 
G01 X-19.6051 Y19.3467 
G01 X-19.5366 Y19.4493 
G01 X-19.4493 Y19.5366 
G01 X-18.4064 Y20.5795 
G01 X-18.4064 Y31.4905 
G01 X-20.5795 Y33.6636 
G01 X-22.0071 Y33.6636 
G01 X-22.0528 Y33.6006 
G01 X-22.1706 Y33.4828 
G01 X-22.3054 Y33.3849 
G01 X-22.4538 Y33.3093 
G01 X-22.6122 Y33.2579 
G01 X-22.7767 Y33.2318 
G01 X-22.9433 Y33.2318 
G01 X-23.1078 Y33.2579 
G01 X-23.2662 Y33.3093 
G01 X-23.4146 Y33.3849 
G01 X-23.5494 Y33.4828 
G01 X-23.6671 Y33.6006 
G01 X-23.7129 Y33.6636 
G01 X-23.8705 Y33.6636 
G01 X-24.1386 Y33.3955 
G01 X-24.1386 Y30.1045 
G01 X-21.1907 Y27.1566 
G01 X-21.1034 Y27.0693 
G01 X-21.0349 Y26.9667 
G01 X-20.9877 Y26.8527 
G01 X-20.9636 Y26.7317 
G01 X-20.9636 Y24.0683 
G01 X-20.9877 Y23.9473 
G01 X-21.0349 Y23.8333 
G01 X-21.1034 Y23.7307 
G01 X-22.3734 Y22.4607 
G01 X-22.4607 Y22.3734 
G01 X-22.5633 Y22.3049 
G01 X-22.6773 Y22.2577 
G01 X-22.7983 Y22.2336 
G01 X-23.3676 Y22.2336 
G01 X-23.7232 Y21.8780 
G01 X-24.5368 Y21.8780 
G01 X-25.1120 Y22.4532 
G01 X-25.1120 Y23.2668 
G01 X-24.5368 Y23.8420 
G01 X-23.7232 Y23.8420 
G01 X-23.3676 Y23.4864 
G01 X-23.1195 Y23.4864 
G01 X-22.2164 Y24.3895 
G01 X-22.2164 Y26.4105 
G01 X-25.1643 Y29.3584 
G01 X-25.2516 Y29.4457 
G01 X-25.3201 Y29.5483 
G01 X-25.3673 Y29.6623 
G01 X-25.3914 Y29.7833 
G01 X-25.3914 Y33.7167 
G01 X-25.3673 Y33.8377 
G01 X-25.3201 Y33.9517 
G01 X-25.2516 Y34.0543 
G01 X-25.1643 Y34.1416 
G01 X-24.6166 Y34.6893 
G01 X-24.5293 Y34.7766 
G01 X-24.4267 Y34.8451 
G01 X-24.3127 Y34.8923 
G01 X-24.1917 Y34.9164 
G01 X-23.7129 Y34.9164 
G01 X-23.6671 Y34.9794 
G01 X-23.5494 Y35.0971 
G01 X-23.4146 Y35.1951 
G01 X-23.2662 Y35.2707 
G01 X-23.1078 Y35.3221 
G01 X-22.9433 Y35.3482 
G01 X-22.7767 Y35.3482 
G01 X-22.6122 Y35.3221 
G01 X-22.4538 Y35.2707 
G01 X-22.3054 Y35.1951 
G01 X-22.1706 Y35.0971 
G01 X-22.0528 Y34.9794 
G01 X-22.0071 Y34.9164 
G01 X-20.2583 Y34.9164 
G01 X-20.1373 Y34.8923 
G01 X-20.0233 Y34.8451 
G01 X-19.9207 Y34.7766 
G01 X-17.3807 Y32.2366 
G01 X-17.2934 Y32.1493 
G01 X-17.2249 Y32.0467 
G01 X-17.1777 Y31.9327 
G01 X-17.1536 Y31.8117 
G01 X-17.1536 Y20.2583 
G01 X-17.1777 Y20.1373 
G01 X-17.2249 Y20.0233 
G01 X-17.2934 Y19.9207 
G01 X-17.3807 Y19.8334 
G01 X-18.4236 Y18.7905 
G01 X-18.4236 Y16.7695 
G01 X-17.5205 Y15.8664 
G01 X-3.1719 Y15.8664 
G01 X-3.5000 Y17.7708 
G01 X-3.6760 Y18.7916 
G01 X-4.5509 Y23.8688 
G01 X-4.5834 Y23.9473 
G01 X-4.6075 Y24.0683 
G01 X-4.6075 Y24.1917 
G01 X-4.6070 Y24.1942 
G01 X-5.4495 Y29.0837 
G01 X-5.5442 Y29.6329 
G01 X-5.5547 Y29.6895 
G01 X-5.5547 Y29.6937 
G01 X-5.5554 Y29.6978 
G01 X-5.5539 Y29.7553 
G01 X-5.5532 Y29.8129 
G01 X-5.5523 Y29.8170 
G01 X-5.5522 Y29.8212 
G01 X-5.5395 Y29.8773 
G01 X-5.5276 Y29.9336 
G01 X-5.5260 Y29.9374 
G01 X-5.5250 Y29.9415 
G01 X-5.5016 Y29.9942 
G01 X-5.4790 Y30.0470 
G01 X-5.4766 Y30.0504 
G01 X-5.4749 Y30.0543 
G01 X-5.4417 Y30.1013 
G01 X-5.4092 Y30.1487 
G01 X-5.4061 Y30.1517 
G01 X-5.4037 Y30.1551 
G01 X-5.3621 Y30.1946 
G01 X-5.0307 Y30.5179 
G01 X11.2135 Y46.3636 
G01 X6.9687 Y46.3636 
G01 X6.7147 Y46.1096 
G01 X5.9853 Y46.1096 
G01 X5.4696 Y46.6253 
G01 X5.4696 Y47.3547 
G01 X5.9853 Y47.8704 
G01 X6.7147 Y47.8704 
G01 X6.9687 Y47.6164 
G01 X12.4978 Y47.6164 
G01 X15.4695 Y50.5152 
G01 X-9.4955 Y54.1480 
G01 X-9.4955 Y49.0326 
G01 X-9.4519 Y48.9675 
G01 X-9.3917 Y48.8221 
G01 X-9.3610 Y48.6677 
G01 X-9.3610 Y47.3523 
G01 X-9.3917 Y47.1979 
G01 X-9.4519 Y47.0525 
G01 X-9.5394 Y46.9217 
G01 X-9.6507 Y46.8104 
G01 X-9.7815 Y46.7229 
G01 X-9.9269 Y46.6627 
G01 X-10.0813 Y46.6320 
G01 X-10.2387 Y46.6320 
G01 X-10.3931 Y46.6627 
G01 X-10.5385 Y46.7229 
G01 X-10.6693 Y46.8104 
G01 X-10.7806 Y46.9217 
G01 X-10.8681 Y47.0525 
G01 X-10.9283 Y47.1979 
G01 X-10.9590 Y47.3523 
G01 X-10.9590 Y48.6677 
G01 X-10.9283 Y48.8221 
G01 X-10.8681 Y48.9675 
G01 X-10.7806 Y49.0983 
G01 X-10.7483 Y49.1307 
G01 X-10.7483 Y54.3303 
G01 X-11.2176 Y54.3986 
G01 X-11.2473 Y54.3863 
G01 X-11.3683 Y54.3622 
G01 X-11.4917 Y54.3622 
G01 X-11.6127 Y54.3863 
G01 X-11.7267 Y54.4335 
G01 X-11.8016 Y54.4836 
G01 X-13.2937 Y54.7007 
G01 X-13.3503 Y54.7081 
G01 X-13.3547 Y54.7095 
G01 X-13.3593 Y54.7102 
G01 X-13.4132 Y54.7293 
G01 X-13.4672 Y54.7476 
G01 X-13.4712 Y54.7499 
G01 X-13.4755 Y54.7515 
G01 X-13.5246 Y54.7807 
G01 X-13.5741 Y54.8092 
G01 X-13.5776 Y54.8122 
G01 X-13.5816 Y54.8146 
G01 X-13.6239 Y54.8528 
G01 X-13.6670 Y54.8905 
G01 X-13.6698 Y54.8941 
G01 X-13.6732 Y54.8972 
G01 X-13.7073 Y54.9429 
G01 X-13.7422 Y54.9883 
G01 X-13.7442 Y54.9924 
G01 X-13.7470 Y54.9961 
G01 X-13.7715 Y55.0477 
G01 X-15.8770 Y59.3062 
G01 X-18.4985 Y64.6086 
G01 X-27.2155 Y64.6086 
G01 X-28.3042 Y63.5199 
G01 X-28.3042 Y63.1956 
G01 X-28.1678 Y63.0592 
G01 X-28.0604 Y62.8984 
G01 X-27.9863 Y62.7196 
G01 X-27.9486 Y62.5299 
G01 X-27.9486 Y60.8125 
G01 X-27.9863 Y60.6228 
G01 X-28.0604 Y60.4440 
G01 X-28.1678 Y60.2832 
G01 X-28.3046 Y60.1464 
G01 X-28.4654 Y60.0390 
G01 X-28.6442 Y59.9649 
G01 X-28.8339 Y59.9272 
G01 X-29.0273 Y59.9272 
G01 X-29.2170 Y59.9649 
G01 X-29.3958 Y60.0390 
G01 X-29.5566 Y60.1464 
G01 X-29.6934 Y60.2832 
G01 X-29.8008 Y60.4440 
G01 X-29.8749 Y60.6228 
G01 X-29.9126 Y60.8125 
G01 X-29.9126 Y62.5299 
G01 X-29.8749 Y62.7196 
G01 X-29.8008 Y62.8984 
G01 X-29.6934 Y63.0592 
G01 X-29.5570 Y63.1956 
G01 X-29.5570 Y63.8411 
G01 X-29.5329 Y63.9621 
G01 X-29.4857 Y64.0761 
G01 X-29.4172 Y64.1787 
G01 X-27.8743 Y65.7216 
G01 X-27.7717 Y65.7901 
G01 X-27.6577 Y65.8374 
G01 X-27.5367 Y65.8614 
G01 X-19.1179 Y65.8614 
G01 X-19.1482 Y65.9226 
G01 X-21.4081 Y70.4936 
G01 X-26.0513 Y70.4936 
G01 X-26.3053 Y70.2396 
G01 X-27.0347 Y70.2396 
G01 X-27.5504 Y70.7553 
G00 Z1.0000 
G00 X-31.5382 Y46.9067 
G01 Z0.0000 F70.00 
G01 X-31.5382 Y47.0733 F300.00 
G01 X-31.5121 Y47.2378 
G01 X-31.4607 Y47.3962 
G01 X-31.3851 Y47.5446 
G01 X-31.2871 Y47.6794 
G01 X-31.1694 Y47.7971 
G01 X-31.0346 Y47.8951 
G01 X-30.8862 Y47.9707 
G01 X-30.7278 Y48.0221 
G01 X-30.5633 Y48.0482 
G01 X-30.3967 Y48.0482 
G01 X-30.3198 Y48.0360 
G01 X-29.8364 Y48.5195 
G01 X-29.8364 Y50.1813 
G01 X-30.0904 Y50.4353 
G01 X-30.0904 Y51.1647 
G01 X-29.8364 Y51.4187 
G01 X-29.8364 Y54.0275 
G01 X-29.8749 Y54.1204 
G01 X-29.9126 Y54.3101 
G01 X-29.9126 Y56.0275 
G01 X-29.8749 Y56.2172 
G01 X-29.8008 Y56.3960 
G01 X-29.6934 Y56.5568 
G01 X-29.5566 Y56.6936 
G01 X-29.3958 Y56.8010 
G01 X-29.2170 Y56.8751 
G01 X-29.0273 Y56.9128 
G01 X-28.8339 Y56.9128 
G01 X-28.6442 Y56.8751 
G01 X-28.4654 Y56.8010 
G01 X-28.3046 Y56.6936 
G01 X-28.1678 Y56.5568 
G01 X-28.0604 Y56.3960 
G01 X-27.9863 Y56.2172 
G01 X-27.9486 Y56.0275 
G01 X-27.9486 Y54.3101 
G01 X-27.9863 Y54.1204 
G01 X-28.0604 Y53.9416 
G01 X-28.1678 Y53.7808 
G01 X-28.3046 Y53.6440 
G01 X-28.4654 Y53.5366 
G01 X-28.5836 Y53.4876 
G01 X-28.5836 Y51.4187 
G01 X-28.3296 Y51.1647 
G01 X-28.3296 Y50.4353 
G01 X-28.5836 Y50.1813 
G01 X-28.5836 Y48.1983 
G01 X-28.6077 Y48.0773 
G01 X-28.6549 Y47.9633 
G01 X-28.7234 Y47.8607 
G01 X-28.8107 Y47.7734 
G01 X-29.4340 Y47.1502 
G01 X-29.4218 Y47.0733 
G01 X-29.4218 Y46.9067 
G01 X-29.4479 Y46.7422 
G01 X-29.4993 Y46.5838 
G01 X-29.5749 Y46.4354 
G01 X-29.6729 Y46.3006 
G01 X-29.7906 Y46.1829 
G01 X-29.9254 Y46.0849 
G01 X-30.0738 Y46.0093 
G01 X-30.2322 Y45.9579 
G01 X-30.3967 Y45.9318 
G01 X-30.5633 Y45.9318 
G01 X-30.7278 Y45.9579 
G01 X-30.8862 Y46.0093 
G01 X-31.0346 Y46.0849 
G01 X-31.1694 Y46.1829 
G01 X-31.2871 Y46.3006 
G01 X-31.3851 Y46.4354 
G01 X-31.4607 Y46.5838 
G01 X-31.5121 Y46.7422 
G01 X-31.5382 Y46.9067 
G00 Z1.0000 
G00 X-31.2871 Y37.5194 
G01 Z0.0000 F70.00 
G01 X-31.1694 Y37.6371 F300.00 
G01 X-31.0346 Y37.7351 
G01 X-30.8862 Y37.8107 
G01 X-30.7278 Y37.8621 
G01 X-30.5633 Y37.8882 
G01 X-30.3967 Y37.8882 
G01 X-30.2322 Y37.8621 
G01 X-30.0738 Y37.8107 
G01 X-29.9254 Y37.7351 
G01 X-29.7906 Y37.6371 
G01 X-29.6729 Y37.5194 
G01 X-29.5749 Y37.3846 
G01 X-29.4993 Y37.2362 
G01 X-29.4479 Y37.0778 
G01 X-29.4218 Y36.9133 
G01 X-29.4218 Y36.7467 
G01 X-29.4479 Y36.5822 
G01 X-29.4993 Y36.4238 
G01 X-29.5749 Y36.2754 
G01 X-29.6729 Y36.1406 
G01 X-29.7906 Y36.0228 
G01 X-29.9254 Y35.9249 
G01 X-30.0738 Y35.8493 
G01 X-30.2322 Y35.7979 
G01 X-30.3967 Y35.7718 
G01 X-30.5633 Y35.7718 
G01 X-30.7278 Y35.7979 
G01 X-30.8862 Y35.8493 
G01 X-31.0346 Y35.9249 
G01 X-31.1694 Y36.0228 
G01 X-31.2871 Y36.1406 
G01 X-31.3329 Y36.2036 
G01 X-34.0305 Y36.2036 
G01 X-34.6796 Y35.5545 
G01 X-34.6796 Y35.1953 
G01 X-35.1953 Y34.6796 
G01 X-35.9247 Y34.6796 
G01 X-36.4404 Y35.1953 
G01 X-36.4404 Y35.9247 
G01 X-35.9247 Y36.4404 
G01 X-35.5655 Y36.4404 
G01 X-34.6893 Y37.3166 
G01 X-34.5867 Y37.3851 
G01 X-34.4727 Y37.4323 
G01 X-34.3517 Y37.4564 
G01 X-31.3329 Y37.4564 
G01 X-31.2871 Y37.5194 
G00 Z1.0000 
G00 X-31.5382 Y31.6667 
G01 Z0.0000 F70.00 
G01 X-31.5382 Y31.8333 F300.00 
G01 X-31.5121 Y31.9978 
G01 X-31.4607 Y32.1562 
G01 X-31.3851 Y32.3046 
G01 X-31.2871 Y32.4394 
G01 X-31.1694 Y32.5571 
G01 X-31.0346 Y32.6551 
G01 X-30.8862 Y32.7307 
G01 X-30.7278 Y32.7821 
G01 X-30.5633 Y32.8082 
G01 X-30.3967 Y32.8082 
G01 X-30.2322 Y32.7821 
G01 X-30.0738 Y32.7307 
G01 X-29.9254 Y32.6551 
G01 X-29.7906 Y32.5571 
G01 X-29.6729 Y32.4394 
G01 X-29.5749 Y32.3046 
G01 X-29.4993 Y32.1562 
G01 X-29.4479 Y31.9978 
G01 X-29.4218 Y31.8333 
G01 X-29.4218 Y31.6667 
G01 X-29.4479 Y31.5022 
G01 X-29.4993 Y31.3438 
G01 X-29.5749 Y31.1954 
G01 X-29.6729 Y31.0606 
G01 X-29.7906 Y30.9428 
G01 X-29.9254 Y30.8449 
G01 X-30.0738 Y30.7693 
G01 X-30.2322 Y30.7179 
G01 X-30.3967 Y30.6918 
G01 X-30.5633 Y30.6918 
G01 X-30.6402 Y30.7040 
G01 X-31.1236 Y30.2205 
G01 X-31.1236 Y26.9295 
G01 X-30.2205 Y26.0264 
G01 X-29.9724 Y26.0264 
G01 X-29.8360 Y26.1628 
G01 X-29.6752 Y26.2702 
G01 X-29.4964 Y26.3443 
G01 X-29.3067 Y26.3820 
G01 X-29.1133 Y26.3820 
G01 X-28.9236 Y26.3443 
G01 X-28.7448 Y26.2702 
G01 X-28.5840 Y26.1628 
G01 X-28.4472 Y26.0260 
G01 X-28.3398 Y25.8651 
G01 X-28.2657 Y25.6864 
G01 X-28.2280 Y25.4967 
G01 X-28.2280 Y25.3033 
G01 X-28.2657 Y25.1136 
G01 X-28.3398 Y24.9348 
G01 X-28.4472 Y24.7740 
G01 X-28.5840 Y24.6372 
G01 X-28.7448 Y24.5298 
G01 X-28.9236 Y24.4557 
G01 X-29.1133 Y24.4180 
G01 X-29.3067 Y24.4180 
G01 X-29.4964 Y24.4557 
G01 X-29.6752 Y24.5298 
G01 X-29.8360 Y24.6372 
G01 X-29.9724 Y24.7736 
G01 X-30.5417 Y24.7736 
G01 X-30.6627 Y24.7977 
G01 X-30.7767 Y24.8449 
G01 X-30.8793 Y24.9134 
G01 X-30.9666 Y25.0007 
G01 X-32.1493 Y26.1834 
G01 X-32.2366 Y26.2707 
G01 X-32.3051 Y26.3733 
G01 X-32.3523 Y26.4873 
G01 X-32.3764 Y26.6083 
G01 X-32.3764 Y30.5417 
G01 X-32.3523 Y30.6627 
G01 X-32.3051 Y30.7767 
G01 X-32.2366 Y30.8793 
G01 X-32.1493 Y30.9666 
G01 X-31.5260 Y31.5898 
G01 X-31.5382 Y31.6667 
G00 Z1.0000 
G00 X-23.9182 Y36.7467 
G01 Z0.0000 F70.00 
G01 X-23.9182 Y36.9133 F300.00 
G01 X-23.8921 Y37.0778 
G01 X-23.8407 Y37.2362 
G01 X-23.7651 Y37.3846 
G01 X-23.6671 Y37.5194 
G01 X-23.5494 Y37.6371 
G01 X-23.4146 Y37.7351 
G01 X-23.2662 Y37.8107 
G01 X-23.1078 Y37.8621 
G01 X-22.9433 Y37.8882 
G01 X-22.7767 Y37.8882 
G01 X-22.6122 Y37.8621 
G01 X-22.4538 Y37.8107 
G01 X-22.3054 Y37.7351 
G01 X-22.1706 Y37.6371 
G01 X-22.0528 Y37.5194 
G01 X-22.0071 Y37.4564 
G01 X-18.9883 Y37.4564 
G01 X-18.8673 Y37.4323 
G01 X-18.7533 Y37.3851 
G01 X-18.6507 Y37.3166 
G01 X-18.5634 Y37.2293 
G01 X-14.7534 Y33.4193 
G01 X-14.6849 Y33.3167 
G01 X-14.6377 Y33.2027 
G01 X-14.6136 Y33.0817 
G01 X-14.6136 Y18.9883 
G01 X-14.6377 Y18.8673 
G01 X-14.6849 Y18.7533 
G01 X-14.7534 Y18.6507 
G01 X-14.8407 Y18.5634 
G01 X-15.6296 Y17.7745 
G01 X-15.6296 Y17.4153 
G01 X-16.1453 Y16.8996 
G01 X-16.8747 Y16.8996 
G01 X-17.3904 Y17.4153 
G01 X-17.3904 Y18.1447 
G01 X-16.8747 Y18.6604 
G01 X-16.5155 Y18.6604 
G01 X-15.8664 Y19.3095 
G01 X-15.8664 Y32.7605 
G01 X-19.3095 Y36.2036 
G01 X-22.0071 Y36.2036 
G01 X-22.0528 Y36.1406 
G01 X-22.1706 Y36.0228 
G01 X-22.3054 Y35.9249 
G01 X-22.4538 Y35.8493 
G01 X-22.6122 Y35.7979 
G01 X-22.7767 Y35.7718 
G01 X-22.9433 Y35.7718 
G01 X-23.1078 Y35.7979 
G01 X-23.2662 Y35.8493 
G01 X-23.4146 Y35.9249 
G01 X-23.5494 Y36.0228 
G01 X-23.6671 Y36.1406 
G01 X-23.7651 Y36.2754 
G01 X-23.8407 Y36.4238 
G01 X-23.8921 Y36.5822 
G01 X-23.9182 Y36.7467 
G00 Z1.0000 
G00 X-23.9182 Y41.8267 
G01 Z0.0000 F70.00 
G01 X-23.9182 Y41.9933 F300.00 
G01 X-23.8921 Y42.1578 
G01 X-23.8407 Y42.3162 
G01 X-23.7651 Y42.4646 
G01 X-23.6671 Y42.5994 
G01 X-23.5494 Y42.7171 
G01 X-23.4146 Y42.8150 
G01 X-23.2662 Y42.8907 
G01 X-23.1078 Y42.9421 
G01 X-22.9433 Y42.9682 
G01 X-22.7767 Y42.9682 
G01 X-22.6122 Y42.9421 
G01 X-22.4538 Y42.8907 
G01 X-22.3054 Y42.8150 
G01 X-22.1706 Y42.7171 
G01 X-22.0528 Y42.5994 
G01 X-21.9549 Y42.4646 
G01 X-21.8793 Y42.3162 
G01 X-21.8279 Y42.1578 
G01 X-21.8018 Y41.9933 
G01 X-21.8018 Y41.8267 
G01 X-21.8279 Y41.6622 
G01 X-21.8793 Y41.5038 
G01 X-21.9549 Y41.3554 
G01 X-22.0528 Y41.2206 
G01 X-22.1706 Y41.1029 
G01 X-22.3054 Y41.0049 
G01 X-22.4538 Y40.9293 
G01 X-22.6122 Y40.8779 
G01 X-22.7767 Y40.8518 
G01 X-22.9433 Y40.8518 
G01 X-23.1078 Y40.8779 
G01 X-23.2662 Y40.9293 
G01 X-23.4146 Y41.0049 
G01 X-23.5494 Y41.1029 
G01 X-23.6671 Y41.2206 
G01 X-23.7651 Y41.3554 
G01 X-23.8407 Y41.5038 
G01 X-23.8921 Y41.6622 
G01 X-23.9182 Y41.8267 
G00 Z1.0000 
G00 X-27.6520 Y22.4532 
G01 Z0.0000 F70.00 
G01 X-27.6520 Y23.2668 F300.00 
G01 X-27.0768 Y23.8420 
G01 X-26.2632 Y23.8420 
G01 X-25.6880 Y23.2668 
G01 X-25.6880 Y22.4532 
G01 X-26.0436 Y22.0976 
G01 X-26.0436 Y21.8495 
G01 X-25.1405 Y20.9464 
G01 X-21.2145 Y20.9464 
G01 X-20.3114 Y21.8495 
G01 X-20.3114 Y30.2205 
G01 X-21.2145 Y31.1236 
G01 X-22.0071 Y31.1236 
G01 X-22.0528 Y31.0606 
G01 X-22.1706 Y30.9428 
G01 X-22.3054 Y30.8449 
G01 X-22.4538 Y30.7693 
G01 X-22.6122 Y30.7179 
G01 X-22.7767 Y30.6918 
G01 X-22.9433 Y30.6918 
G01 X-23.1078 Y30.7179 
G01 X-23.2662 Y30.7693 
G01 X-23.4146 Y30.8449 
G01 X-23.5494 Y30.9428 
G01 X-23.6671 Y31.0606 
G01 X-23.7651 Y31.1954 
G01 X-23.8407 Y31.3438 
G01 X-23.8921 Y31.5022 
G01 X-23.9182 Y31.6667 
G01 X-23.9182 Y31.8333 
G01 X-23.8921 Y31.9978 
G01 X-23.8407 Y32.1562 
G01 X-23.7651 Y32.3046 
G01 X-23.6671 Y32.4394 
G01 X-23.5494 Y32.5571 
G01 X-23.4146 Y32.6551 
G01 X-23.2662 Y32.7307 
G01 X-23.1078 Y32.7821 
G01 X-22.9433 Y32.8082 
G01 X-22.7767 Y32.8082 
G01 X-22.6122 Y32.7821 
G01 X-22.4538 Y32.7307 
G01 X-22.3054 Y32.6551 
G01 X-22.1706 Y32.5571 
G01 X-22.0528 Y32.4394 
G01 X-22.0071 Y32.3764 
G01 X-20.8933 Y32.3764 
G01 X-20.7723 Y32.3523 
G01 X-20.6583 Y32.3051 
G01 X-20.5557 Y32.2366 
G01 X-20.4684 Y32.1493 
G01 X-19.2857 Y30.9666 
G01 X-19.1984 Y30.8793 
G01 X-19.1299 Y30.7767 
G01 X-19.0827 Y30.6627 
G01 X-19.0586 Y30.5417 
G01 X-19.0586 Y21.5283 
G01 X-19.0827 Y21.4073 
G01 X-19.1299 Y21.2933 
G01 X-19.1984 Y21.1907 
G01 X-19.2857 Y21.1034 
G01 X-20.5557 Y19.8334 
G01 X-20.6583 Y19.7649 
G01 X-20.7723 Y19.7177 
G01 X-20.8933 Y19.6936 
G01 X-25.4617 Y19.6936 
G01 X-25.5827 Y19.7177 
G01 X-25.6967 Y19.7649 
G01 X-25.7993 Y19.8334 
G01 X-25.8866 Y19.9207 
G01 X-27.1566 Y21.1907 
G01 X-27.2251 Y21.2933 
G01 X-27.2723 Y21.4073 
G01 X-27.2964 Y21.5283 
G01 X-27.2964 Y22.0976 
G01 X-27.6520 Y22.4532 
G00 Z1.0000 
G00 X-29.6168 Y23.8420 
G01 Z0.0000 F70.00 
G01 X-28.8032 Y23.8420 F300.00 
G01 X-28.2280 Y23.2668 
G01 X-28.2280 Y22.4532 
G01 X-28.8032 Y21.8780 
G01 X-29.6168 Y21.8780 
G01 X-29.9724 Y22.2336 
G01 X-34.3517 Y22.2336 
G01 X-34.4727 Y22.2577 
G01 X-34.5867 Y22.3049 
G01 X-34.6893 Y22.3734 
G01 X-39.7693 Y27.4534 
G01 X-39.8566 Y27.5407 
G01 X-39.9251 Y27.6433 
G01 X-39.9723 Y27.7573 
G01 X-39.9964 Y27.8783 
G01 X-39.9964 Y49.5917 
G01 X-39.9723 Y49.7127 
G01 X-39.9251 Y49.8267 
G01 X-39.8566 Y49.9293 
G01 X-39.7693 Y50.0166 
G01 X-30.9666 Y58.8193 
G01 X-30.8793 Y58.9066 
G01 X-30.7767 Y58.9751 
G01 X-30.6627 Y59.0223 
G01 X-30.5417 Y59.0464 
G01 X-21.5283 Y59.0464 
G01 X-21.4073 Y59.0223 
G01 X-21.2933 Y58.9751 
G01 X-21.1907 Y58.9066 
G01 X-21.1034 Y58.8193 
G01 X-19.9207 Y57.6366 
G01 X-19.8334 Y57.5493 
G01 X-19.7649 Y57.4467 
G01 X-19.7177 Y57.3327 
G01 X-19.6936 Y57.2117 
G01 X-19.6936 Y42.1695 
G01 X-9.6734 Y32.1493 
G01 X-9.6049 Y32.0467 
G01 X-9.5577 Y31.9327 
G01 X-9.5336 Y31.8117 
G01 X-9.5336 Y29.0897 
G01 X-9.4519 Y28.9675 
G01 X-9.3917 Y28.8221 
G01 X-9.3610 Y28.6677 
G01 X-9.3610 Y27.3523 
G01 X-9.3917 Y27.1979 
G01 X-9.4519 Y27.0525 
G01 X-9.5394 Y26.9217 
G01 X-9.6507 Y26.8104 
G01 X-9.7815 Y26.7229 
G01 X-9.9269 Y26.6627 
G01 X-10.0813 Y26.6320 
G01 X-10.2387 Y26.6320 
G01 X-10.3931 Y26.6627 
G01 X-10.5385 Y26.7229 
G01 X-10.6693 Y26.8104 
G01 X-10.7806 Y26.9217 
G01 X-10.8681 Y27.0525 
G01 X-10.9283 Y27.1979 
G01 X-10.9590 Y27.3523 
G01 X-10.9590 Y28.6677 
G01 X-10.9283 Y28.8221 
G01 X-10.8681 Y28.9675 
G01 X-10.7864 Y29.0897 
G01 X-10.7864 Y31.4905 
G01 X-20.7193 Y41.4234 
G01 X-20.8066 Y41.5107 
G01 X-20.8751 Y41.6133 
G01 X-20.9223 Y41.7273 
G01 X-20.9464 Y41.8483 
G01 X-20.9464 Y46.3636 
G01 X-21.8018 Y46.3636 
G01 X-21.8018 Y46.1080 
G01 X-21.8353 Y46.0272 
G01 X-21.8972 Y45.9653 
G01 X-21.9780 Y45.9318 
G01 X-23.7420 Y45.9318 
G01 X-23.8228 Y45.9653 
G01 X-23.8847 Y46.0272 
G01 X-23.9182 Y46.1080 
G01 X-23.9182 Y47.1623 
G01 X-24.5293 Y47.7734 
G01 X-24.6166 Y47.8607 
G01 X-24.6851 Y47.9633 
G01 X-24.7323 Y48.0773 
G01 X-24.7564 Y48.1983 
G01 X-24.7564 Y50.1813 
G01 X-25.0104 Y50.4353 
G01 X-25.0104 Y51.1647 
G01 X-24.4947 Y51.6804 
G01 X-23.7653 Y51.6804 
G01 X-23.2496 Y51.1647 
G01 X-23.2496 Y50.4353 
G01 X-23.5036 Y50.1813 
G01 X-23.5036 Y48.5195 
G01 X-23.0323 Y48.0482 
G01 X-21.9780 Y48.0482 
G01 X-21.8972 Y48.0147 
G01 X-21.8353 Y47.9528 
G01 X-21.8018 Y47.8720 
G01 X-21.8018 Y47.6164 
G01 X-20.9464 Y47.6164 
G01 X-20.9464 Y56.8905 
G01 X-21.8495 Y57.7936 
G01 X-30.2205 Y57.7936 
G01 X-38.7436 Y49.2705 
G01 X-38.7436 Y28.1995 
G01 X-34.0305 Y23.4864 
G01 X-29.9724 Y23.4864 
G01 X-29.6168 Y23.8420 
G00 Z1.0000 
G00 X-25.1120 Y24.9932 
G01 Z0.0000 F70.00 
G01 X-25.1120 Y25.4961 F300.00 
G01 X-27.0693 Y27.4534 
G01 X-27.1566 Y27.5407 
G01 X-27.2251 Y27.6433 
G01 X-27.2723 Y27.7573 
G01 X-27.2964 Y27.8783 
G01 X-27.2964 Y38.1617 
G01 X-27.2723 Y38.2827 
G01 X-27.2251 Y38.3967 
G01 X-27.1566 Y38.4993 
G01 X-27.0693 Y38.5866 
G01 X-25.8866 Y39.7693 
G01 X-25.7993 Y39.8566 
G01 X-25.6967 Y39.9251 
G01 X-25.5827 Y39.9723 
G01 X-25.4617 Y39.9964 
G01 X-23.7129 Y39.9964 
G01 X-23.6671 Y40.0594 
G01 X-23.5494 Y40.1771 
G01 X-23.4146 Y40.2751 
G01 X-23.2662 Y40.3507 
G01 X-23.1078 Y40.4021 
G01 X-22.9433 Y40.4282 
G01 X-22.7767 Y40.4282 
G01 X-22.6122 Y40.4021 
G01 X-22.4538 Y40.3507 
G01 X-22.3054 Y40.2751 
G01 X-22.1706 Y40.1771 
G01 X-22.0528 Y40.0594 
G01 X-21.9549 Y39.9246 
G01 X-21.8793 Y39.7762 
G01 X-21.8279 Y39.6178 
G01 X-21.8018 Y39.4533 
G01 X-21.8018 Y39.2867 
G01 X-21.8279 Y39.1222 
G01 X-21.8793 Y38.9638 
G01 X-21.9549 Y38.8154 
G01 X-22.0528 Y38.6806 
G01 X-22.1706 Y38.5629 
G01 X-22.3054 Y38.4649 
G01 X-22.4538 Y38.3893 
G01 X-22.6122 Y38.3379 
G01 X-22.7767 Y38.3118 
G01 X-22.9433 Y38.3118 
G01 X-23.1078 Y38.3379 
G01 X-23.2662 Y38.3893 
G01 X-23.4146 Y38.4649 
G01 X-23.5494 Y38.5629 
G01 X-23.6671 Y38.6806 
G01 X-23.7129 Y38.7436 
G01 X-25.1405 Y38.7436 
G01 X-26.0436 Y37.8405 
G01 X-26.0436 Y28.1995 
G01 X-24.2261 Y26.3820 
G01 X-23.7232 Y26.3820 
G01 X-23.1480 Y25.8068 
G01 X-23.1480 Y24.9932 
G01 X-23.7232 Y24.4180 
G01 X-24.5368 Y24.4180 
G01 X-25.1120 Y24.9932 
G00 Z1.0000 
G00 X-27.6520 Y24.9932 
G01 Z0.0000 F70.00 
G01 X-27.6520 Y25.4961 F300.00 
G01 X-28.9743 Y26.8184 
G01 X-29.0616 Y26.9057 
G01 X-29.1301 Y27.0083 
G01 X-29.1773 Y27.1223 
G01 X-29.2014 Y27.2433 
G01 X-29.2014 Y32.1255 
G01 X-30.3198 Y33.2440 
G01 X-30.3967 Y33.2318 
G01 X-30.5633 Y33.2318 
G01 X-30.7278 Y33.2579 
G01 X-30.8862 Y33.3093 
G01 X-31.0346 Y33.3849 
G01 X-31.1694 Y33.4828 
G01 X-31.2871 Y33.6006 
G01 X-31.3851 Y33.7354 
G01 X-31.4607 Y33.8838 
G01 X-31.5121 Y34.0422 
G01 X-31.5382 Y34.2067 
G01 X-31.5382 Y34.3733 
G01 X-31.5121 Y34.5378 
G01 X-31.4607 Y34.6962 
G01 X-31.3851 Y34.8446 
G01 X-31.2871 Y34.9794 
G01 X-31.1694 Y35.0971 
G01 X-31.0346 Y35.1951 
G01 X-30.8862 Y35.2707 
G01 X-30.7278 Y35.3221 
G01 X-30.5633 Y35.3482 
G01 X-30.3967 Y35.3482 
G01 X-30.2322 Y35.3221 
G01 X-30.0738 Y35.2707 
G01 X-29.9254 Y35.1951 
G01 X-29.7906 Y35.0971 
G01 X-29.6729 Y34.9794 
G01 X-29.5749 Y34.8446 
G01 X-29.4993 Y34.6962 
G01 X-29.4479 Y34.5378 
G01 X-29.4218 Y34.3733 
G01 X-29.4218 Y34.2067 
G01 X-29.4340 Y34.1298 
G01 X-28.1757 Y32.8716 
G01 X-28.0884 Y32.7843 
G01 X-28.0199 Y32.6817 
G01 X-27.9727 Y32.5677 
G01 X-27.9486 Y32.4467 
G01 X-27.9486 Y27.5645 
G01 X-26.7661 Y26.3820 
G01 X-26.2632 Y26.3820 
G01 X-25.6880 Y25.8068 
G01 X-25.6880 Y24.9932 
G01 X-26.2632 Y24.4180 
G01 X-27.0768 Y24.4180 
G01 X-27.6520 Y24.9932 
G00 Z1.0000 
G00 X-25.3914 Y54.3101 
G01 Z0.0000 F70.00 
G01 X-25.3914 Y56.0275 F300.00 
G01 X-25.3537 Y56.2172 
G01 X-25.2796 Y56.3960 
G01 X-25.1722 Y56.5568 
G01 X-25.0354 Y56.6936 
G01 X-24.8746 Y56.8010 
G01 X-24.6958 Y56.8751 
G01 X-24.5061 Y56.9128 
G01 X-24.3127 Y56.9128 
G01 X-24.1230 Y56.8751 
G01 X-23.9442 Y56.8010 
G01 X-23.7834 Y56.6936 
G01 X-23.6466 Y56.5568 
G01 X-23.5392 Y56.3960 
G01 X-23.4651 Y56.2172 
G01 X-23.4274 Y56.0275 
G01 X-23.4274 Y54.3101 
G01 X-23.4651 Y54.1204 
G01 X-23.5392 Y53.9416 
G01 X-23.6466 Y53.7808 
G01 X-23.7834 Y53.6440 
G01 X-23.9442 Y53.5366 
G01 X-24.1230 Y53.4625 
G01 X-24.3127 Y53.4248 
G01 X-24.4293 Y53.4248 
G01 X-26.0436 Y51.8105 
G01 X-26.0436 Y47.2495 
G01 X-23.8705 Y45.0764 
G01 X-23.7129 Y45.0764 
G01 X-23.6671 Y45.1394 
G01 X-23.5494 Y45.2571 
G01 X-23.4146 Y45.3551 
G01 X-23.2662 Y45.4307 
G01 X-23.1078 Y45.4821 
G01 X-22.9433 Y45.5082 
G01 X-22.7767 Y45.5082 
G01 X-22.6122 Y45.4821 
G01 X-22.4538 Y45.4307 
G01 X-22.3054 Y45.3551 
G01 X-22.1706 Y45.2571 
G01 X-22.0528 Y45.1394 
G01 X-21.9549 Y45.0046 
G01 X-21.8793 Y44.8562 
G01 X-21.8279 Y44.6978 
G01 X-21.8018 Y44.5333 
G01 X-21.8018 Y44.3667 
G01 X-21.8279 Y44.2022 
G01 X-21.8793 Y44.0438 
G01 X-21.9549 Y43.8954 
G01 X-22.0528 Y43.7606 
G01 X-22.1706 Y43.6429 
G01 X-22.3054 Y43.5449 
G01 X-22.4538 Y43.4693 
G01 X-22.6122 Y43.4179 
G01 X-22.7767 Y43.3918 
G01 X-22.9433 Y43.3918 
G01 X-23.1078 Y43.4179 
G01 X-23.2662 Y43.4693 
G01 X-23.4146 Y43.5449 
G01 X-23.5494 Y43.6429 
G01 X-23.6671 Y43.7606 
G01 X-23.7129 Y43.8236 
G01 X-24.1917 Y43.8236 
G01 X-24.3127 Y43.8477 
G01 X-24.4267 Y43.8949 
G01 X-24.5293 Y43.9634 
G01 X-27.0693 Y46.5034 
G01 X-27.1566 Y46.5907 
G01 X-27.2251 Y46.6933 
G01 X-27.2723 Y46.8073 
G01 X-27.2964 Y46.9283 
G01 X-27.2964 Y52.1317 
G01 X-27.2723 Y52.2527 
G01 X-27.2251 Y52.3667 
G01 X-27.1566 Y52.4693 
G01 X-27.0693 Y52.5566 
G01 X-25.3788 Y54.2470 
G01 X-25.3914 Y54.3101 
G00 Z1.0000 
G00 X-25.3914 Y60.8125 
G01 Z0.0000 F70.00 
G01 X-25.3914 Y62.5299 F300.00 
G01 X-25.3537 Y62.7196 
G01 X-25.2796 Y62.8984 
G01 X-25.1722 Y63.0592 
G01 X-25.0354 Y63.1960 
G01 X-24.8746 Y63.3034 
G01 X-24.6958 Y63.3775 
G01 X-24.5061 Y63.4152 
G01 X-24.3127 Y63.4152 
G01 X-24.1230 Y63.3775 
G01 X-23.9442 Y63.3034 
G01 X-23.7834 Y63.1960 
G01 X-23.6466 Y63.0592 
G01 X-23.5392 Y62.8984 
G01 X-23.4651 Y62.7196 
G01 X-23.4274 Y62.5299 
G01 X-23.4274 Y60.8125 
G01 X-23.4651 Y60.6228 
G01 X-23.5392 Y60.4440 
G01 X-23.6466 Y60.2832 
G01 X-23.7834 Y60.1464 
G01 X-23.9442 Y60.0390 
G01 X-24.1230 Y59.9649 
G01 X-24.3127 Y59.9272 
G01 X-24.5061 Y59.9272 
G01 X-24.6958 Y59.9649 
G01 X-24.8746 Y60.0390 
G01 X-25.0354 Y60.1464 
G01 X-25.1722 Y60.2832 
G01 X-25.2796 Y60.4440 
G01 X-25.3537 Y60.6228 
G01 X-25.3914 Y60.8125 
G00 Z1.0000 
G00 X-7.2304 Y17.4153 
G01 Z0.0000 F70.00 
G01 X-7.2304 Y17.7745 F300.00 
G01 X-8.1066 Y18.6507 
G01 X-8.1751 Y18.7533 
G01 X-8.2223 Y18.8673 
G01 X-8.2464 Y18.9883 
G01 X-8.2464 Y30.5417 
G01 X-8.2223 Y30.6627 
G01 X-8.1751 Y30.7767 
G01 X-8.1066 Y30.8793 
G01 X-8.0193 Y30.9666 
G01 X3.1836 Y42.1695 
G01 X3.1836 Y46.3713 
G01 X2.9296 Y46.6253 
G01 X2.9296 Y47.3547 
G01 X3.4453 Y47.8704 
G01 X4.1747 Y47.8704 
G01 X4.6904 Y47.3547 
G01 X4.6904 Y46.6253 
G01 X4.4364 Y46.3713 
G01 X4.4364 Y41.8483 
G01 X4.4123 Y41.7273 
G01 X4.3651 Y41.6133 
G01 X4.2966 Y41.5107 
G01 X4.2093 Y41.4234 
G01 X-6.9936 Y30.2205 
G01 X-6.9936 Y19.3095 
G01 X-6.3445 Y18.6604 
G01 X-5.9853 Y18.6604 
G01 X-5.4696 Y18.1447 
G01 X-5.4696 Y17.4153 
G01 X-5.9853 Y16.8996 
G01 X-6.7147 Y16.8996 
G01 X-7.2304 Y17.4153 
G00 Z1.0000 
G00 X-36.4404 Y46.6253 
G01 Z0.0000 F70.00 
G01 X-36.4404 Y47.3547 F300.00 
G01 X-35.9247 Y47.8704 
G01 X-35.1953 Y47.8704 
G01 X-34.9413 Y47.6164 
G01 X-34.2283 Y47.6164 
G01 X-34.1073 Y47.5923 
G01 X-33.9933 Y47.5451 
G01 X-33.8907 Y47.4766 
G01 X-33.8034 Y47.3893 
G01 X-31.4905 Y45.0764 
G01 X-31.3329 Y45.0764 
G01 X-31.2871 Y45.1394 
G01 X-31.1694 Y45.2571 
G01 X-31.0346 Y45.3551 
G01 X-30.8862 Y45.4307 
G01 X-30.7278 Y45.4821 
G01 X-30.5633 Y45.5082 
G01 X-30.3967 Y45.5082 
G01 X-30.2322 Y45.4821 
G01 X-30.0738 Y45.4307 
G01 X-29.9254 Y45.3551 
G01 X-29.7906 Y45.2571 
G01 X-29.6729 Y45.1394 
G01 X-29.5749 Y45.0046 
G01 X-29.4993 Y44.8562 
G01 X-29.4479 Y44.6978 
G01 X-29.4218 Y44.5333 
G01 X-29.4218 Y44.3667 
G01 X-29.4479 Y44.2022 
G01 X-29.4993 Y44.0438 
G01 X-29.5749 Y43.8954 
G01 X-29.6729 Y43.7606 
G01 X-29.7906 Y43.6429 
G01 X-29.9254 Y43.5449 
G01 X-30.0738 Y43.4693 
G01 X-30.2322 Y43.4179 
G01 X-30.3967 Y43.3918 
G01 X-30.5633 Y43.3918 
G01 X-30.7278 Y43.4179 
G01 X-30.8862 Y43.4693 
G01 X-31.0346 Y43.5449 
G01 X-31.1694 Y43.6429 
G01 X-31.2871 Y43.7606 
G01 X-31.3329 Y43.8236 
G01 X-31.8117 Y43.8236 
G01 X-31.9327 Y43.8477 
G01 X-32.0467 Y43.8949 
G01 X-32.1493 Y43.9634 
G01 X-34.5495 Y46.3636 
G01 X-34.9413 Y46.3636 
G01 X-35.1953 Y46.1096 
G01 X-35.9247 Y46.1096 
G01 X-36.4404 Y46.6253 
G00 Z1.0000 
G00 X-46.6004 Y46.6253 
G01 Z0.0000 F70.00 
G01 X-46.6004 Y47.3547 F300.00 
G01 X-46.0847 Y47.8704 
G01 X-45.3553 Y47.8704 
G01 X-45.1013 Y47.6164 
G01 X-44.7095 Y47.6164 
G01 X-33.6464 Y58.6795 
G01 X-33.6464 Y63.5617 
G01 X-33.6223 Y63.6827 
G01 X-33.5751 Y63.7967 
G01 X-33.5066 Y63.8993 
G01 X-33.4193 Y63.9866 
G01 X-28.3393 Y69.0666 
G01 X-28.2367 Y69.1351 
G01 X-28.1227 Y69.1823 
G01 X-28.0017 Y69.2064 
G01 X-27.2887 Y69.2064 
G01 X-27.0347 Y69.4604 
G01 X-26.3053 Y69.4604 
G01 X-25.7896 Y68.9447 
G01 X-25.7896 Y68.2153 
G01 X-26.3053 Y67.6996 
G01 X-27.0347 Y67.6996 
G01 X-27.2887 Y67.9536 
G01 X-27.6805 Y67.9536 
G01 X-32.3936 Y63.2405 
G01 X-32.3936 Y58.3583 
G01 X-32.4177 Y58.2373 
G01 X-32.4649 Y58.1233 
G01 X-32.5334 Y58.0207 
G01 X-32.6207 Y57.9334 
G01 X-44.0507 Y46.5034 
G01 X-44.1533 Y46.4349 
G01 X-44.2673 Y46.3877 
G01 X-44.3883 Y46.3636 
G01 X-45.1013 Y46.3636 
G01 X-45.3553 Y46.1096 
G01 X-46.0847 Y46.1096 
G01 X-46.6004 Y46.6253 
G00 Z1.0000 
G00 X-36.4404 Y42.8153 
G01 Z0.0000 F70.00 
G01 X-36.4404 Y43.5447 F300.00 
G01 X-35.9247 Y44.0604 
G01 X-35.1953 Y44.0604 
G01 X-34.6796 Y43.5447 
G01 X-34.6796 Y43.1855 
G01 X-34.0305 Y42.5364 
G01 X-31.3329 Y42.5364 
G01 X-31.2871 Y42.5994 
G01 X-31.1694 Y42.7171 
G01 X-31.0346 Y42.8150 
G01 X-30.8862 Y42.8907 
G01 X-30.7278 Y42.9421 
G01 X-30.5633 Y42.9682 
G01 X-30.3967 Y42.9682 
G01 X-30.2322 Y42.9421 
G01 X-30.0738 Y42.8907 
G01 X-29.9254 Y42.8150 
G01 X-29.7906 Y42.7171 
G01 X-29.6729 Y42.5994 
G01 X-29.5749 Y42.4646 
G01 X-29.4993 Y42.3162 
G01 X-29.4479 Y42.1578 
G01 X-29.4218 Y41.9933 
G01 X-29.4218 Y41.8267 
G01 X-29.4479 Y41.6622 
G01 X-29.4993 Y41.5038 
G01 X-29.5749 Y41.3554 
G01 X-29.6729 Y41.2206 
G01 X-29.7906 Y41.1029 
G01 X-29.9254 Y41.0049 
G01 X-30.0738 Y40.9293 
G01 X-30.2322 Y40.8779 
G01 X-30.3967 Y40.8518 
G01 X-30.5633 Y40.8518 
G01 X-30.7278 Y40.8779 
G01 X-30.8862 Y40.9293 
G01 X-31.0346 Y41.0049 
G01 X-31.1694 Y41.1029 
G01 X-31.2871 Y41.2206 
G01 X-31.3329 Y41.2836 
G01 X-34.3517 Y41.2836 
G01 X-34.4727 Y41.3077 
G01 X-34.5867 Y41.3549 
G01 X-34.6893 Y41.4234 
G01 X-35.5655 Y42.2996 
G01 X-35.9247 Y42.2996 
G01 X-36.4404 Y42.8153 
G00 Z1.0000 
G00 X-36.4404 Y39.0053 
G01 Z0.0000 F70.00 
G01 X-36.4404 Y39.7347 F300.00 
G01 X-35.9247 Y40.2504 
G01 X-35.1953 Y40.2504 
G01 X-34.9413 Y39.9964 
G01 X-31.3329 Y39.9964 
G01 X-31.2871 Y40.0594 
G01 X-31.1694 Y40.1771 
G01 X-31.0346 Y40.2751 
G01 X-30.8862 Y40.3507 
G01 X-30.7278 Y40.4021 
G01 X-30.5633 Y40.4282 
G01 X-30.3967 Y40.4282 
G01 X-30.2322 Y40.4021 
G01 X-30.0738 Y40.3507 
G01 X-29.9254 Y40.2751 
G01 X-29.7906 Y40.1771 
G01 X-29.6729 Y40.0594 
G01 X-29.5749 Y39.9246 
G01 X-29.4993 Y39.7762 
G01 X-29.4479 Y39.6178 
G01 X-29.4218 Y39.4533 
G01 X-29.4218 Y39.2867 
G01 X-29.4479 Y39.1222 
G01 X-29.4993 Y38.9638 
G01 X-29.5749 Y38.8154 
G01 X-29.6729 Y38.6806 
G01 X-29.7906 Y38.5629 
G01 X-29.9254 Y38.4649 
G01 X-30.0738 Y38.3893 
G01 X-30.2322 Y38.3379 
G01 X-30.3967 Y38.3118 
G01 X-30.5633 Y38.3118 
G01 X-30.7278 Y38.3379 
G01 X-30.8862 Y38.3893 
G01 X-31.0346 Y38.4649 
G01 X-31.1694 Y38.5629 
G01 X-31.2871 Y38.6806 
G01 X-31.3329 Y38.7436 
G01 X-34.9413 Y38.7436 
G01 X-35.1953 Y38.4896 
G01 X-35.9247 Y38.4896 
G01 X-36.4404 Y39.0053 
G00 Z1.0000 
G00 X-46.6004 Y39.0053 
G01 Z0.0000 F70.00 
G01 X-46.6004 Y39.7347 F300.00 
G01 X-46.0847 Y40.2504 
G01 X-45.3553 Y40.2504 
G01 X-45.1013 Y39.9964 
G01 X-43.1183 Y39.9964 
G01 X-42.9973 Y39.9723 
G01 X-42.8833 Y39.9251 
G01 X-42.7807 Y39.8566 
G01 X-42.6934 Y39.7693 
G01 X-41.4234 Y38.4993 
G01 X-41.3549 Y38.3967 
G01 X-41.3077 Y38.2827 
G01 X-41.2836 Y38.1617 
G01 X-41.2836 Y25.6595 
G01 X-32.7605 Y17.1364 
G01 X-21.5283 Y17.1364 
G01 X-21.4073 Y17.1123 
G01 X-21.2933 Y17.0651 
G01 X-21.1907 Y16.9966 
G01 X-21.1034 Y16.9093 
G01 X-16.2505 Y12.0564 
G01 X-7.6037 Y12.0564 
G01 X-7.3497 Y12.3104 
G01 X-6.6203 Y12.3104 
G01 X-6.1046 Y11.7947 
G01 X-6.1046 Y11.0653 
G01 X-6.6203 Y10.5496 
G01 X-7.3497 Y10.5496 
G01 X-7.6037 Y10.8036 
G01 X-16.5717 Y10.8036 
G01 X-16.6927 Y10.8277 
G01 X-16.8067 Y10.8749 
G01 X-16.9093 Y10.9434 
G01 X-16.9966 Y11.0307 
G01 X-21.8495 Y15.8836 
G01 X-33.0817 Y15.8836 
G01 X-33.2027 Y15.9077 
G01 X-33.3167 Y15.9549 
G01 X-33.4193 Y16.0234 
G01 X-33.5066 Y16.1107 
G01 X-42.3966 Y25.0007 
G01 X-42.4651 Y25.1033 
G01 X-42.5123 Y25.2173 
G01 X-42.5364 Y25.3383 
G01 X-42.5364 Y37.8405 
G01 X-43.4395 Y38.7436 
G01 X-45.1013 Y38.7436 
G01 X-45.3553 Y38.4896 
G01 X-46.0847 Y38.4896 
G01 X-46.6004 Y39.0053 
G00 Z1.0000 
G00 X-46.6004 Y35.1953 
G01 Z0.0000 F70.00 
G01 X-46.6004 Y35.9247 F300.00 
G01 X-46.0847 Y36.4404 
G01 X-45.3553 Y36.4404 
G01 X-44.8396 Y35.9247 
G01 X-44.8396 Y35.1953 
G01 X-45.0936 Y34.9413 
G01 X-45.0936 Y12.0487 
G01 X-44.8396 Y11.7947 
G01 X-44.8396 Y11.0653 
G01 X-45.3553 Y10.5496 
G01 X-46.0847 Y10.5496 
G01 X-46.6004 Y11.0653 
G01 X-46.6004 Y11.7947 
G01 X-46.3464 Y12.0487 
G01 X-46.3464 Y34.9413 
G01 X-46.6004 Y35.1953 
G00 Z1.0000 
G00 X-57.3954 Y46.6253 
G01 Z0.0000 F70.00 
G01 X-57.3954 Y47.3547 F300.00 
G01 X-56.8797 Y47.8704 
G01 X-56.1503 Y47.8704 
G01 X-55.8963 Y47.6164 
G01 X-54.5483 Y47.6164 
G01 X-54.4273 Y47.5923 
G01 X-54.3133 Y47.5451 
G01 X-54.2107 Y47.4766 
G01 X-54.1234 Y47.3893 
G01 X-50.5405 Y43.8064 
G01 X-46.3387 Y43.8064 
G01 X-46.0847 Y44.0604 
G01 X-45.3553 Y44.0604 
G01 X-44.8396 Y43.5447 
G01 X-44.8396 Y42.8153 
G01 X-45.3553 Y42.2996 
G01 X-46.0847 Y42.2996 
G01 X-46.3387 Y42.5536 
G01 X-50.8617 Y42.5536 
G01 X-50.9827 Y42.5777 
G01 X-51.0967 Y42.6249 
G01 X-51.1993 Y42.6934 
G01 X-54.8695 Y46.3636 
G01 X-55.8963 Y46.3636 
G01 X-56.1503 Y46.1096 
G01 X-56.8797 Y46.1096 
G01 X-57.3954 Y46.6253 
G00 Z1.0000 
G00 X-9.9635 Y37.2873 
G01 Z0.0000 F70.00 
G01 X-10.0582 Y37.3127 F300.00 
G01 X-10.1431 Y37.3617 
G01 X-10.2125 Y37.4311 
G01 X-10.2615 Y37.5160 
G01 X-10.2869 Y37.6107 
G01 X-10.2869 Y37.7088 
G01 X-10.2615 Y37.8035 
G01 X-10.2125 Y37.8884 
G01 X-10.1431 Y37.9577 
G01 X-10.0582 Y38.0068 
G01 X-9.9635 Y38.0321 
G01 X-9.2812 Y38.0321 
G01 X-9.1865 Y38.0068 
G01 X-9.1016 Y37.9577 
G01 X-9.0323 Y37.8884 
G01 X-8.9832 Y37.8035 
G01 X-8.9579 Y37.7088 
G01 X-8.9579 Y35.6634 
G01 X-8.9832 Y35.5687 
G01 X-9.0323 Y35.4837 
G01 X-9.1016 Y35.4144 
G01 X-9.1865 Y35.3654 
G01 X-9.2812 Y35.3400 
G01 X-10.5994 Y35.3400 
G01 X-10.7978 Y35.3750 
G01 X-10.9871 Y35.4439 
G01 X-11.1616 Y35.5446 
G01 X-11.3159 Y35.6741 
G01 X-11.4454 Y35.8284 
G01 X-11.5461 Y36.0029 
G01 X-11.6150 Y36.1922 
G01 X-11.6500 Y36.3906 
G01 X-11.6500 Y38.5394 
G01 X-11.6150 Y38.7378 
G01 X-11.5461 Y38.9271 
G01 X-11.4454 Y39.1016 
G01 X-11.3159 Y39.2559 
G01 X-11.1616 Y39.3854 
G01 X-10.9871 Y39.4861 
G01 X-10.7978 Y39.5550 
G01 X-10.5994 Y39.5900 
G01 X-10.5477 Y39.5900 
G01 X-9.2812 Y39.5900 
G01 X-9.1865 Y39.5646 
G01 X-9.1016 Y39.5156 
G01 X-9.0323 Y39.4463 
G01 X-8.9832 Y39.3613 
G01 X-8.9579 Y39.2666 
G01 X-8.9579 Y39.1686 
G01 X-8.9832 Y39.0739 
G01 X-9.0323 Y38.9889 
G01 X-9.1016 Y38.9196 
G01 X-9.1865 Y38.8706 
G01 X-9.2812 Y38.8452 
G01 X-10.4496 Y38.8452 
G01 X-10.4987 Y38.8452 
G01 X-10.5341 Y38.8437 
G01 X-10.6039 Y38.8313 
G01 X-10.6705 Y38.8071 
G01 X-10.7318 Y38.7717 
G01 X-10.7861 Y38.7261 
G01 X-10.8317 Y38.6718 
G01 X-10.8671 Y38.6105 
G01 X-10.8913 Y38.5439 
G01 X-10.9037 Y38.4741 
G01 X-10.9052 Y38.4387 
G01 X-10.9052 Y36.4913 
G01 X-10.9037 Y36.4559 
G01 X-10.8913 Y36.3861 
G01 X-10.8671 Y36.3195 
G01 X-10.8317 Y36.2582 
G01 X-10.7861 Y36.2039 
G01 X-10.7318 Y36.1583 
G01 X-10.6705 Y36.1229 
G01 X-10.6039 Y36.0986 
G01 X-10.5341 Y36.0863 
G01 X-10.4987 Y36.0848 
G01 X-9.7027 Y36.0848 
G01 X-9.7027 Y37.2873 
G01 X-9.9635 Y37.2873 
G00 Z1.0000 
G00 X-5.6385 Y41.6900 
G01 Z0.0000 F70.00 
G01 X-5.6385 Y41.6900 F300.00 
G01 X-5.8297 Y41.7242 
G01 X-6.0118 Y41.7916 
G01 X-6.1792 Y41.8901 
G01 X-6.3266 Y42.0165 
G01 X-6.4494 Y42.1669 
G01 X-6.5438 Y42.3366 
G01 X-6.5678 Y42.4067 
G01 X-6.6226 Y42.5191 
G01 X-6.7277 Y42.7959 
G01 X-6.8073 Y43.0810 
G01 X-6.8607 Y43.3722 
G01 X-6.8875 Y43.6670 
G01 X-6.8875 Y43.9630 
G01 X-6.8607 Y44.2578 
G01 X-6.8073 Y44.5490 
G01 X-6.7277 Y44.8341 
G01 X-6.6226 Y45.1109 
G01 X-6.5678 Y45.2233 
G01 X-6.5438 Y45.2934 
G01 X-6.4494 Y45.4631 
G01 X-6.3266 Y45.6135 
G01 X-6.1792 Y45.7399 
G01 X-6.0118 Y45.8384 
G01 X-5.8297 Y45.9058 
G01 X-5.6385 Y45.9400 
G01 X-5.4443 Y45.9400 
G01 X-5.2532 Y45.9058 
G01 X-5.0711 Y45.8384 
G01 X-4.9037 Y45.7399 
G01 X-4.7563 Y45.6135 
G01 X-4.6335 Y45.4631 
G01 X-4.5391 Y45.2934 
G01 X-4.5150 Y45.2233 
G01 X-4.4603 Y45.1109 
G01 X-4.3552 Y44.8341 
G01 X-4.2756 Y44.5490 
G01 X-4.2222 Y44.2578 
G01 X-4.1954 Y43.9630 
G01 X-4.1954 Y43.6670 
G01 X-4.2222 Y43.3722 
G01 X-4.2756 Y43.0810 
G01 X-4.3552 Y42.7959 
G01 X-4.4603 Y42.5191 
G01 X-4.5150 Y42.4067 
G01 X-4.5391 Y42.3366 
G01 X-4.6335 Y42.1669 
G01 X-4.7563 Y42.0165 
G01 X-4.9037 Y41.8901 
G01 X-5.0711 Y41.7916 
G01 X-5.2532 Y41.7242 
G01 X-5.4443 Y41.6900 
G01 X-5.5905 Y41.6900 
G01 X-5.6385 Y41.6900 
G00 Z1.0000 
G00 X-9.7420 Y44.8568 
G01 Z0.0000 F70.00 
G01 X-9.7269 Y44.9034 F300.00 
G01 X-9.6905 Y45.0157 
G01 X-9.5836 Y45.2260 
G01 X-9.4450 Y45.4171 
G01 X-9.2782 Y45.5840 
G01 X-9.0873 Y45.7229 
G01 X-8.8771 Y45.8301 
G01 X-8.6527 Y45.9031 
G01 X-8.4196 Y45.9400 
G01 X-8.2033 Y45.9400 
G01 X-8.0092 Y45.9093 
G01 X-7.8222 Y45.8485 
G01 X-7.6471 Y45.7593 
G01 X-7.4881 Y45.6438 
G01 X-7.3491 Y45.5048 
G01 X-7.2336 Y45.3458 
G01 X-7.1444 Y45.1706 
G01 X-7.0836 Y44.9837 
G01 X-7.0529 Y44.7896 
G01 X-7.0529 Y44.5847 
G01 X-7.0873 Y44.3743 
G01 X-7.1551 Y44.1721 
G01 X-7.2547 Y43.9836 
G01 X-7.3833 Y43.8136 
G01 X-7.4463 Y43.7536 
G01 X-8.5673 Y42.4348 
G01 X-7.3762 Y42.4348 
G01 X-7.2815 Y42.4094 
G01 X-7.1966 Y42.3604 
G01 X-7.1273 Y42.2911 
G01 X-7.0782 Y42.2061 
G01 X-7.0529 Y42.1114 
G01 X-7.0529 Y42.0134 
G01 X-7.0782 Y41.9187 
G01 X-7.1273 Y41.8337 
G01 X-7.1966 Y41.7644 
G01 X-7.2815 Y41.7154 
G01 X-7.3762 Y41.6900 
G01 X-9.3575 Y41.6900 
G01 X-9.3914 Y41.6873 
G01 X-9.4064 Y41.6900 
G01 X-9.4216 Y41.6900 
G01 X-9.4544 Y41.6988 
G01 X-9.4878 Y41.7049 
G01 X-9.5016 Y41.7114 
G01 X-9.5163 Y41.7154 
G01 X-9.5457 Y41.7324 
G01 X-9.5764 Y41.7469 
G01 X-9.5881 Y41.7568 
G01 X-9.6013 Y41.7644 
G01 X-9.6253 Y41.7884 
G01 X-9.6511 Y41.8104 
G01 X-9.6598 Y41.8230 
G01 X-9.6706 Y41.8337 
G01 X-9.6876 Y41.8631 
G01 X-9.7069 Y41.8911 
G01 X-9.7120 Y41.9054 
G01 X-9.7196 Y41.9187 
G01 X-9.7284 Y41.9515 
G01 X-9.7398 Y41.9834 
G01 X-9.7410 Y41.9986 
G01 X-9.7450 Y42.0134 
G01 X-9.7450 Y42.0473 
G01 X-9.7477 Y42.0812 
G01 X-9.7450 Y42.0962 
G01 X-9.7450 Y42.1114 
G01 X-9.7362 Y42.1442 
G01 X-9.7301 Y42.1776 
G01 X-9.7236 Y42.1914 
G01 X-9.7196 Y42.2061 
G01 X-9.7026 Y42.2355 
G01 X-9.6881 Y42.2662 
G01 X-9.6782 Y42.2779 
G01 X-9.6706 Y42.2911 
G01 X-9.6466 Y42.3150 
G01 X-8.0200 Y44.2287 
G01 X-8.0097 Y44.2456 
G01 X-7.9884 Y44.2659 
G01 X-7.9694 Y44.2883 
G01 X-7.9580 Y44.2961 
G01 X-7.9422 Y44.3125 
G01 X-7.8866 Y44.3859 
G01 X-7.8437 Y44.4672 
G01 X-7.8144 Y44.5545 
G01 X-7.7995 Y44.6453 
G01 X-7.7977 Y44.6913 
G01 X-7.7992 Y44.7308 
G01 X-7.8116 Y44.8089 
G01 X-7.8360 Y44.8841 
G01 X-7.8719 Y44.9546 
G01 X-7.9184 Y45.0186 
G01 X-7.9743 Y45.0745 
G01 X-8.0383 Y45.1209 
G01 X-8.1087 Y45.1568 
G01 X-8.1839 Y45.1813 
G01 X-8.2620 Y45.1936 
G01 X-8.3016 Y45.1952 
G01 X-8.3607 Y45.1929 
G01 X-8.4776 Y45.1744 
G01 X-8.5901 Y45.1378 
G01 X-8.6955 Y45.0840 
G01 X-8.7912 Y45.0144 
G01 X-8.8748 Y44.9307 
G01 X-8.9443 Y44.8349 
G01 X-8.9979 Y44.7295 
G01 X-9.0183 Y44.6739 
G01 X-9.0334 Y44.6273 
G01 X-9.0867 Y44.5450 
G01 X-9.1596 Y44.4793 
G01 X-9.2469 Y44.4347 
G01 X-9.3428 Y44.4142 
G01 X-9.4407 Y44.4193 
G01 X-9.5340 Y44.4495 
G01 X-9.6163 Y44.5028 
G01 X-9.6819 Y44.5756 
G01 X-9.7265 Y44.6629 
G01 X-9.7470 Y44.7588 
G01 X-9.7420 Y44.8568 
G00 Z1.0000 
G00 X-11.3535 Y41.6900 
G01 Z0.0000 F70.00 
G01 X-11.3535 Y41.6900 F300.00 
G01 X-11.5447 Y41.7242 
G01 X-11.7268 Y41.7916 
G01 X-11.8942 Y41.8901 
G01 X-12.0416 Y42.0165 
G01 X-12.1644 Y42.1669 
G01 X-12.2588 Y42.3366 
G01 X-12.2828 Y42.4067 
G01 X-12.3376 Y42.5191 
G01 X-12.4427 Y42.7959 
G01 X-12.5223 Y43.0810 
G01 X-12.5757 Y43.3722 
G01 X-12.6025 Y43.6670 
G01 X-12.6025 Y43.9630 
G01 X-12.5757 Y44.2578 
G01 X-12.5223 Y44.5490 
G01 X-12.4427 Y44.8341 
G01 X-12.3376 Y45.1109 
G01 X-12.2828 Y45.2233 
G01 X-12.2588 Y45.2934 
G01 X-12.1644 Y45.4631 
G01 X-12.0416 Y45.6135 
G01 X-11.8942 Y45.7399 
G01 X-11.7268 Y45.8384 
G01 X-11.5447 Y45.9058 
G01 X-11.3535 Y45.9400 
G01 X-11.1593 Y45.9400 
G01 X-10.9682 Y45.9058 
G01 X-10.7861 Y45.8384 
G01 X-10.6187 Y45.7399 
G01 X-10.4713 Y45.6135 
G01 X-10.3485 Y45.4631 
G01 X-10.2541 Y45.2934 
G01 X-10.2300 Y45.2233 
G01 X-10.1753 Y45.1109 
G01 X-10.0702 Y44.8341 
G01 X-9.9906 Y44.5490 
G01 X-9.9372 Y44.2578 
G01 X-9.9104 Y43.9630 
G01 X-9.9104 Y43.6670 
G01 X-9.9372 Y43.3722 
G01 X-9.9906 Y43.0810 
G01 X-10.0702 Y42.7959 
G01 X-10.1753 Y42.5191 
G01 X-10.2300 Y42.4067 
G01 X-10.2541 Y42.3366 
G01 X-10.3485 Y42.1669 
G01 X-10.4713 Y42.0165 
G01 X-10.6187 Y41.8901 
G01 X-10.7861 Y41.7916 
G01 X-10.9682 Y41.7242 
G01 X-11.1593 Y41.6900 
G01 X-11.3055 Y41.6900 
G01 X-11.3535 Y41.6900 
G00 Z1.0000 
G00 X-15.4570 Y44.8568 
G01 Z0.0000 F70.00 
G01 X-15.4419 Y44.9034 F300.00 
G01 X-15.4055 Y45.0157 
G01 X-15.2986 Y45.2260 
G01 X-15.1600 Y45.4171 
G01 X-14.9932 Y45.5840 
G01 X-14.8023 Y45.7229 
G01 X-14.5921 Y45.8301 
G01 X-14.3677 Y45.9031 
G01 X-14.1346 Y45.9400 
G01 X-13.9183 Y45.9400 
G01 X-13.7242 Y45.9093 
G01 X-13.5372 Y45.8485 
G01 X-13.3621 Y45.7593 
G01 X-13.2031 Y45.6438 
G01 X-13.0641 Y45.5048 
G01 X-12.9486 Y45.3458 
G01 X-12.8594 Y45.1706 
G01 X-12.7986 Y44.9837 
G01 X-12.7679 Y44.7896 
G01 X-12.7679 Y44.5847 
G01 X-12.8023 Y44.3743 
G01 X-12.8701 Y44.1721 
G01 X-12.9697 Y43.9836 
G01 X-13.0983 Y43.8136 
G01 X-13.1613 Y43.7536 
G01 X-14.2823 Y42.4348 
G01 X-13.0912 Y42.4348 
G01 X-12.9965 Y42.4094 
G01 X-12.9116 Y42.3604 
G01 X-12.8423 Y42.2911 
G01 X-12.7932 Y42.2061 
G01 X-12.7679 Y42.1114 
G01 X-12.7679 Y42.0134 
G01 X-12.7932 Y41.9187 
G01 X-12.8423 Y41.8337 
G01 X-12.9116 Y41.7644 
G01 X-12.9965 Y41.7154 
G01 X-13.0912 Y41.6900 
G01 X-15.0725 Y41.6900 
G01 X-15.1064 Y41.6873 
G01 X-15.1214 Y41.6900 
G01 X-15.1366 Y41.6900 
G01 X-15.1694 Y41.6988 
G01 X-15.2028 Y41.7049 
G01 X-15.2166 Y41.7114 
G01 X-15.2313 Y41.7154 
G01 X-15.2607 Y41.7324 
G01 X-15.2914 Y41.7469 
G01 X-15.3031 Y41.7568 
G01 X-15.3163 Y41.7644 
G01 X-15.3403 Y41.7884 
G01 X-15.3661 Y41.8104 
G01 X-15.3748 Y41.8230 
G01 X-15.3856 Y41.8337 
G01 X-15.4026 Y41.8631 
G01 X-15.4219 Y41.8911 
G01 X-15.4270 Y41.9054 
G01 X-15.4346 Y41.9187 
G01 X-15.4434 Y41.9515 
G01 X-15.4548 Y41.9834 
G01 X-15.4560 Y41.9986 
G01 X-15.4600 Y42.0134 
G01 X-15.4600 Y42.0473 
G01 X-15.4627 Y42.0812 
G01 X-15.4600 Y42.0962 
G01 X-15.4600 Y42.1114 
G01 X-15.4512 Y42.1442 
G01 X-15.4451 Y42.1776 
G01 X-15.4386 Y42.1914 
G01 X-15.4346 Y42.2061 
G01 X-15.4176 Y42.2355 
G01 X-15.4031 Y42.2662 
G01 X-15.3932 Y42.2779 
G01 X-15.3856 Y42.2911 
G01 X-15.3616 Y42.3150 
G01 X-13.7350 Y44.2287 
G01 X-13.7247 Y44.2456 
G01 X-13.7034 Y44.2659 
G01 X-13.6844 Y44.2883 
G01 X-13.6730 Y44.2961 
G01 X-13.6572 Y44.3125 
G01 X-13.6016 Y44.3859 
G01 X-13.5587 Y44.4672 
G01 X-13.5294 Y44.5545 
G01 X-13.5145 Y44.6453 
G01 X-13.5127 Y44.6913 
G01 X-13.5142 Y44.7308 
G01 X-13.5266 Y44.8089 
G01 X-13.5510 Y44.8841 
G01 X-13.5869 Y44.9546 
G01 X-13.6334 Y45.0186 
G01 X-13.6893 Y45.0745 
G01 X-13.7533 Y45.1209 
G01 X-13.8237 Y45.1568 
G01 X-13.8989 Y45.1813 
G01 X-13.9770 Y45.1936 
G01 X-14.0166 Y45.1952 
G01 X-14.0757 Y45.1929 
G01 X-14.1926 Y45.1744 
G01 X-14.3051 Y45.1378 
G01 X-14.4105 Y45.0840 
G01 X-14.5062 Y45.0144 
G01 X-14.5898 Y44.9307 
G01 X-14.6593 Y44.8349 
G01 X-14.7129 Y44.7295 
G01 X-14.7333 Y44.6739 
G01 X-14.7484 Y44.6273 
G01 X-14.8017 Y44.5450 
G01 X-14.8746 Y44.4793 
G01 X-14.9619 Y44.4347 
G01 X-15.0578 Y44.4142 
G01 X-15.1557 Y44.4193 
G01 X-15.2490 Y44.4495 
G01 X-15.3313 Y44.5028 
G01 X-15.3969 Y44.5756 
G01 X-15.4415 Y44.6629 
G01 X-15.4620 Y44.7588 
G01 X-15.4570 Y44.8568 
G00 Z1.0000 
G00 X-7.6890 Y35.5481 
G01 Z0.0000 F70.00 
G01 X-7.6961 Y35.5695 F300.00 
G01 X-7.7062 Y35.5897 
G01 X-7.7115 Y35.6158 
G01 X-8.8884 Y39.1463 
G01 X-8.8942 Y39.2442 
G01 X-8.8746 Y39.3403 
G01 X-8.8307 Y39.4280 
G01 X-8.7657 Y39.5014 
G01 X-8.6839 Y39.5554 
G01 X-8.5908 Y39.5864 
G01 X-8.4930 Y39.5923 
G01 X-8.3969 Y39.5726 
G01 X-8.3092 Y39.5288 
G01 X-8.2358 Y39.4637 
G01 X-8.1818 Y39.3819 
G01 X-7.3512 Y36.8900 
G01 X-6.5206 Y39.3819 
G01 X-6.4665 Y39.4637 
G01 X-6.3932 Y39.5288 
G01 X-6.3055 Y39.5726 
G01 X-6.2094 Y39.5923 
G01 X-6.1115 Y39.5864 
G01 X-6.0185 Y39.5554 
G01 X-5.9367 Y39.5014 
G01 X-5.8716 Y39.4280 
G01 X-5.8278 Y39.3403 
G01 X-5.8081 Y39.2442 
G01 X-5.8140 Y39.1463 
G01 X-6.9908 Y35.6158 
G01 X-6.9962 Y35.5897 
G01 X-7.0063 Y35.5695 
G01 X-7.0134 Y35.5481 
G01 X-7.0281 Y35.5259 
G01 X-7.0400 Y35.5020 
G01 X-7.0550 Y35.4851 
G01 X-7.0674 Y35.4663 
G01 X-7.0874 Y35.4486 
G01 X-7.1051 Y35.4286 
G01 X-7.1239 Y35.4162 
G01 X-7.1408 Y35.4012 
G01 X-7.1646 Y35.3893 
G01 X-7.1869 Y35.3746 
G01 X-7.2083 Y35.3675 
G01 X-7.2285 Y35.3574 
G01 X-7.2546 Y35.3520 
G01 X-7.2799 Y35.3436 
G01 X-7.3025 Y35.3423 
G01 X-7.3246 Y35.3377 
G01 X-7.3512 Y35.3393 
G01 X-7.3778 Y35.3377 
G01 X-7.3999 Y35.3423 
G01 X-7.4224 Y35.3436 
G01 X-7.4477 Y35.3520 
G01 X-7.4739 Y35.3574 
G01 X-7.4940 Y35.3675 
G01 X-7.5155 Y35.3746 
G01 X-7.5377 Y35.3893 
G01 X-7.5616 Y35.4012 
G01 X-7.5785 Y35.4162 
G01 X-7.5973 Y35.4286 
G01 X-7.6150 Y35.4486 
G01 X-7.6349 Y35.4663 
G01 X-7.6474 Y35.4851 
G01 X-7.6623 Y35.5020 
G01 X-7.6743 Y35.5259 
G01 X-7.6890 Y35.5481 
G00 Z1.0000 
G00 X-28.6680 Y76.0690 
G01 Z0.0000 F70.00 
G01 X-28.6680 Y76.3310 F300.00 
G01 X-28.6338 Y76.5906 
G01 X-28.5660 Y76.8436 
G01 X-28.4658 Y77.0856 
G01 X-28.3348 Y77.3124 
G01 X-28.1754 Y77.5202 
G01 X-27.9902 Y77.7054 
G01 X-27.7824 Y77.8648 
G01 X-27.5556 Y77.9958 
G01 X-27.3136 Y78.0960 
G01 X-27.0606 Y78.1638 
G01 X-26.8010 Y78.1980 
G01 X-26.5390 Y78.1980 
G01 X-26.2794 Y78.1638 
G01 X-26.0264 Y78.0960 
G01 X-25.7844 Y77.9958 
G01 X-25.5576 Y77.8648 
G01 X-25.3498 Y77.7054 
G01 X-25.1646 Y77.5202 
G01 X-25.0052 Y77.3124 
G01 X-24.8742 Y77.0856 
G01 X-24.7740 Y76.8436 
G01 X-24.7062 Y76.5906 
G01 X-24.6720 Y76.3310 
G01 X-24.6720 Y76.0690 
G01 X-24.7062 Y75.8094 
G01 X-24.7740 Y75.5564 
G01 X-24.8742 Y75.3144 
G01 X-25.0052 Y75.0876 
G01 X-25.1646 Y74.8798 
G01 X-25.3498 Y74.6946 
G01 X-25.5576 Y74.5352 
G01 X-25.7844 Y74.4042 
G01 X-26.0264 Y74.3040 
G01 X-26.2794 Y74.2362 
G01 X-26.5390 Y74.2020 
G01 X-26.8010 Y74.2020 
G01 X-27.0606 Y74.2362 
G01 X-27.3136 Y74.3040 
G01 X-27.5556 Y74.4042 
G01 X-27.7824 Y74.5352 
G01 X-27.9902 Y74.6946 
G01 X-28.1754 Y74.8798 
G01 X-28.3348 Y75.0876 
G01 X-28.4658 Y75.3144 
G01 X-28.5660 Y75.5564 
G01 X-28.6338 Y75.8094 
G01 X-28.6680 Y76.0690 
G00 Z1.0000 
G00 X16.5114 Y51.6381 
G01 Z0.0000 F70.00 
G01 X16.6347 Y51.6350 F300.00 
G01 X16.9288 Y51.5688 
G01 X16.9661 Y51.5634 
G01 X16.9852 Y51.5566 
G01 X17.0050 Y51.5524 
G01 X17.0086 Y51.5508 
G01 X17.0125 Y51.5500 
G01 X17.0469 Y51.5347 
G01 X17.0823 Y51.5221 
G01 X17.0998 Y51.5118 
G01 X17.1184 Y51.5038 
G01 X17.1217 Y51.5015 
G01 X17.1253 Y51.4999 
G01 X17.1560 Y51.4782 
G01 X17.1884 Y51.4590 
G01 X17.2034 Y51.4454 
G01 X17.2201 Y51.4340 
G01 X17.2229 Y51.4311 
G01 X17.2262 Y51.4288 
G01 X17.2521 Y51.4016 
G01 X17.2800 Y51.3764 
G01 X17.2921 Y51.3601 
G01 X17.3063 Y51.3456 
G01 X17.3085 Y51.3423 
G01 X17.3112 Y51.3394 
G01 X17.3313 Y51.3076 
G01 X17.3538 Y51.2775 
G01 X17.3625 Y51.2592 
G01 X17.3735 Y51.2422 
G01 X17.3750 Y51.2385 
G01 X17.3772 Y51.2351 
G01 X17.3907 Y51.2001 
G01 X17.4068 Y51.1661 
G01 X17.4118 Y51.1464 
G01 X17.4193 Y51.1276 
G01 X17.4201 Y51.1237 
G01 X17.4215 Y51.1200 
G01 X17.4279 Y51.0829 
G01 X17.4372 Y51.0465 
G01 X17.4382 Y51.0262 
G01 X17.4419 Y51.0063 
G01 X17.4419 Y51.0023 
G01 X17.4425 Y50.9984 
G01 X17.4416 Y50.9608 
G01 X17.4436 Y50.9232 
G01 X17.4406 Y50.9032 
G01 X17.4404 Y50.8829 
G01 X17.4396 Y50.8790 
G01 X17.4395 Y50.8750 
G01 X17.4312 Y50.8384 
G01 X17.4258 Y50.8011 
G01 X17.4190 Y50.7820 
G01 X17.4148 Y50.7622 
G01 X17.4132 Y50.7585 
G01 X17.4124 Y50.7547 
G01 X17.3971 Y50.7203 
G01 X17.3845 Y50.6849 
G01 X17.3742 Y50.6674 
G01 X17.3662 Y50.6488 
G01 X17.3639 Y50.6455 
G01 X17.3623 Y50.6419 
G01 X17.3406 Y50.6112 
G01 X17.3214 Y50.5788 
G01 X17.3078 Y50.5638 
G01 X17.2964 Y50.5471 
G01 X17.2935 Y50.5443 
G01 X17.2912 Y50.5410 
G01 X17.2640 Y50.5151 
G01 X17.2388 Y50.4872 
G01 X17.2225 Y50.4751 
G01 X16.8635 Y50.1248 
G01 X16.8442 Y50.0959 
G01 X16.7569 Y50.0086 
G01 X16.7171 Y49.9821 
G01 X13.2073 Y46.5583 
G01 X13.1659 Y46.5179 
G01 X13.1250 Y46.4771 
G01 X13.1218 Y46.4749 
G01 X-4.1559 Y29.6211 
G01 X-4.2543 Y29.5251 
G01 X-4.2359 Y29.4181 
G01 X-3.3491 Y24.2720 
G01 X-3.3400 Y24.2191 
G01 X-3.3295 Y24.1665 
G01 X-3.3295 Y24.1584 
G01 X-2.4623 Y19.1260 
G01 X-2.2864 Y18.1052 
G01 X-1.8247 Y15.4259 
G01 X-1.8156 Y15.3730 
G01 X-1.8051 Y15.3204 
G01 X-1.8051 Y15.3123 
G01 X0.7874 Y0.2679 
G01 X0.7929 Y0.2575 
G01 X0.8281 Y0.1392 
G01 X0.8500 Y-0.0954 
G01 X0.8564 Y-0.1322 
G01 X0.8558 Y-0.1531 
G01 X0.8580 Y-0.1738 
G01 X0.8577 Y-0.1775 
G01 X0.8580 Y-0.1810 
G01 X0.8542 Y-0.2182 
G01 X0.8532 Y-0.2556 
G01 X0.8486 Y-0.2759 
G01 X0.8467 Y-0.2967 
G01 X0.8457 Y-0.3002 
G01 X0.8453 Y-0.3038 
G01 X0.8343 Y-0.3395 
G01 X0.8260 Y-0.3759 
G01 X0.8175 Y-0.3950 
G01 X0.8116 Y-0.4150 
G01 X0.8099 Y-0.4182 
G01 X0.8089 Y-0.4217 
G01 X0.7911 Y-0.4545 
G01 X0.7759 Y-0.4887 
G01 X0.7639 Y-0.5057 
G01 X0.7541 Y-0.5242 
G01 X0.7519 Y-0.5270 
G01 X0.7501 Y-0.5302 
G01 X0.7263 Y-0.5590 
G01 X0.7047 Y-0.5895 
G01 X0.6896 Y-0.6038 
G01 X0.6765 Y-0.6201 
G01 X0.6737 Y-0.6224 
G01 X0.6714 Y-0.6252 
G01 X0.6423 Y-0.6487 
G01 X0.6153 Y-0.6745 
G01 X0.5976 Y-0.6856 
G01 X0.5816 Y-0.6989 
G01 X0.5784 Y-0.7007 
G01 X0.5756 Y-0.7029 
G01 X0.5425 Y-0.7204 
G01 X0.5109 Y-0.7403 
G01 X0.4915 Y-0.7478 
G01 X0.4731 Y-0.7578 
G01 X0.4697 Y-0.7589 
G01 X0.4665 Y-0.7606 
G01 X0.4307 Y-0.7712 
G01 X0.3958 Y-0.7846 
G01 X0.3752 Y-0.7882 
G01 X0.3553 Y-0.7944 
G01 X0.3517 Y-0.7947 
G01 X0.3482 Y-0.7958 
G01 X0.3110 Y-0.7992 
G01 X0.2742 Y-0.8056 
G01 X0.2533 Y-0.8050 
G01 X0.2326 Y-0.8072 
G01 X0.2289 Y-0.8069 
G01 X0.2254 Y-0.8072 
G01 X0.1882 Y-0.8034 
G01 X0.1508 Y-0.8024 
G01 X0.1305 Y-0.7978 
G01 X0.1097 Y-0.7959 
G01 X0.1062 Y-0.7949 
G01 X0.1026 Y-0.7945 
G01 X0.0669 Y-0.7835 
G01 X0.0305 Y-0.7752 
G01 X0.0114 Y-0.7667 
G01 X-0.0086 Y-0.7608 
G01 X-0.0118 Y-0.7591 
G01 X-0.0153 Y-0.7581 
G01 X-0.0481 Y-0.7403 
G01 X-0.0823 Y-0.7251 
G01 X-0.0993 Y-0.7131 
G01 X-6.8034 Y2.8164 
G01 X-6.8325 Y2.8317 
G01 X-6.8629 Y2.8443 
G01 X-6.8869 Y2.8604 
G01 X-7.8269 Y3.3552 
G01 X-7.8573 Y3.3678 
G01 X-7.8813 Y3.3839 
G01 X-7.9070 Y3.3974 
G01 X-26.6573 Y13.2688 
G01 X-45.4275 Y3.3869 
G01 X-45.4531 Y3.3734 
G01 X-45.4772 Y3.3573 
G01 X-45.5076 Y3.3448 
G01 X-46.5311 Y2.8059 
G01 X-52.8829 Y-0.5381 
G01 X-52.9006 Y-0.5564 
G01 X-53.0022 Y-0.6265 
G01 X-53.2727 Y-0.7433 
G01 X-53.3060 Y-0.7608 
G01 X-53.3260 Y-0.7667 
G01 X-53.3451 Y-0.7752 
G01 X-53.3483 Y-0.7760 
G01 X-53.3514 Y-0.7773 
G01 X-53.3882 Y-0.7852 
G01 X-53.4243 Y-0.7959 
G01 X-53.4451 Y-0.7978 
G01 X-53.4654 Y-0.8024 
G01 X-53.4688 Y-0.8025 
G01 X-53.4721 Y-0.8032 
G01 X-53.5097 Y-0.8038 
G01 X-53.5472 Y-0.8072 
G01 X-53.5679 Y-0.8050 
G01 X-53.5888 Y-0.8056 
G01 X-53.5921 Y-0.8050 
G01 X-53.5955 Y-0.8051 
G01 X-53.6325 Y-0.7983 
G01 X-53.6699 Y-0.7944 
G01 X-53.6898 Y-0.7882 
G01 X-53.7104 Y-0.7846 
G01 X-53.7135 Y-0.7834 
G01 X-53.7168 Y-0.7828 
G01 X-53.7518 Y-0.7689 
G01 X-53.7877 Y-0.7578 
G01 X-53.8061 Y-0.7478 
G01 X-53.8255 Y-0.7403 
G01 X-53.8284 Y-0.7386 
G01 X-53.8315 Y-0.7373 
G01 X-53.8631 Y-0.7169 
G01 X-53.8962 Y-0.6989 
G01 X-53.9122 Y-0.6856 
G01 X-53.9299 Y-0.6745 
G01 X-53.9351 Y-0.6703 
G01 X-53.9621 Y-0.6441 
G01 X-53.9911 Y-0.6201 
G01 X-54.0042 Y-0.6038 
G01 X-54.0193 Y-0.5895 
G01 X-54.0213 Y-0.5867 
G01 X-54.0451 Y-0.5534 
G01 X-54.0687 Y-0.5242 
G01 X-54.0785 Y-0.5057 
G01 X-54.0905 Y-0.4887 
G01 X-54.0919 Y-0.4856 
G01 X-54.0938 Y-0.4828 
G01 X-54.1087 Y-0.4483 
G01 X-54.1262 Y-0.4150 
G01 X-54.1321 Y-0.3950 
G01 X-54.1406 Y-0.3759 
G01 X-54.1414 Y-0.3727 
G01 X-54.1427 Y-0.3696 
G01 X-54.1506 Y-0.3328 
G01 X-54.1613 Y-0.2967 
G01 X-54.1632 Y-0.2759 
G01 X-54.1678 Y-0.2556 
G01 X-54.1679 Y-0.2522 
G01 X-54.1686 Y-0.2489 
G01 X-54.1692 Y-0.2113 
G01 X-54.1726 Y-0.1738 
G01 X-54.1704 Y-0.1531 
G01 X-54.1710 Y-0.1322 
G01 X-54.1704 Y-0.1289 
G01 X-54.1705 Y-0.1255 
G01 X-54.1637 Y-0.0885 
G01 X-54.1598 Y-0.0511 
G01 X-54.1536 Y-0.0312 
G01 X-49.0603 Y29.5251 
G01 X-66.4494 Y46.4876 
G01 X-66.4526 Y46.4898 
G01 X-66.4935 Y46.5306 
G01 X-66.5349 Y46.5710 
G01 X-67.0842 Y47.1068 
G01 X-67.0874 Y47.1090 
G01 X-67.1283 Y47.1499 
G01 X-67.1697 Y47.1902 
G01 X-70.5371 Y50.4751 
G01 X-70.5534 Y50.4872 
G01 X-70.5786 Y50.5151 
G01 X-70.6058 Y50.5410 
G01 X-70.6081 Y50.5443 
G01 X-70.6110 Y50.5471 
G01 X-70.6224 Y50.5638 
G01 X-70.6360 Y50.5788 
G01 X-70.6552 Y50.6111 
G01 X-70.6769 Y50.6419 
G01 X-70.6785 Y50.6455 
G01 X-70.6808 Y50.6488 
G01 X-70.6888 Y50.6674 
G01 X-70.6991 Y50.6849 
G01 X-70.7117 Y50.7203 
G01 X-70.7270 Y50.7547 
G01 X-70.7278 Y50.7586 
G01 X-70.7294 Y50.7622 
G01 X-70.7336 Y50.7820 
G01 X-70.7404 Y50.8011 
G01 X-70.7458 Y50.8383 
G01 X-70.7541 Y50.8750 
G01 X-70.7542 Y50.8790 
G01 X-70.7550 Y50.8829 
G01 X-70.7552 Y50.9032 
G01 X-70.7582 Y50.9232 
G01 X-70.7562 Y50.9608 
G01 X-70.7571 Y50.9984 
G01 X-70.7565 Y51.0023 
G01 X-70.7565 Y51.0063 
G01 X-70.7528 Y51.0262 
G01 X-70.7518 Y51.0465 
G01 X-70.7425 Y51.0829 
G01 X-70.7361 Y51.1200 
G01 X-70.7347 Y51.1237 
G01 X-70.7339 Y51.1276 
G01 X-70.7264 Y51.1464 
G01 X-70.7214 Y51.1661 
G01 X-70.7053 Y51.2000 
G01 X-70.6918 Y51.2351 
G01 X-70.6896 Y51.2385 
G01 X-70.6881 Y51.2422 
G01 X-70.6771 Y51.2592 
G01 X-70.6684 Y51.2775 
G01 X-70.6459 Y51.3076 
G01 X-70.6258 Y51.3394 
G01 X-70.6231 Y51.3423 
G01 X-70.6209 Y51.3456 
G01 X-70.6067 Y51.3601 
G01 X-70.5946 Y51.3764 
G01 X-70.5667 Y51.4016 
G01 X-70.5408 Y51.4288 
G01 X-70.5375 Y51.4311 
G01 X-70.5347 Y51.4340 
G01 X-70.5180 Y51.4454 
G01 X-70.5030 Y51.4590 
G01 X-70.4707 Y51.4782 
G01 X-70.4399 Y51.4999 
G01 X-70.4363 Y51.5015 
G01 X-70.4330 Y51.5038 
G01 X-70.4144 Y51.5118 
G01 X-70.3969 Y51.5221 
G01 X-70.3615 Y51.5347 
G01 X-70.3271 Y51.5500 
G01 X-70.3232 Y51.5508 
G01 X-70.3196 Y51.5524 
G01 X-70.2998 Y51.5566 
G01 X-70.2807 Y51.5634 
G01 X-70.2435 Y51.5688 
G01 X-69.9735 Y51.6296 
G01 X-69.8501 Y51.6327 
G01 X-69.8293 Y51.6291 
G01 X-40.5226 Y55.8937 
G01 X-27.2501 Y82.7900 
G01 X-27.2436 Y82.8092 
G01 X-27.2228 Y82.8452 
G01 X-27.2044 Y82.8825 
G01 X-27.1921 Y82.8986 
G01 X-27.1820 Y82.9161 
G01 X-27.1546 Y82.9474 
G01 X-27.1293 Y82.9804 
G01 X-27.1141 Y82.9937 
G01 X-27.1007 Y83.0090 
G01 X-27.0678 Y83.0343 
G01 X-27.0365 Y83.0617 
G01 X-27.0190 Y83.0718 
G01 X-27.0029 Y83.0842 
G01 X-26.9656 Y83.1026 
G01 X-26.9296 Y83.1234 
G01 X-26.9105 Y83.1299 
G01 X-26.8923 Y83.1389 
G01 X-26.8522 Y83.1497 
G01 X-26.8128 Y83.1630 
G01 X-26.7927 Y83.1657 
G01 X-26.7732 Y83.1709 
G01 X-26.7317 Y83.1737 
G01 X-26.6904 Y83.1791 
G01 X-26.6702 Y83.1778 
G01 X-26.6500 Y83.1791 
G01 X-26.6088 Y83.1737 
G01 X-26.5673 Y83.1710 
G01 X-26.5478 Y83.1657 
G01 X-26.5277 Y83.1631 
G01 X-26.4883 Y83.1498 
G01 X-26.4481 Y83.1390 
G01 X-26.4300 Y83.1301 
G01 X-26.4108 Y83.1236 
G01 X-26.3748 Y83.1028 
G01 X-26.3375 Y83.0844 
G01 X-26.3214 Y83.0721 
G01 X-26.3039 Y83.0620 
G01 X-26.2726 Y83.0346 
G01 X-26.2396 Y83.0093 
G01 X-26.2263 Y82.9941 
G01 X-26.2110 Y82.9807 
G01 X-26.1857 Y82.9478 
G01 X-26.1583 Y82.9165 
G01 X-26.1482 Y82.8990 
G01 X-26.1358 Y82.8829 
G01 X-26.1174 Y82.8456 
G01 X-26.0966 Y82.8096 
G01 X-26.0901 Y82.7905 
G01 X-21.1015 Y72.7003 
G01 X-20.5970 Y71.6798 
G01 X-20.5877 Y71.6610 
G01 X-20.5760 Y71.6436 
G01 X-20.5604 Y71.6058 
G01 X-18.0798 Y66.5885 
G01 X-17.5753 Y65.5679 
G01 X-17.5660 Y65.5492 
G01 X-17.5543 Y65.5317 
G01 X-17.5387 Y65.4940 
G01 X-14.8086 Y59.9721 
G01 X-12.7923 Y55.8937 
G01 X-11.3364 Y55.6818 
G01 X-11.3202 Y55.6795 
G01 X-11.3038 Y55.6795 
G01 X-11.2593 Y55.6706 
G01 X-10.0927 Y55.5009 
G01 X-10.0765 Y55.4985 
G01 X-10.0602 Y55.4985 
G01 X-10.0156 Y55.4897 
G01 X16.4845 Y51.6335 
G01 X16.5114 Y51.6381 
G00 Z1.0000 
G00 X-7.2280 Y43.5473 
G01 Z0.0000 F70.00 
G01 X-7.9186 Y42.7348 F300.00 
G01 X-7.3590 Y42.7348 
G01 X-7.2291 Y42.7090 
G01 X-7.1068 Y42.6583 
G01 X-6.9966 Y42.5847 
G01 X-6.9511 Y42.5392 
G01 X-7.0130 Y42.7021 
G01 X-7.0999 Y43.0135 
G01 X-7.1582 Y43.3314 
G01 X-7.1818 Y43.5912 
G01 X-7.2280 Y43.5473 
G00 Z1.0000 
G00 X-5.5414 Y44.8952 
G01 Z0.0000 F70.00 
G01 X-5.5414 Y44.8952 F300.00 
G01 X-5.5452 Y44.8951 
G01 X-5.5525 Y44.8939 
G01 X-5.5596 Y44.8916 
G01 X-5.5663 Y44.8883 
G01 X-5.5723 Y44.8840 
G01 X-5.5777 Y44.8787 
G01 X-5.5821 Y44.8728 
G01 X-5.5896 Y44.8456 
G01 X-5.6004 Y44.8234 
G01 X-5.6039 Y44.8133 
G01 X-5.5385 Y44.8951 
G01 X-5.5414 Y44.8952 
G00 Z1.0000 
G00 X-5.5414 Y42.7348 
G01 Z0.0000 F70.00 
G01 X-5.5414 Y42.7348 F300.00 
G01 X-5.5377 Y42.7349 
G01 X-5.5303 Y42.7361 
G01 X-5.5232 Y42.7384 
G01 X-5.5166 Y42.7417 
G01 X-5.5105 Y42.7460 
G01 X-5.5052 Y42.7513 
G01 X-5.5007 Y42.7572 
G01 X-5.4933 Y42.7843 
G01 X-5.4825 Y42.8066 
G01 X-5.4790 Y42.8167 
G01 X-5.5444 Y42.7349 
G01 X-5.5414 Y42.7348 
G00 Z1.0000 
G00 X-8.2290 Y44.4510 
G01 Z0.0000 F70.00 
G01 X-8.2068 Y44.4722 F300.00 
G01 X-8.1868 Y44.4957 
G01 X-8.1669 Y44.5114 
G01 X-8.1457 Y44.5379 
G01 X-8.1271 Y44.5690 
G01 X-8.1128 Y44.6023 
G01 X-8.1032 Y44.6373 
G01 X-8.0983 Y44.6732 
G01 X-8.0977 Y44.6913 
G01 X-8.0982 Y44.7058 
G01 X-8.1023 Y44.7346 
G01 X-8.1105 Y44.7626 
G01 X-8.1226 Y44.7890 
G01 X-8.1383 Y44.8135 
G01 X-8.1574 Y44.8355 
G01 X-8.1794 Y44.8545 
G01 X-8.2038 Y44.8703 
G01 X-8.2303 Y44.8823 
G01 X-8.2582 Y44.8905 
G01 X-8.2870 Y44.8947 
G01 X-8.3016 Y44.8952 
G01 X-8.3332 Y44.8941 
G01 X-8.3959 Y44.8853 
G01 X-8.4567 Y44.8678 
G01 X-8.5146 Y44.8421 
G01 X-8.5682 Y44.8085 
G01 X-8.6167 Y44.7678 
G01 X-8.6590 Y44.7207 
G01 X-8.6944 Y44.6682 
G01 X-8.7221 Y44.6113 
G01 X-8.7329 Y44.5815 
G01 X-8.7533 Y44.5185 
G01 X-8.8179 Y44.4029 
G01 X-8.9038 Y44.3021 
G01 X-9.0078 Y44.2200 
G01 X-9.1257 Y44.1597 
G01 X-9.2532 Y44.1237 
G01 X-9.3852 Y44.1131 
G01 X-9.5168 Y44.1286 
G01 X-9.6275 Y44.1644 
G01 X-9.6104 Y43.9766 
G01 X-9.6104 Y43.6534 
G01 X-9.6397 Y43.3314 
G01 X-9.6980 Y43.0135 
G01 X-9.7849 Y42.7021 
G01 X-9.8443 Y42.5457 
G01 X-8.2495 Y44.4219 
G01 X-8.2290 Y44.4510 
G00 Z1.0000 
G00 X-11.2564 Y42.7348 
G01 Z0.0000 F70.00 
G01 X-11.2564 Y42.7348 F300.00 
G01 X-11.2527 Y42.7349 
G01 X-11.2453 Y42.7361 
G01 X-11.2382 Y42.7384 
G01 X-11.2316 Y42.7417 
G01 X-11.2255 Y42.7460 
G01 X-11.2202 Y42.7513 
G01 X-11.2157 Y42.7572 
G01 X-11.2083 Y42.7843 
G01 X-11.1974 Y42.8066 
G01 X-11.1940 Y42.8167 
G01 X-11.2594 Y42.7349 
G01 X-11.2564 Y42.7348 
G00 Z1.0000 
G00 X-11.2564 Y44.8952 
G01 Z0.0000 F70.00 
G01 X-11.2602 Y44.8951 F300.00 
G01 X-11.2675 Y44.8939 
G01 X-11.2746 Y44.8916 
G01 X-11.2813 Y44.8883 
G01 X-11.2873 Y44.8840 
G01 X-11.2927 Y44.8787 
G01 X-11.2971 Y44.8728 
G01 X-11.3046 Y44.8456 
G01 X-11.3154 Y44.8234 
G01 X-11.3189 Y44.8133 
G01 X-11.2535 Y44.8951 
G01 X-11.2564 Y44.8952 
G00 Z1.0000 
G00 X-12.9430 Y43.5473 
G01 Z0.0000 F70.00 
G01 X-13.6336 Y42.7348 F300.00 
G01 X-13.0740 Y42.7348 
G01 X-12.9441 Y42.7090 
G01 X-12.8218 Y42.6583 
G01 X-12.7116 Y42.5847 
G01 X-12.6661 Y42.5392 
G01 X-12.7280 Y42.7021 
G01 X-12.8149 Y43.0135 
G01 X-12.8732 Y43.3314 
G01 X-12.8968 Y43.5912 
G01 X-12.9430 Y43.5473 
G00 Z1.0000 
G00 X-10.1106 Y37.0132 
G01 Z0.0000 F70.00 
G01 X-10.2330 Y37.0639 F300.00 
G01 X-10.3431 Y37.1374 
G01 X-10.4368 Y37.2311 
G01 X-10.5103 Y37.3412 
G01 X-10.5610 Y37.4636 
G01 X-10.5869 Y37.5935 
G01 X-10.5869 Y37.7260 
G01 X-10.5610 Y37.8559 
G01 X-10.5103 Y37.9782 
G01 X-10.4368 Y38.0884 
G01 X-10.3431 Y38.1820 
G01 X-10.2330 Y38.2556 
G01 X-10.1106 Y38.3063 
G01 X-9.9807 Y38.3321 
G01 X-9.2640 Y38.3321 
G01 X-9.1341 Y38.3063 
G01 X-9.0118 Y38.2556 
G01 X-8.9016 Y38.1820 
G01 X-8.8739 Y38.1543 
G01 X-9.0275 Y38.6152 
G01 X-9.1341 Y38.5710 
G01 X-9.2640 Y38.5452 
G01 X-10.4324 Y38.5452 
G01 X-10.4987 Y38.5452 
G01 X-10.5070 Y38.5449 
G01 X-10.5235 Y38.5423 
G01 X-10.5394 Y38.5371 
G01 X-10.5543 Y38.5295 
G01 X-10.5679 Y38.5197 
G01 X-10.5797 Y38.5079 
G01 X-10.5895 Y38.4943 
G01 X-10.5971 Y38.4794 
G01 X-10.6023 Y38.4635 
G01 X-10.6049 Y38.4470 
G01 X-10.6052 Y38.4387 
G01 X-10.6052 Y36.4913 
G01 X-10.6049 Y36.4830 
G01 X-10.6023 Y36.4665 
G01 X-10.5971 Y36.4506 
G01 X-10.5895 Y36.4357 
G01 X-10.5797 Y36.4221 
G01 X-10.5679 Y36.4103 
G01 X-10.5543 Y36.4005 
G01 X-10.5394 Y36.3929 
G01 X-10.5235 Y36.3877 
G01 X-10.5070 Y36.3851 
G01 X-10.4987 Y36.3848 
G01 X-10.0027 Y36.3848 
G01 X-10.0027 Y36.9917 
G01 X-10.1106 Y37.0132 
G00 Z1.0000 
G00 X-36.7404 Y42.6911 
G01 Z0.0000 F70.00 
G01 X-36.7404 Y43.6689 F300.00 
G01 X-36.0489 Y44.3604 
G01 X-35.0711 Y44.3604 
G01 X-34.3796 Y43.6689 
G01 X-34.3796 Y43.3097 
G01 X-33.9063 Y42.8364 
G01 X-31.4744 Y42.8364 
G01 X-31.3648 Y42.9460 
G01 X-31.1919 Y43.0716 
G01 X-31.0014 Y43.1687 
G01 X-30.9666 Y43.1800 
G01 X-31.0014 Y43.1913 
G01 X-31.1919 Y43.2884 
G01 X-31.3648 Y43.4140 
G01 X-31.4744 Y43.5236 
G01 X-31.8412 Y43.5236 
G01 X-32.0202 Y43.5592 
G01 X-32.1888 Y43.6290 
G01 X-32.3405 Y43.7304 
G01 X-34.6737 Y46.0636 
G01 X-34.8171 Y46.0636 
G01 X-35.0711 Y45.8096 
G01 X-36.0489 Y45.8096 
G01 X-36.7404 Y46.5011 
G01 X-36.7404 Y47.4789 
G01 X-36.0489 Y48.1704 
G01 X-35.0711 Y48.1704 
G01 X-34.8171 Y47.9164 
G01 X-34.1988 Y47.9164 
G01 X-34.0198 Y47.8808 
G01 X-33.8512 Y47.8110 
G01 X-33.6995 Y47.7096 
G01 X-33.5704 Y47.5805 
G01 X-31.4203 Y45.4305 
G01 X-31.3648 Y45.4860 
G01 X-31.1919 Y45.6116 
G01 X-31.0014 Y45.7087 
G01 X-30.9666 Y45.7200 
G01 X-31.0014 Y45.7313 
G01 X-31.1919 Y45.8284 
G01 X-31.3648 Y45.9540 
G01 X-31.5160 Y46.1052 
G01 X-31.6416 Y46.2781 
G01 X-31.7387 Y46.4686 
G01 X-31.8048 Y46.6720 
G01 X-31.8382 Y46.8831 
G01 X-31.8382 Y47.0969 
G01 X-31.8048 Y47.3080 
G01 X-31.7387 Y47.5114 
G01 X-31.6416 Y47.7019 
G01 X-31.5160 Y47.8748 
G01 X-31.3648 Y48.0260 
G01 X-31.1919 Y48.1516 
G01 X-31.0014 Y48.2487 
G01 X-30.7980 Y48.3148 
G01 X-30.5869 Y48.3482 
G01 X-30.4319 Y48.3482 
G01 X-30.1364 Y48.6437 
G01 X-30.1364 Y50.0571 
G01 X-30.3904 Y50.3111 
G01 X-30.3904 Y51.2889 
G01 X-30.1364 Y51.5429 
G01 X-30.1364 Y53.9692 
G01 X-30.1810 Y54.1066 
G01 X-30.2126 Y54.3059 
G01 X-30.2126 Y56.0317 
G01 X-30.1810 Y56.2310 
G01 X-30.1187 Y56.4229 
G01 X-30.0271 Y56.6027 
G01 X-29.9085 Y56.7660 
G01 X-29.7658 Y56.9087 
G01 X-29.6025 Y57.0273 
G01 X-29.4227 Y57.1189 
G01 X-29.2308 Y57.1812 
G01 X-29.0315 Y57.2128 
G01 X-28.8297 Y57.2128 
G01 X-28.6304 Y57.1812 
G01 X-28.4385 Y57.1189 
G01 X-28.2587 Y57.0273 
G01 X-28.0954 Y56.9087 
G01 X-27.9527 Y56.7660 
G01 X-27.8341 Y56.6027 
G01 X-27.7425 Y56.4229 
G01 X-27.6802 Y56.2310 
G01 X-27.6486 Y56.0317 
G01 X-27.6486 Y54.3059 
G01 X-27.6802 Y54.1066 
G01 X-27.7425 Y53.9147 
G01 X-27.8341 Y53.7349 
G01 X-27.9527 Y53.5716 
G01 X-28.0954 Y53.4289 
G01 X-28.2587 Y53.3103 
G01 X-28.2836 Y53.2976 
G01 X-28.2836 Y51.5429 
G01 X-28.0296 Y51.2889 
G01 X-28.0296 Y50.3111 
G01 X-28.2836 Y50.0571 
G01 X-28.2836 Y48.1688 
G01 X-28.3192 Y47.9898 
G01 X-28.3890 Y47.8212 
G01 X-28.4904 Y47.6695 
G01 X-28.6195 Y47.5404 
G01 X-29.1218 Y47.0381 
G01 X-29.1218 Y46.8831 
G01 X-29.1552 Y46.6720 
G01 X-29.2213 Y46.4686 
G01 X-29.3184 Y46.2781 
G01 X-29.4440 Y46.1052 
G01 X-29.5952 Y45.9540 
G01 X-29.7681 Y45.8284 
G01 X-29.9586 Y45.7313 
G01 X-29.9934 Y45.7200 
G01 X-29.9586 Y45.7087 
G01 X-29.7681 Y45.6116 
G01 X-29.5952 Y45.4860 
G01 X-29.4440 Y45.3348 
G01 X-29.3184 Y45.1619 
G01 X-29.2213 Y44.9714 
G01 X-29.1552 Y44.7680 
G01 X-29.1218 Y44.5569 
G01 X-29.1218 Y44.3431 
G01 X-29.1552 Y44.1320 
G01 X-29.2213 Y43.9286 
G01 X-29.3184 Y43.7381 
G01 X-29.4440 Y43.5652 
G01 X-29.5952 Y43.4140 
G01 X-29.7681 Y43.2884 
G01 X-29.9586 Y43.1913 
G01 X-29.9934 Y43.1800 
G01 X-29.9586 Y43.1687 
G01 X-29.7681 Y43.0716 
G01 X-29.5952 Y42.9460 
G01 X-29.4440 Y42.7948 
G01 X-29.3184 Y42.6219 
G01 X-29.2213 Y42.4314 
G01 X-29.1552 Y42.2280 
G01 X-29.1218 Y42.0169 
G01 X-29.1218 Y41.8031 
G01 X-29.1552 Y41.5920 
G01 X-29.2213 Y41.3886 
G01 X-29.3184 Y41.1981 
G01 X-29.4440 Y41.0252 
G01 X-29.5952 Y40.8740 
G01 X-29.7681 Y40.7484 
G01 X-29.9586 Y40.6513 
G01 X-29.9934 Y40.6400 
G01 X-29.9586 Y40.6287 
G01 X-29.7681 Y40.5316 
G01 X-29.5952 Y40.4060 
G01 X-29.4440 Y40.2548 
G01 X-29.3184 Y40.0819 
G01 X-29.2213 Y39.8914 
G01 X-29.1552 Y39.6880 
G01 X-29.1218 Y39.4769 
G01 X-29.1218 Y39.2631 
G01 X-29.1552 Y39.0520 
G01 X-29.2213 Y38.8486 
G01 X-29.3184 Y38.6581 
G01 X-29.4440 Y38.4852 
G01 X-29.5952 Y38.3340 
G01 X-29.7681 Y38.2084 
G01 X-29.9586 Y38.1113 
G01 X-29.9934 Y38.1000 
G01 X-29.9586 Y38.0887 
G01 X-29.7681 Y37.9916 
G01 X-29.5952 Y37.8660 
G01 X-29.4440 Y37.7148 
G01 X-29.3184 Y37.5419 
G01 X-29.2213 Y37.3514 
G01 X-29.1552 Y37.1480 
G01 X-29.1218 Y36.9369 
G01 X-29.1218 Y36.7231 
G01 X-29.1552 Y36.5120 
G01 X-29.2213 Y36.3086 
G01 X-29.3184 Y36.1181 
G01 X-29.4440 Y35.9452 
G01 X-29.5952 Y35.7940 
G01 X-29.7681 Y35.6684 
G01 X-29.9586 Y35.5713 
G01 X-29.9934 Y35.5600 
G01 X-29.9586 Y35.5487 
G01 X-29.7681 Y35.4516 
G01 X-29.5952 Y35.3260 
G01 X-29.4440 Y35.1748 
G01 X-29.3184 Y35.0019 
G01 X-29.2213 Y34.8114 
G01 X-29.1552 Y34.6080 
G01 X-29.1218 Y34.3969 
G01 X-29.1218 Y34.2419 
G01 X-27.8554 Y32.9755 
G01 X-27.7540 Y32.8238 
G01 X-27.6842 Y32.6552 
G01 X-27.6486 Y32.4762 
G01 X-27.6486 Y27.6887 
G01 X-27.5121 Y27.5522 
G01 X-27.5608 Y27.6698 
G01 X-27.5964 Y27.8488 
G01 X-27.5964 Y38.1912 
G01 X-27.5608 Y38.3702 
G01 X-27.4910 Y38.5388 
G01 X-27.3896 Y38.6905 
G01 X-27.2605 Y38.8196 
G01 X-26.1196 Y39.9605 
G01 X-25.9905 Y40.0896 
G01 X-25.8388 Y40.1910 
G01 X-25.6702 Y40.2608 
G01 X-25.4912 Y40.2964 
G01 X-23.8544 Y40.2964 
G01 X-23.7448 Y40.4060 
G01 X-23.5719 Y40.5316 
G01 X-23.3814 Y40.6287 
G01 X-23.3466 Y40.6400 
G01 X-23.3814 Y40.6513 
G01 X-23.5719 Y40.7484 
G01 X-23.7448 Y40.8740 
G01 X-23.8960 Y41.0252 
G01 X-24.0216 Y41.1981 
G01 X-24.1187 Y41.3886 
G01 X-24.1848 Y41.5920 
G01 X-24.2182 Y41.8031 
G01 X-24.2182 Y42.0169 
G01 X-24.1848 Y42.2280 
G01 X-24.1187 Y42.4314 
G01 X-24.0216 Y42.6219 
G01 X-23.8960 Y42.7948 
G01 X-23.7448 Y42.9460 
G01 X-23.5719 Y43.0716 
G01 X-23.3814 Y43.1687 
G01 X-23.3466 Y43.1800 
G01 X-23.3814 Y43.1913 
G01 X-23.5719 Y43.2884 
G01 X-23.7448 Y43.4140 
G01 X-23.8544 Y43.5236 
G01 X-24.2212 Y43.5236 
G01 X-24.4002 Y43.5592 
G01 X-24.5688 Y43.6290 
G01 X-24.7205 Y43.7304 
G01 X-27.2605 Y46.2704 
G01 X-27.3896 Y46.3995 
G01 X-27.4910 Y46.5512 
G01 X-27.5608 Y46.7198 
G01 X-27.5964 Y46.8988 
G01 X-27.5964 Y52.1612 
G01 X-27.5608 Y52.3402 
G01 X-27.4910 Y52.5088 
G01 X-27.3896 Y52.6605 
G01 X-25.6914 Y54.3587 
G01 X-25.6914 Y56.0317 
G01 X-25.6598 Y56.2310 
G01 X-25.5975 Y56.4229 
G01 X-25.5059 Y56.6027 
G01 X-25.3873 Y56.7660 
G01 X-25.2446 Y56.9087 
G01 X-25.0813 Y57.0273 
G01 X-24.9015 Y57.1189 
G01 X-24.7096 Y57.1812 
G01 X-24.5103 Y57.2128 
G01 X-24.3085 Y57.2128 
G01 X-24.1092 Y57.1812 
G01 X-23.9173 Y57.1189 
G01 X-23.7375 Y57.0273 
G01 X-23.5742 Y56.9087 
G01 X-23.4315 Y56.7660 
G01 X-23.3129 Y56.6027 
G01 X-23.2213 Y56.4229 
G01 X-23.1590 Y56.2310 
G01 X-23.1274 Y56.0317 
G01 X-23.1274 Y54.3059 
G01 X-23.1590 Y54.1066 
G01 X-23.2213 Y53.9147 
G01 X-23.3129 Y53.7349 
G01 X-23.4315 Y53.5716 
G01 X-23.5742 Y53.4289 
G01 X-23.7375 Y53.3103 
G01 X-23.9173 Y53.2187 
G01 X-24.1092 Y53.1564 
G01 X-24.3044 Y53.1254 
G01 X-25.7436 Y51.6863 
G01 X-25.7436 Y47.3737 
G01 X-23.8003 Y45.4305 
G01 X-23.7448 Y45.4860 
G01 X-23.5719 Y45.6116 
G01 X-23.5323 Y45.6318 
G01 X-23.7667 Y45.6318 
G01 X-23.8989 Y45.6672 
G01 X-24.0175 Y45.7357 
G01 X-24.1143 Y45.8325 
G01 X-24.1828 Y45.9511 
G01 X-24.2182 Y46.0833 
G01 X-24.2182 Y47.0381 
G01 X-24.7205 Y47.5404 
G01 X-24.8496 Y47.6695 
G01 X-24.9510 Y47.8212 
G01 X-25.0208 Y47.9898 
G01 X-25.0564 Y48.1688 
G01 X-25.0564 Y50.0571 
G01 X-25.3104 Y50.3111 
G01 X-25.3104 Y51.2889 
G01 X-24.6189 Y51.9804 
G01 X-23.6411 Y51.9804 
G01 X-22.9496 Y51.2889 
G01 X-22.9496 Y50.3111 
G01 X-23.2036 Y50.0571 
G01 X-23.2036 Y48.6437 
G01 X-22.9081 Y48.3482 
G01 X-21.9533 Y48.3482 
G01 X-21.8211 Y48.3128 
G01 X-21.7025 Y48.2443 
G01 X-21.6057 Y48.1475 
G01 X-21.5372 Y48.0289 
G01 X-21.5071 Y47.9164 
G01 X-21.2464 Y47.9164 
G01 X-21.2464 Y56.7663 
G01 X-21.9737 Y57.4936 
G01 X-30.0963 Y57.4936 
G01 X-38.4436 Y49.1463 
G01 X-38.4436 Y28.3237 
G01 X-33.9063 Y23.7864 
G01 X-30.0966 Y23.7864 
G01 X-29.7410 Y24.1420 
G01 X-29.4624 Y24.1420 
G01 X-29.5102 Y24.1496 
G01 X-29.7021 Y24.2119 
G01 X-29.8819 Y24.3035 
G01 X-30.0452 Y24.4221 
G01 X-30.0966 Y24.4736 
G01 X-30.5712 Y24.4736 
G01 X-30.7502 Y24.5092 
G01 X-30.9188 Y24.5790 
G01 X-31.0705 Y24.6804 
G01 X-31.1996 Y24.8095 
G01 X-32.3405 Y25.9504 
G01 X-32.4696 Y26.0795 
G01 X-32.5710 Y26.2312 
G01 X-32.6408 Y26.3998 
G01 X-32.6764 Y26.5788 
G01 X-32.6764 Y30.5712 
G01 X-32.6408 Y30.7502 
G01 X-32.5710 Y30.9188 
G01 X-32.4696 Y31.0705 
G01 X-32.3405 Y31.1996 
G01 X-31.8382 Y31.7019 
G01 X-31.8382 Y31.8569 
G01 X-31.8048 Y32.0680 
G01 X-31.7387 Y32.2714 
G01 X-31.6416 Y32.4618 
G01 X-31.5160 Y32.6348 
G01 X-31.3648 Y32.7860 
G01 X-31.1919 Y32.9116 
G01 X-31.0014 Y33.0087 
G01 X-30.9666 Y33.0200 
G01 X-31.0014 Y33.0313 
G01 X-31.1919 Y33.1284 
G01 X-31.3648 Y33.2540 
G01 X-31.5160 Y33.4052 
G01 X-31.6416 Y33.5781 
G01 X-31.7387 Y33.7686 
G01 X-31.8048 Y33.9720 
G01 X-31.8382 Y34.1831 
G01 X-31.8382 Y34.3969 
G01 X-31.8048 Y34.6080 
G01 X-31.7387 Y34.8114 
G01 X-31.6416 Y35.0019 
G01 X-31.5160 Y35.1748 
G01 X-31.3648 Y35.3260 
G01 X-31.1919 Y35.4516 
G01 X-31.0014 Y35.5487 
G01 X-30.9666 Y35.5600 
G01 X-31.0014 Y35.5713 
G01 X-31.1919 Y35.6684 
G01 X-31.3648 Y35.7940 
G01 X-31.4744 Y35.9036 
G01 X-33.9063 Y35.9036 
G01 X-34.3796 Y35.4303 
G01 X-34.3796 Y35.0711 
G01 X-35.0711 Y34.3796 
G01 X-36.0489 Y34.3796 
G01 X-36.7404 Y35.0711 
G01 X-36.7404 Y36.0489 
G01 X-36.0489 Y36.7404 
G01 X-35.6897 Y36.7404 
G01 X-34.8805 Y37.5496 
G01 X-34.7288 Y37.6510 
G01 X-34.5602 Y37.7208 
G01 X-34.3812 Y37.7564 
G01 X-31.4744 Y37.7564 
G01 X-31.3648 Y37.8660 
G01 X-31.1919 Y37.9916 
G01 X-31.0014 Y38.0887 
G01 X-30.9666 Y38.1000 
G01 X-31.0014 Y38.1113 
G01 X-31.1919 Y38.2084 
G01 X-31.3648 Y38.3340 
G01 X-31.4744 Y38.4436 
G01 X-34.8171 Y38.4436 
G01 X-35.0711 Y38.1896 
G01 X-36.0489 Y38.1896 
G01 X-36.7404 Y38.8811 
G01 X-36.7404 Y39.8589 
G01 X-36.0489 Y40.5504 
G01 X-35.0711 Y40.5504 
G01 X-34.8171 Y40.2964 
G01 X-31.4744 Y40.2964 
G01 X-31.3648 Y40.4060 
G01 X-31.1919 Y40.5316 
G01 X-31.0014 Y40.6287 
G01 X-30.9666 Y40.6400 
G01 X-31.0014 Y40.6513 
G01 X-31.1919 Y40.7484 
G01 X-31.3648 Y40.8740 
G01 X-31.4744 Y40.9836 
G01 X-34.3812 Y40.9836 
G01 X-34.5602 Y41.0192 
G01 X-34.7288 Y41.0890 
G01 X-34.8805 Y41.1904 
G01 X-35.6897 Y41.9996 
G01 X-36.0489 Y41.9996 
G01 X-36.7404 Y42.6911 
G00 Z1.0000 
G00 X-26.6692 Y80.4581 
G01 Z0.0000 F70.00 
G01 X-27.7762 Y78.2148 F300.00 
G01 X-27.6886 Y78.2654 
G01 X-27.4103 Y78.3807 
G01 X-27.1193 Y78.4587 
G01 X-26.8206 Y78.4980 
G01 X-26.5194 Y78.4980 
G01 X-26.2207 Y78.4587 
G01 X-25.9297 Y78.3807 
G01 X-25.6514 Y78.2654 
G01 X-25.5586 Y78.2119 
G01 X-26.6692 Y80.4581 
G00 Z1.0000 
G00 X-17.6904 Y17.2911 
G01 Z0.0000 F70.00 
G01 X-17.6904 Y18.2689 F300.00 
G01 X-16.9989 Y18.9604 
G01 X-16.6397 Y18.9604 
G01 X-16.1664 Y19.4337 
G01 X-16.1664 Y32.6363 
G01 X-19.4337 Y35.9036 
G01 X-21.8656 Y35.9036 
G01 X-21.9752 Y35.7940 
G01 X-22.1481 Y35.6684 
G01 X-22.3386 Y35.5713 
G01 X-22.3734 Y35.5600 
G01 X-22.3386 Y35.5487 
G01 X-22.1481 Y35.4516 
G01 X-21.9752 Y35.3260 
G01 X-21.8656 Y35.2164 
G01 X-20.2288 Y35.2164 
G01 X-20.0498 Y35.1808 
G01 X-19.8812 Y35.1110 
G01 X-19.7295 Y35.0096 
G01 X-17.1895 Y32.4696 
G01 X-17.0604 Y32.3405 
G01 X-16.9590 Y32.1888 
G01 X-16.8892 Y32.0202 
G01 X-16.8536 Y31.8412 
G01 X-16.8536 Y20.2288 
G01 X-16.8892 Y20.0498 
G01 X-16.9590 Y19.8812 
G01 X-17.0604 Y19.7295 
G01 X-17.1895 Y19.6004 
G01 X-18.1236 Y18.6663 
G01 X-18.1236 Y16.8937 
G01 X-17.3963 Y16.1664 
G01 X-3.5280 Y16.1664 
G01 X-3.7907 Y17.6907 
G01 X-3.9666 Y18.7116 
G01 X-4.8408 Y23.7848 
G01 X-4.8719 Y23.8598 
G01 X-4.9075 Y24.0388 
G01 X-4.9075 Y24.1715 
G01 X-5.7402 Y29.0036 
G01 X-5.8395 Y29.5799 
G01 X-5.8551 Y29.6637 
G01 X-5.8550 Y29.6699 
G01 X-5.8560 Y29.6760 
G01 X-5.8539 Y29.7609 
G01 X-5.8528 Y29.8461 
G01 X-5.8515 Y29.8522 
G01 X-5.8513 Y29.8584 
G01 X-5.8326 Y29.9414 
G01 X-5.8150 Y30.0247 
G01 X-5.8125 Y30.0304 
G01 X-5.8112 Y30.0364 
G01 X-5.7766 Y30.1142 
G01 X-5.7431 Y30.1924 
G01 X-5.7395 Y30.1975 
G01 X-5.7370 Y30.2032 
G01 X-5.6879 Y30.2728 
G01 X-5.6398 Y30.3428 
G01 X-5.6353 Y30.3472 
G01 X-5.6318 Y30.3522 
G01 X-5.5700 Y30.4109 
G01 X-5.3497 Y30.6258 
G01 X10.4764 Y46.0636 
G01 X7.0929 Y46.0636 
G01 X6.8389 Y45.8096 
G01 X5.8611 Y45.8096 
G01 X5.1696 Y46.5011 
G01 X5.1696 Y47.4789 
G01 X5.8611 Y48.1704 
G01 X6.8389 Y48.1704 
G01 X7.0929 Y47.9164 
G01 X12.3757 Y47.9164 
G01 X14.8252 Y50.3058 
G01 X-9.1955 Y53.8012 
G01 X-9.1955 Y49.1167 
G01 X-9.1415 Y49.0109 
G01 X-9.0881 Y48.8464 
G01 X-9.0610 Y48.6755 
G01 X-9.0610 Y47.3445 
G01 X-9.0881 Y47.1736 
G01 X-9.1415 Y47.0091 
G01 X-9.2201 Y46.8550 
G01 X-9.3217 Y46.7151 
G01 X-9.4441 Y46.5927 
G01 X-9.5840 Y46.4911 
G01 X-9.7381 Y46.4125 
G01 X-9.9026 Y46.3591 
G01 X-10.0735 Y46.3320 
G01 X-10.2465 Y46.3320 
G01 X-10.4174 Y46.3591 
G01 X-10.5819 Y46.4125 
G01 X-10.7360 Y46.4911 
G01 X-10.8759 Y46.5927 
G01 X-10.9983 Y46.7151 
G01 X-11.0999 Y46.8550 
G01 X-11.1785 Y47.0091 
G01 X-11.2319 Y47.1736 
G01 X-11.2590 Y47.3445 
G01 X-11.2590 Y48.6755 
G01 X-11.2319 Y48.8464 
G01 X-11.1785 Y49.0109 
G01 X-11.0999 Y49.1650 
G01 X-11.0483 Y49.2362 
G01 X-11.0483 Y54.0708 
G01 X-11.1912 Y54.0916 
G01 X-11.3388 Y54.0622 
G01 X-11.5212 Y54.0622 
G01 X-11.7002 Y54.0978 
G01 X-11.8688 Y54.1676 
G01 X-11.9119 Y54.1964 
G01 X-13.3347 Y54.4035 
G01 X-13.4185 Y54.4144 
G01 X-13.4249 Y54.4166 
G01 X-13.4317 Y54.4176 
G01 X-13.5112 Y54.4458 
G01 X-13.5913 Y54.4729 
G01 X-13.5972 Y54.4763 
G01 X-13.6037 Y54.4786 
G01 X-13.6763 Y54.5219 
G01 X-13.7495 Y54.5640 
G01 X-13.7546 Y54.5685 
G01 X-13.7605 Y54.5720 
G01 X-13.8232 Y54.6286 
G01 X-13.8868 Y54.6842 
G01 X-13.8909 Y54.6896 
G01 X-13.8960 Y54.6942 
G01 X-13.9465 Y54.7619 
G01 X-13.9980 Y54.8288 
G01 X-14.0010 Y54.8349 
G01 X-14.0051 Y54.8404 
G01 X-14.0415 Y54.9168 
G01 X-16.2137 Y59.3104 
G01 X-18.6848 Y64.3086 
G01 X-27.0912 Y64.3086 
G01 X-28.0042 Y63.3957 
G01 X-28.0042 Y63.3198 
G01 X-27.9527 Y63.2684 
G01 X-27.8341 Y63.1051 
G01 X-27.7425 Y62.9253 
G01 X-27.6802 Y62.7334 
G01 X-27.6486 Y62.5341 
G01 X-27.6486 Y60.8083 
G01 X-27.6802 Y60.6090 
G01 X-27.7425 Y60.4171 
G01 X-27.8341 Y60.2373 
G01 X-27.9527 Y60.0740 
G01 X-28.0954 Y59.9313 
G01 X-28.2587 Y59.8127 
G01 X-28.4385 Y59.7211 
G01 X-28.6304 Y59.6588 
G01 X-28.8297 Y59.6272 
G01 X-29.0315 Y59.6272 
G01 X-29.2308 Y59.6588 
G01 X-29.4227 Y59.7211 
G01 X-29.6025 Y59.8127 
G01 X-29.7658 Y59.9313 
G01 X-29.9085 Y60.0740 
G01 X-30.0271 Y60.2373 
G01 X-30.1187 Y60.4171 
G01 X-30.1810 Y60.6090 
G01 X-30.2126 Y60.8083 
G01 X-30.2126 Y62.5341 
G01 X-30.1810 Y62.7334 
G01 X-30.1187 Y62.9253 
G01 X-30.0271 Y63.1051 
G01 X-29.9085 Y63.2684 
G01 X-29.8570 Y63.3198 
G01 X-29.8570 Y63.8706 
G01 X-29.8214 Y64.0496 
G01 X-29.7516 Y64.2182 
G01 X-29.6502 Y64.3699 
G01 X-29.5211 Y64.4990 
G01 X-28.0655 Y65.9546 
G01 X-27.9138 Y66.0560 
G01 X-27.7452 Y66.1258 
G01 X-27.5662 Y66.1614 
G01 X-19.6009 Y66.1614 
G01 X-21.5944 Y70.1936 
G01 X-25.9271 Y70.1936 
G01 X-26.1811 Y69.9396 
G01 X-27.1589 Y69.9396 
G01 X-27.8504 Y70.6311 
G01 X-27.8504 Y71.6089 
G01 X-27.1589 Y72.3004 
G01 X-26.1811 Y72.3004 
G01 X-25.9271 Y72.0464 
G01 X-22.5104 Y72.0464 
G01 X-24.3967 Y75.8617 
G01 X-24.4113 Y75.7507 
G01 X-24.4893 Y75.4597 
G01 X-24.6046 Y75.1814 
G01 X-24.7552 Y74.9206 
G01 X-24.9386 Y74.6816 
G01 X-25.1516 Y74.4686 
G01 X-25.3906 Y74.2852 
G01 X-25.6514 Y74.1346 
G01 X-25.9297 Y74.0193 
G01 X-26.2207 Y73.9413 
G01 X-26.5194 Y73.9020 
G01 X-26.8206 Y73.9020 
G01 X-27.1193 Y73.9413 
G01 X-27.4103 Y74.0193 
G01 X-27.6886 Y74.1346 
G01 X-27.9494 Y74.2852 
G01 X-28.1884 Y74.4686 
G01 X-28.4014 Y74.6816 
G01 X-28.5848 Y74.9206 
G01 X-28.7354 Y75.1814 
G01 X-28.8507 Y75.4597 
G01 X-28.9287 Y75.7507 
G01 X-28.9421 Y75.8523 
G01 X-39.2730 Y54.9170 
G01 X-39.3095 Y54.8404 
G01 X-39.3134 Y54.8352 
G01 X-39.3162 Y54.8294 
G01 X-39.3679 Y54.7622 
G01 X-39.4186 Y54.6942 
G01 X-39.4234 Y54.6898 
G01 X-39.4273 Y54.6847 
G01 X-39.4911 Y54.6288 
G01 X-39.5541 Y54.5720 
G01 X-39.5597 Y54.5687 
G01 X-39.5646 Y54.5644 
G01 X-39.6380 Y54.5220 
G01 X-39.7109 Y54.4786 
G01 X-39.7170 Y54.4764 
G01 X-39.7226 Y54.4732 
G01 X-39.8029 Y54.4460 
G01 X-39.8829 Y54.4176 
G01 X-39.8893 Y54.4167 
G01 X-39.8955 Y54.4146 
G01 X-39.9795 Y54.4035 
G01 X-68.1398 Y50.3058 
G01 X-66.1555 Y48.3701 
G01 X-66.0976 Y48.3314 
G01 X-65.9686 Y48.2024 
G01 X-65.9405 Y48.1604 
G01 X-65.6763 Y47.9027 
G01 X-59.8116 Y47.9027 
G01 X-59.5439 Y48.1704 
G01 X-58.5661 Y48.1704 
G01 X-57.8746 Y47.4789 
G01 X-57.8746 Y46.5011 
G01 X-58.5661 Y45.8096 
G01 X-59.5439 Y45.8096 
G01 X-59.7843 Y46.0499 
G01 X-63.7769 Y46.0499 
G01 X-47.7445 Y30.4108 
G01 X-47.6828 Y30.3522 
G01 X-47.6793 Y30.3472 
G01 X-47.6748 Y30.3428 
G01 X-47.6267 Y30.2727 
G01 X-47.5776 Y30.2032 
G01 X-47.5751 Y30.1975 
G01 X-47.5715 Y30.1924 
G01 X-47.5380 Y30.1143 
G01 X-47.5034 Y30.0364 
G01 X-47.5021 Y30.0304 
G01 X-47.4996 Y30.0247 
G01 X-47.4820 Y29.9415 
G01 X-47.4633 Y29.8584 
G01 X-47.4631 Y29.8522 
G01 X-47.4618 Y29.8461 
G01 X-47.4607 Y29.7609 
G01 X-47.4586 Y29.6760 
G01 X-47.4596 Y29.6699 
G01 X-47.4595 Y29.6637 
G01 X-47.4751 Y29.5799 
G01 X-52.3109 Y1.5179 
G01 X-47.1192 Y4.2512 
G01 X-46.6464 Y4.5001 
G01 X-46.6464 Y8.1471 
G01 X-46.9004 Y8.4011 
G01 X-46.9004 Y9.3789 
G01 X-46.2089 Y10.0704 
G01 X-45.2311 Y10.0704 
G01 X-44.5396 Y9.3789 
G01 X-44.5396 Y8.4011 
G01 X-44.7936 Y8.1471 
G01 X-44.7936 Y5.4755 
G01 X-27.0208 Y14.8322 
G01 X-26.8459 Y14.8841 
G01 X-26.6642 Y14.9009 
G01 X-26.6573 Y14.9001 
G01 X-26.6504 Y14.9009 
G01 X-26.4687 Y14.8841 
G01 X-26.2938 Y14.8322 
G01 X-7.9114 Y5.1546 
G01 X-7.9114 Y8.1471 
G01 X-8.1654 Y8.4011 
G01 X-8.1654 Y9.3789 
G01 X-7.4739 Y10.0704 
G01 X-6.4961 Y10.0704 
G01 X-5.8046 Y9.3789 
G01 X-5.8046 Y8.4011 
G01 X-6.0586 Y8.1471 
G01 X-6.0586 Y4.2020 
G01 X-6.0104 Y4.1537 
G01 X-1.0037 Y1.5179 
G01 X-3.2087 Y14.3136 
G01 X-17.8712 Y14.3136 
G01 X-18.0502 Y14.3492 
G01 X-18.1678 Y14.3979 
G01 X-16.1263 Y12.3564 
G01 X-7.7279 Y12.3564 
G01 X-7.4739 Y12.6104 
G01 X-6.4961 Y12.6104 
G01 X-5.8046 Y11.9189 
G01 X-5.8046 Y10.9411 
G01 X-6.4961 Y10.2496 
G01 X-7.4739 Y10.2496 
G01 X-7.7279 Y10.5036 
G01 X-16.6012 Y10.5036 
G01 X-16.7802 Y10.5392 
G01 X-16.9488 Y10.6090 
G01 X-17.1005 Y10.7104 
G01 X-17.2296 Y10.8395 
G01 X-21.9737 Y15.5836 
G01 X-33.1112 Y15.5836 
G01 X-33.2902 Y15.6192 
G01 X-33.4588 Y15.6890 
G01 X-33.6105 Y15.7904 
G01 X-33.7396 Y15.9195 
G01 X-42.6296 Y24.8095 
G01 X-42.7310 Y24.9612 
G01 X-42.8008 Y25.1298 
G01 X-42.8364 Y25.3088 
G01 X-42.8364 Y37.7163 
G01 X-43.5637 Y38.4436 
G01 X-44.9771 Y38.4436 
G01 X-45.2311 Y38.1896 
G01 X-46.2089 Y38.1896 
G01 X-46.9004 Y38.8811 
G01 X-46.9004 Y39.8589 
G01 X-46.2089 Y40.5504 
G01 X-45.2311 Y40.5504 
G01 X-44.9771 Y40.2964 
G01 X-43.0888 Y40.2964 
G01 X-42.9098 Y40.2608 
G01 X-42.7412 Y40.1910 
G01 X-42.5895 Y40.0896 
G01 X-42.4604 Y39.9605 
G01 X-41.1904 Y38.6905 
G01 X-41.0890 Y38.5388 
G01 X-41.0192 Y38.3702 
G01 X-40.9836 Y38.1912 
G01 X-40.9836 Y25.7837 
G01 X-32.6363 Y17.4364 
G01 X-21.4988 Y17.4364 
G01 X-21.3198 Y17.4008 
G01 X-21.1512 Y17.3310 
G01 X-20.9995 Y17.2296 
G01 X-20.8704 Y17.1005 
G01 X-19.8921 Y16.1222 
G01 X-19.9408 Y16.2398 
G01 X-19.9764 Y16.4188 
G01 X-19.9764 Y19.1412 
G01 X-19.9408 Y19.3202 
G01 X-19.8710 Y19.4888 
G01 X-19.7696 Y19.6405 
G01 X-19.6405 Y19.7696 
G01 X-18.7064 Y20.7037 
G01 X-18.7064 Y31.3663 
G01 X-20.7037 Y33.3636 
G01 X-21.8656 Y33.3636 
G01 X-21.9752 Y33.2540 
G01 X-22.1481 Y33.1284 
G01 X-22.3386 Y33.0313 
G01 X-22.3734 Y33.0200 
G01 X-22.3386 Y33.0087 
G01 X-22.1481 Y32.9116 
G01 X-21.9752 Y32.7860 
G01 X-21.8656 Y32.6764 
G01 X-20.8638 Y32.6764 
G01 X-20.6848 Y32.6408 
G01 X-20.5162 Y32.5710 
G01 X-20.3645 Y32.4696 
G01 X-20.2354 Y32.3405 
G01 X-19.0945 Y31.1996 
G01 X-18.9654 Y31.0705 
G01 X-18.8640 Y30.9188 
G01 X-18.7942 Y30.7502 
G01 X-18.7586 Y30.5712 
G01 X-18.7586 Y21.4988 
G01 X-18.7942 Y21.3198 
G01 X-18.8640 Y21.1512 
G01 X-18.9654 Y20.9995 
G01 X-19.0945 Y20.8704 
G01 X-20.3645 Y19.6004 
G01 X-20.5162 Y19.4990 
G01 X-20.6848 Y19.4292 
G01 X-20.8638 Y19.3936 
G01 X-25.4912 Y19.3936 
G01 X-25.6702 Y19.4292 
G01 X-25.8388 Y19.4990 
G01 X-25.9905 Y19.6004 
G01 X-26.1196 Y19.7295 
G01 X-27.3896 Y20.9995 
G01 X-27.4910 Y21.1512 
G01 X-27.5608 Y21.3198 
G01 X-27.5964 Y21.4988 
G01 X-27.5964 Y21.9734 
G01 X-27.9400 Y22.3170 
G01 X-28.6790 Y21.5780 
G01 X-29.7410 Y21.5780 
G01 X-30.0966 Y21.9336 
G01 X-34.3812 Y21.9336 
G01 X-34.5602 Y21.9692 
G01 X-34.7288 Y22.0390 
G01 X-34.8805 Y22.1404 
G01 X-39.9605 Y27.2204 
G01 X-40.0896 Y27.3495 
G01 X-40.1910 Y27.5012 
G01 X-40.2608 Y27.6698 
G01 X-40.2964 Y27.8488 
G01 X-40.2964 Y49.6212 
G01 X-40.2608 Y49.8002 
G01 X-40.2121 Y49.9178 
G01 X-43.8595 Y46.2704 
G01 X-44.0112 Y46.1690 
G01 X-44.1798 Y46.0992 
G01 X-44.3588 Y46.0636 
G01 X-44.9771 Y46.0636 
G01 X-45.2311 Y45.8096 
G01 X-46.2089 Y45.8096 
G01 X-46.9004 Y46.5011 
G01 X-46.9004 Y47.4789 
G01 X-46.2089 Y48.1704 
G01 X-45.2311 Y48.1704 
G01 X-44.9771 Y47.9164 
G01 X-44.8337 Y47.9164 
G01 X-33.9464 Y58.8037 
G01 X-33.9464 Y63.5912 
G01 X-33.9108 Y63.7702 
G01 X-33.8410 Y63.9388 
G01 X-33.7396 Y64.0905 
G01 X-33.6105 Y64.2196 
G01 X-28.5305 Y69.2996 
G01 X-28.3788 Y69.4010 
G01 X-28.2102 Y69.4708 
G01 X-28.0312 Y69.5064 
G01 X-27.4129 Y69.5064 
G01 X-27.1589 Y69.7604 
G01 X-26.1811 Y69.7604 
G01 X-25.4896 Y69.0689 
G01 X-25.4896 Y68.0911 
G01 X-26.1811 Y67.3996 
G01 X-27.1589 Y67.3996 
G01 X-27.4129 Y67.6536 
G01 X-27.5563 Y67.6536 
G01 X-32.0936 Y63.1163 
G01 X-32.0936 Y58.3288 
G01 X-32.1292 Y58.1498 
G01 X-32.1779 Y58.0322 
G01 X-31.1996 Y59.0105 
G01 X-31.0705 Y59.1396 
G01 X-30.9188 Y59.2410 
G01 X-30.7502 Y59.3108 
G01 X-30.5712 Y59.3464 
G01 X-21.4988 Y59.3464 
G01 X-21.3198 Y59.3108 
G01 X-21.1512 Y59.2410 
G01 X-20.9995 Y59.1396 
G01 X-20.8704 Y59.0105 
G01 X-19.7295 Y57.8696 
G01 X-19.6004 Y57.7405 
G01 X-19.4990 Y57.5888 
G01 X-19.4292 Y57.4202 
G01 X-19.3936 Y57.2412 
G01 X-19.3936 Y42.2937 
G01 X-9.4404 Y32.3405 
G01 X-9.3390 Y32.1888 
G01 X-9.2692 Y32.0202 
G01 X-9.2336 Y31.8412 
G01 X-9.2336 Y29.1837 
G01 X-9.2201 Y29.1650 
G01 X-9.1415 Y29.0109 
G01 X-9.0881 Y28.8464 
G01 X-9.0610 Y28.6755 
G01 X-9.0610 Y27.3445 
G01 X-9.0881 Y27.1736 
G01 X-9.1415 Y27.0091 
G01 X-9.2201 Y26.8550 
G01 X-9.3217 Y26.7151 
G01 X-9.4441 Y26.5927 
G01 X-9.5840 Y26.4911 
G01 X-9.7381 Y26.4125 
G01 X-9.9026 Y26.3591 
G01 X-10.0735 Y26.3320 
G01 X-10.2465 Y26.3320 
G01 X-10.4174 Y26.3591 
G01 X-10.5819 Y26.4125 
G01 X-10.7360 Y26.4911 
G01 X-10.8759 Y26.5927 
G01 X-10.9983 Y26.7151 
G01 X-11.0999 Y26.8550 
G01 X-11.1785 Y27.0091 
G01 X-11.2319 Y27.1736 
G01 X-11.2590 Y27.3445 
G01 X-11.2590 Y28.6755 
G01 X-11.2319 Y28.8464 
G01 X-11.1785 Y29.0109 
G01 X-11.0999 Y29.1650 
G01 X-11.0864 Y29.1837 
G01 X-11.0864 Y31.3663 
G01 X-20.9105 Y41.1904 
G01 X-21.0396 Y41.3195 
G01 X-21.1410 Y41.4712 
G01 X-21.2108 Y41.6398 
G01 X-21.2464 Y41.8188 
G01 X-21.2464 Y46.0636 
G01 X-21.5071 Y46.0636 
G01 X-21.5372 Y45.9511 
G01 X-21.6057 Y45.8325 
G01 X-21.7025 Y45.7357 
G01 X-21.8211 Y45.6672 
G01 X-21.9533 Y45.6318 
G01 X-22.1877 Y45.6318 
G01 X-22.1481 Y45.6116 
G01 X-21.9752 Y45.4860 
G01 X-21.8240 Y45.3348 
G01 X-21.6984 Y45.1619 
G01 X-21.6013 Y44.9714 
G01 X-21.5352 Y44.7680 
G01 X-21.5018 Y44.5569 
G01 X-21.5018 Y44.3431 
G01 X-21.5352 Y44.1320 
G01 X-21.6013 Y43.9286 
G01 X-21.6984 Y43.7381 
G01 X-21.8240 Y43.5652 
G01 X-21.9752 Y43.4140 
G01 X-22.1481 Y43.2884 
G01 X-22.3386 Y43.1913 
G01 X-22.3734 Y43.1800 
G01 X-22.3386 Y43.1687 
G01 X-22.1481 Y43.0716 
G01 X-21.9752 Y42.9460 
G01 X-21.8240 Y42.7948 
G01 X-21.6984 Y42.6219 
G01 X-21.6013 Y42.4314 
G01 X-21.5352 Y42.2280 
G01 X-21.5018 Y42.0169 
G01 X-21.5018 Y41.8031 
G01 X-21.5352 Y41.5920 
G01 X-21.6013 Y41.3886 
G01 X-21.6984 Y41.1981 
G01 X-21.8240 Y41.0252 
G01 X-21.9752 Y40.8740 
G01 X-22.1481 Y40.7484 
G01 X-22.3386 Y40.6513 
G01 X-22.3734 Y40.6400 
G01 X-22.3386 Y40.6287 
G01 X-22.1481 Y40.5316 
G01 X-21.9752 Y40.4060 
G01 X-21.8240 Y40.2548 
G01 X-21.6984 Y40.0819 
G01 X-21.6013 Y39.8914 
G01 X-21.5352 Y39.6880 
G01 X-21.5018 Y39.4769 
G01 X-21.5018 Y39.2631 
G01 X-21.5352 Y39.0520 
G01 X-21.6013 Y38.8486 
G01 X-21.6984 Y38.6581 
G01 X-21.8240 Y38.4852 
G01 X-21.9752 Y38.3340 
G01 X-22.1481 Y38.2084 
G01 X-22.3386 Y38.1113 
G01 X-22.3734 Y38.1000 
G01 X-22.3386 Y38.0887 
G01 X-22.1481 Y37.9916 
G01 X-21.9752 Y37.8660 
G01 X-21.8656 Y37.7564 
G01 X-18.9588 Y37.7564 
G01 X-18.7798 Y37.7208 
G01 X-18.6112 Y37.6510 
G01 X-18.4595 Y37.5496 
G01 X-18.3304 Y37.4205 
G01 X-14.5204 Y33.6105 
G01 X-14.4190 Y33.4588 
G01 X-14.3492 Y33.2902 
G01 X-14.3136 Y33.1112 
G01 X-14.3136 Y18.9588 
G01 X-14.3492 Y18.7798 
G01 X-14.4190 Y18.6112 
G01 X-14.5204 Y18.4595 
G01 X-14.6495 Y18.3304 
G01 X-15.3296 Y17.6503 
G01 X-15.3296 Y17.2911 
G01 X-16.0211 Y16.5996 
G01 X-16.9989 Y16.5996 
G01 X-17.6904 Y17.2911 
G00 Z1.0000 
G00 X-6.6936 Y30.0963 
G01 Z0.0000 F70.00 
G01 X-6.6936 Y19.4337 F300.00 
G01 X-6.2203 Y18.9604 
G01 X-5.8611 Y18.9604 
G01 X-5.1696 Y18.2689 
G01 X-5.1696 Y17.2911 
G01 X-5.8611 Y16.5996 
G01 X-6.8389 Y16.5996 
G01 X-7.5304 Y17.2911 
G01 X-7.5304 Y17.6503 
G01 X-8.3396 Y18.4595 
G01 X-8.4410 Y18.6112 
G01 X-8.5108 Y18.7798 
G01 X-8.5464 Y18.9588 
G01 X-8.5464 Y30.5712 
G01 X-8.5108 Y30.7502 
G01 X-8.4410 Y30.9188 
G01 X-8.3396 Y31.0705 
G01 X-8.2105 Y31.1996 
G01 X2.8836 Y42.2937 
G01 X2.8836 Y46.2471 
G01 X2.6296 Y46.5011 
G01 X2.6296 Y47.4789 
G01 X3.3211 Y48.1704 
G01 X4.2989 Y48.1704 
G01 X4.9904 Y47.4789 
G01 X4.9904 Y46.5011 
G01 X4.7364 Y46.2471 
G01 X4.7364 Y41.8188 
G01 X4.7008 Y41.6398 
G01 X4.6310 Y41.4712 
G01 X4.5296 Y41.3195 
G01 X4.4005 Y41.1904 
G01 X-6.6936 Y30.0963 
G00 Z1.0000 
G00 X-25.6914 Y60.8083 
G01 Z0.0000 F70.00 
G01 X-25.6914 Y62.5341 F300.00 
G01 X-25.6598 Y62.7334 
G01 X-25.5975 Y62.9253 
G01 X-25.5059 Y63.1051 
G01 X-25.3873 Y63.2684 
G01 X-25.2446 Y63.4111 
G01 X-25.0813 Y63.5297 
G01 X-24.9015 Y63.6213 
G01 X-24.7096 Y63.6836 
G01 X-24.5103 Y63.7152 
G01 X-24.3085 Y63.7152 
G01 X-24.1092 Y63.6836 
G01 X-23.9173 Y63.6213 
G01 X-23.7375 Y63.5297 
G01 X-23.5742 Y63.4111 
G01 X-23.4315 Y63.2684 
G01 X-23.3129 Y63.1051 
G01 X-23.2213 Y62.9253 
G01 X-23.1590 Y62.7334 
G01 X-23.1274 Y62.5341 
G01 X-23.1274 Y60.8083 
G01 X-23.1590 Y60.6090 
G01 X-23.2213 Y60.4171 
G01 X-23.3129 Y60.2373 
G01 X-23.4315 Y60.0740 
G01 X-23.5742 Y59.9313 
G01 X-23.7375 Y59.8127 
G01 X-23.9173 Y59.7211 
G01 X-24.1092 Y59.6588 
G01 X-24.3085 Y59.6272 
G01 X-24.5103 Y59.6272 
G01 X-24.7096 Y59.6588 
G01 X-24.9015 Y59.7211 
G01 X-25.0813 Y59.8127 
G01 X-25.2446 Y59.9313 
G01 X-25.3873 Y60.0740 
G01 X-25.5059 Y60.2373 
G01 X-25.5975 Y60.4171 
G01 X-25.6598 Y60.6090 
G01 X-25.6914 Y60.8083 
G00 Z1.0000 
G00 X-46.2089 Y44.3604 
G01 Z0.0000 F70.00 
G01 X-45.2311 Y44.3604 F300.00 
G01 X-44.5396 Y43.6689 
G01 X-44.5396 Y42.6911 
G01 X-45.2311 Y41.9996 
G01 X-46.2089 Y41.9996 
G01 X-46.4629 Y42.2536 
G01 X-50.8912 Y42.2536 
G01 X-51.0702 Y42.2892 
G01 X-51.2388 Y42.3590 
G01 X-51.3905 Y42.4604 
G01 X-54.9937 Y46.0636 
G01 X-55.7721 Y46.0636 
G01 X-56.0261 Y45.8096 
G01 X-57.0039 Y45.8096 
G01 X-57.6954 Y46.5011 
G01 X-57.6954 Y47.4789 
G01 X-57.0039 Y48.1704 
G01 X-56.0261 Y48.1704 
G01 X-55.7721 Y47.9164 
G01 X-54.5188 Y47.9164 
G01 X-54.3398 Y47.8808 
G01 X-54.1712 Y47.8110 
G01 X-54.0195 Y47.7096 
G01 X-53.8904 Y47.5805 
G01 X-50.4163 Y44.1064 
G01 X-46.4629 Y44.1064 
G01 X-46.2089 Y44.3604 
G00 Z1.0000 
G00 X-46.9004 Y35.0711 
G01 Z0.0000 F70.00 
G01 X-46.9004 Y36.0489 F300.00 
G01 X-46.2089 Y36.7404 
G01 X-45.2311 Y36.7404 
G01 X-44.5396 Y36.0489 
G01 X-44.5396 Y35.0711 
G01 X-44.7936 Y34.8171 
G01 X-44.7936 Y12.1729 
G01 X-44.5396 Y11.9189 
G01 X-44.5396 Y10.9411 
G01 X-45.2311 Y10.2496 
G01 X-46.2089 Y10.2496 
G01 X-46.9004 Y10.9411 
G01 X-46.9004 Y11.9189 
G01 X-46.6464 Y12.1729 
G01 X-46.6464 Y34.8171 
G01 X-46.9004 Y35.0711 
G00 Z1.0000 
G00 X-8.6579 Y35.7786 
G01 Z0.0000 F70.00 
G01 X-8.6579 Y35.6462 F300.00 
G01 X-8.6837 Y35.5163 
G01 X-8.7344 Y35.3939 
G01 X-8.8080 Y35.2838 
G01 X-8.9016 Y35.1901 
G01 X-9.0118 Y35.1165 
G01 X-9.1341 Y35.0658 
G01 X-9.2640 Y35.0400 
G01 X-10.6129 Y35.0400 
G01 X-10.8385 Y35.0757 
G01 X-11.0558 Y35.1463 
G01 X-11.2593 Y35.2500 
G01 X-11.4441 Y35.3843 
G01 X-11.6057 Y35.5459 
G01 X-11.7400 Y35.7307 
G01 X-11.8437 Y35.9342 
G01 X-11.9143 Y36.1515 
G01 X-11.9500 Y36.3771 
G01 X-11.9500 Y38.5529 
G01 X-11.9143 Y38.7785 
G01 X-11.8437 Y38.9958 
G01 X-11.7400 Y39.1993 
G01 X-11.6057 Y39.3841 
G01 X-11.4441 Y39.5457 
G01 X-11.2593 Y39.6800 
G01 X-11.0558 Y39.7837 
G01 X-10.8385 Y39.8543 
G01 X-10.6129 Y39.8900 
G01 X-10.5649 Y39.8900 
G01 X-9.2640 Y39.8900 
G01 X-9.1341 Y39.8642 
G01 X-9.0118 Y39.8135 
G01 X-8.9254 Y39.7557 
G01 X-8.9101 Y39.7690 
G01 X-8.7950 Y39.8346 
G01 X-8.6694 Y39.8764 
G01 X-8.5380 Y39.8930 
G01 X-8.4059 Y39.8836 
G01 X-8.2781 Y39.8486 
G01 X-8.1596 Y39.7894 
G01 X-8.0550 Y39.7082 
G01 X-7.9682 Y39.6081 
G01 X-7.9026 Y39.4931 
G01 X-7.3512 Y37.8387 
G01 X-6.7997 Y39.4931 
G01 X-6.7341 Y39.6081 
G01 X-6.6474 Y39.7082 
G01 X-6.5427 Y39.7894 
G01 X-6.4243 Y39.8486 
G01 X-6.2965 Y39.8836 
G01 X-6.1644 Y39.8930 
G01 X-6.0330 Y39.8764 
G01 X-5.9073 Y39.8346 
G01 X-5.7923 Y39.7690 
G01 X-5.6922 Y39.6822 
G01 X-5.6110 Y39.5775 
G01 X-5.5518 Y39.4591 
G01 X-5.5168 Y39.3313 
G01 X-5.5074 Y39.1992 
G01 X-5.5239 Y39.0678 
G01 X-6.7075 Y35.5171 
G01 X-6.7202 Y35.4709 
G01 X-6.7284 Y35.4544 
G01 X-6.7342 Y35.4369 
G01 X-6.7580 Y35.3953 
G01 X-6.7794 Y35.3525 
G01 X-6.7907 Y35.3379 
G01 X-6.7998 Y35.3219 
G01 X-6.8312 Y35.2857 
G01 X-6.8606 Y35.2478 
G01 X-6.8745 Y35.2357 
G01 X-6.8866 Y35.2218 
G01 X-6.9245 Y35.1924 
G01 X-6.9607 Y35.1610 
G01 X-6.9767 Y35.1519 
G01 X-6.9912 Y35.1406 
G01 X-7.0341 Y35.1192 
G01 X-7.0757 Y35.0954 
G01 X-7.0932 Y35.0896 
G01 X-7.1097 Y35.0814 
G01 X-7.1559 Y35.0687 
G01 X-7.2014 Y35.0536 
G01 X-7.2197 Y35.0513 
G01 X-7.2375 Y35.0464 
G01 X-7.2852 Y35.0430 
G01 X-7.3328 Y35.0370 
G01 X-7.3512 Y35.0383 
G01 X-7.3696 Y35.0370 
G01 X-7.4171 Y35.0430 
G01 X-7.4649 Y35.0464 
G01 X-7.4827 Y35.0513 
G01 X-7.5010 Y35.0536 
G01 X-7.5464 Y35.0687 
G01 X-7.5927 Y35.0814 
G01 X-7.6092 Y35.0896 
G01 X-7.6266 Y35.0954 
G01 X-7.6683 Y35.1192 
G01 X-7.7111 Y35.1406 
G01 X-7.7257 Y35.1519 
G01 X-7.7417 Y35.1610 
G01 X-7.7779 Y35.1924 
G01 X-7.8158 Y35.2218 
G01 X-7.8278 Y35.2357 
G01 X-7.8418 Y35.2478 
G01 X-7.8711 Y35.2857 
G01 X-7.9025 Y35.3219 
G01 X-7.9117 Y35.3379 
G01 X-7.9230 Y35.3525 
G01 X-7.9444 Y35.3953 
G01 X-7.9681 Y35.4369 
G01 X-7.9740 Y35.4544 
G01 X-7.9822 Y35.4709 
G01 X-7.9949 Y35.5171 
G01 X-8.6579 Y37.5062 
G01 X-8.6579 Y35.7786 
G00 Z1.0000 
G00 X-8.1908 Y46.2400 
G01 Z0.0000 F70.00 
G01 X-7.9715 Y46.2085 F300.00 
G01 X-7.9715 Y46.2085 
G01 X-7.7590 Y46.1461 
G01 X-7.5575 Y46.0540 
G01 X-7.3711 Y45.9343 
G01 X-7.2037 Y45.7892 
G01 X-7.0586 Y45.6218 
G01 X-6.9388 Y45.4354 
G01 X-6.8708 Y45.2864 
G01 X-6.8456 Y45.3381 
G01 X-6.8240 Y45.4012 
G01 X-6.7230 Y45.5926 
G01 X-6.5937 Y45.7662 
G01 X-6.4391 Y45.9176 
G01 X-6.2630 Y46.0434 
G01 X-6.0696 Y46.1405 
G01 X-5.8635 Y46.2066 
G01 X-5.6496 Y46.2400 
G01 X-5.4332 Y46.2400 
G01 X-5.2194 Y46.2066 
G01 X-5.0133 Y46.1405 
G01 X-4.8199 Y46.0434 
G01 X-4.6438 Y45.9176 
G01 X-4.4892 Y45.7662 
G01 X-4.3599 Y45.5926 
G01 X-4.2589 Y45.4012 
G01 X-4.2373 Y45.3381 
G01 X-4.1846 Y45.2301 
G01 X-4.0699 Y44.9279 
G01 X-3.9830 Y44.6165 
G01 X-3.9247 Y44.2986 
G01 X-3.8954 Y43.9766 
G01 X-3.8954 Y43.6534 
G01 X-3.9247 Y43.3314 
G01 X-3.9830 Y43.0135 
G01 X-4.0699 Y42.7021 
G01 X-4.1846 Y42.3999 
G01 X-4.2373 Y42.2919 
G01 X-4.2589 Y42.2288 
G01 X-4.3599 Y42.0374 
G01 X-4.4892 Y41.8638 
G01 X-4.6438 Y41.7124 
G01 X-4.8199 Y41.5866 
G01 X-5.0133 Y41.4895 
G01 X-5.2194 Y41.4234 
G01 X-5.4332 Y41.3900 
G01 X-5.6496 Y41.3900 
G01 X-5.8635 Y41.4234 
G01 X-6.0696 Y41.4895 
G01 X-6.2630 Y41.5866 
G01 X-6.4391 Y41.7124 
G01 X-6.5937 Y41.8638 
G01 X-6.7230 Y42.0374 
G01 X-6.7529 Y42.0940 
G01 X-6.7529 Y41.9962 
G01 X-6.7787 Y41.8663 
G01 X-6.8294 Y41.7439 
G01 X-6.9030 Y41.6338 
G01 X-6.9966 Y41.5401 
G01 X-7.1068 Y41.4665 
G01 X-7.2291 Y41.4158 
G01 X-7.3590 Y41.3900 
G01 X-9.3454 Y41.3900 
G01 X-9.3843 Y41.3868 
G01 X-9.4115 Y41.3900 
G01 X-9.4388 Y41.3900 
G01 X-9.4771 Y41.3976 
G01 X-9.5158 Y41.4021 
G01 X-9.5419 Y41.4105 
G01 X-9.5687 Y41.4158 
G01 X-9.6048 Y41.4308 
G01 X-9.6419 Y41.4427 
G01 X-9.6658 Y41.4561 
G01 X-9.6911 Y41.4665 
G01 X-9.7236 Y41.4882 
G01 X-9.7576 Y41.5072 
G01 X-9.7785 Y41.5249 
G01 X-9.8012 Y41.5401 
G01 X-9.8288 Y41.5677 
G01 X-9.8585 Y41.5930 
G01 X-9.8755 Y41.6144 
G01 X-9.8949 Y41.6338 
G01 X-9.9166 Y41.6662 
G01 X-9.9408 Y41.6968 
G01 X-9.9533 Y41.7211 
G01 X-9.9685 Y41.7439 
G01 X-9.9834 Y41.7800 
G01 X-10.0012 Y41.8147 
G01 X-10.0087 Y41.8410 
G01 X-10.0192 Y41.8663 
G01 X-10.0268 Y41.9045 
G01 X-10.0374 Y41.9420 
G01 X-10.0397 Y41.9693 
G01 X-10.0450 Y41.9962 
G01 X-10.0450 Y42.0352 
G01 X-10.0481 Y42.0741 
G01 X-10.0461 Y42.0920 
G01 X-10.0749 Y42.0374 
G01 X-10.2042 Y41.8638 
G01 X-10.3588 Y41.7123 
G01 X-10.5349 Y41.5866 
G01 X-10.7283 Y41.4895 
G01 X-10.9344 Y41.4234 
G01 X-11.1482 Y41.3900 
G01 X-11.3646 Y41.3900 
G01 X-11.5785 Y41.4234 
G01 X-11.7846 Y41.4895 
G01 X-11.9780 Y41.5866 
G01 X-12.1541 Y41.7124 
G01 X-12.3087 Y41.8638 
G01 X-12.4380 Y42.0374 
G01 X-12.4679 Y42.0940 
G01 X-12.4679 Y41.9962 
G01 X-12.4937 Y41.8663 
G01 X-12.5444 Y41.7439 
G01 X-12.6180 Y41.6338 
G01 X-12.7116 Y41.5401 
G01 X-12.8218 Y41.4665 
G01 X-12.9441 Y41.4158 
G01 X-13.0740 Y41.3900 
G01 X-15.0604 Y41.3900 
G01 X-15.0993 Y41.3868 
G01 X-15.1265 Y41.3900 
G01 X-15.1538 Y41.3900 
G01 X-15.1921 Y41.3976 
G01 X-15.2308 Y41.4021 
G01 X-15.2569 Y41.4105 
G01 X-15.2837 Y41.4158 
G01 X-15.3198 Y41.4308 
G01 X-15.3569 Y41.4427 
G01 X-15.3808 Y41.4561 
G01 X-15.4061 Y41.4665 
G01 X-15.4386 Y41.4882 
G01 X-15.4726 Y41.5072 
G01 X-15.4935 Y41.5249 
G01 X-15.5162 Y41.5401 
G01 X-15.5438 Y41.5677 
G01 X-15.5735 Y41.5930 
G01 X-15.5905 Y41.6144 
G01 X-15.6099 Y41.6338 
G01 X-15.6316 Y41.6662 
G01 X-15.6558 Y41.6968 
G01 X-15.6683 Y41.7211 
G01 X-15.6835 Y41.7439 
G01 X-15.6984 Y41.7800 
G01 X-15.7162 Y41.8147 
G01 X-15.7237 Y41.8410 
G01 X-15.7342 Y41.8663 
G01 X-15.7418 Y41.9045 
G01 X-15.7524 Y41.9420 
G01 X-15.7547 Y41.9693 
G01 X-15.7600 Y41.9962 
G01 X-15.7600 Y42.0352 
G01 X-15.7632 Y42.0741 
G01 X-15.7600 Y42.1013 
G01 X-15.7600 Y42.1286 
G01 X-15.7524 Y42.1669 
G01 X-15.7479 Y42.2056 
G01 X-15.7395 Y42.2317 
G01 X-15.7342 Y42.2585 
G01 X-15.7192 Y42.2946 
G01 X-15.7073 Y42.3317 
G01 X-15.6939 Y42.3556 
G01 X-15.6835 Y42.3809 
G01 X-15.6618 Y42.4134 
G01 X-15.6428 Y42.4474 
G01 X-15.6251 Y42.4683 
G01 X-15.6099 Y42.4910 
G01 X-15.5823 Y42.5186 
G01 X-13.9645 Y44.4219 
G01 X-13.9440 Y44.4510 
G01 X-13.9218 Y44.4722 
G01 X-13.9018 Y44.4957 
G01 X-13.8819 Y44.5114 
G01 X-13.8607 Y44.5379 
G01 X-13.8421 Y44.5690 
G01 X-13.8278 Y44.6023 
G01 X-13.8182 Y44.6373 
G01 X-13.8133 Y44.6732 
G01 X-13.8127 Y44.6913 
G01 X-13.8132 Y44.7058 
G01 X-13.8173 Y44.7346 
G01 X-13.8255 Y44.7626 
G01 X-13.8376 Y44.7890 
G01 X-13.8533 Y44.8135 
G01 X-13.8724 Y44.8355 
G01 X-13.8944 Y44.8545 
G01 X-13.9188 Y44.8703 
G01 X-13.9453 Y44.8823 
G01 X-13.9732 Y44.8905 
G01 X-14.0020 Y44.8947 
G01 X-14.0166 Y44.8952 
G01 X-14.0482 Y44.8941 
G01 X-14.1109 Y44.8853 
G01 X-14.1718 Y44.8678 
