(.../pcb-gcode-3_6_0_4/pcb-gcode.ulp)
(Copyright 2005 - 2012 by John Johnson)
(See readme.txt for licensing terms.)
(This file generated from the board:)
(.../Education/2020/AtmelPcb/hviezda.brd)
(Current profile is .../pcb-gcode-3_6_0_4/profiles/generic.pp  )
(This file generated 11/6/20 3:30 PM)
(Settings from pcb-machine.h)
(  Tool Size)
(0.2500 )
(Z Axis Settings)
(  High     Up        Down     Drill)
(10.0000 	1.0000 	0.0000 	-1.0000 )
(spindle on time = 3.0000)
(milling depth = -0.2500)
(text depth = -0.1200)
(tool change at 12.7000 15.2400 25.4000 )
(feed rate xy = F508.00 )
(feed rate z  = F254.00 )
(Settings from pcb-defaults.h)
(isolate min = 0.0200)
(isolate max = 0.5000)
(isolate step = 0.2000)
(Generated bottom outlines, bottom drill, )
(Unit of measure: mm)
( Tool|       Size       |  Min Sub |  Max Sub |   Count )
( T01  0.650mm 0.0256in 0.0000in 0.0000in )
( T02  0.813mm 0.0320in 0.0000in 0.0000in )
( T03  1.016mm 0.0400in 0.0000in 0.0000in )
( T04  1.118mm 0.0440in 0.0000in 0.0000in )
( T05  2.540mm 0.1000in 0.0000in 0.0000in )
(Metric Mode)
G21
(Absolute Coordinates)
G90
M05
G00 Z25.4000 
G00 X12.7000 Y15.2400 
M06 T01  ; 0.6500 
G01 Z0.0000 F254.00 
M06 T01  ; 0.6500 
G00 Z1.0000 
M03
G04 P3.000000
G00 Z1.000000
G00 X-27.9400 Y35.6300 
G01 Z-1.0000 F254.00 
G01 Z1.000000
(R1.0000  P1.000000)
(G00 Z1.000000)
G00 X-27.9400 Y55.6300 
G01 Z-1.000000
G01 Z1.000000
M05
G00 Z25.4000 
M06 T02  ; 0.8128 
G01 Z0.0000 F254.00 
M06 T02  ; 0.8128 
G00 Z1.0000 
M03
G04 P3.000000
G00 Z1.000000
G00 X-34.2900 Y25.4000 
G01 Z-1.0000 F254.00 
G01 Z1.000000
(R1.0000  P1.000000)
(G00 Z1.000000)
G00 X-41.9100 Y58.4200 
G01 Z-1.000000
G01 Z1.000000
(G00 Z1.000000)
G00 X-44.4500 Y76.2000 
G01 Z-1.000000
G01 Z1.000000
(G00 Z1.000000)
G00 X-44.4500 Y78.7400 
G01 Z-1.000000
G01 Z1.000000
(G00 Z1.000000)
G00 X-46.9900 Y58.4200 
G01 Z-1.000000
G01 Z1.000000
(G00 Z1.000000)
G00 X-53.3400 Y43.1800 
G01 Z-1.000000
G01 Z1.000000
(G00 Z1.000000)
G00 X-53.3400 Y46.9900 
G01 Z-1.000000
G01 Z1.000000
(G00 Z1.000000)
G00 X-53.3400 Y50.8000 
G01 Z-1.000000
G01 Z1.000000
(G00 Z1.000000)
G00 X-53.3400 Y54.6100 
G01 Z-1.000000
G01 Z1.000000
(G00 Z1.000000)
G00 X-63.5000 Y43.1800 
G01 Z-1.000000
G01 Z1.000000
(G00 Z1.000000)
G00 X-63.5000 Y46.9900 
G01 Z-1.000000
G01 Z1.000000
(G00 Z1.000000)
G00 X-63.5000 Y50.8000 
G01 Z-1.000000
G01 Z1.000000
(G00 Z1.000000)
G00 X-63.5000 Y54.6100 
G01 Z-1.000000
G01 Z1.000000
(G00 Z1.000000)
G00 X-63.5000 Y16.5100 
G01 Z-1.000000
G01 Z1.000000
(G00 Z1.000000)
G00 X-63.5000 Y19.0500 
G01 Z-1.000000
G01 Z1.000000
(G00 Z1.000000)
G00 X-74.2950 Y54.6100 
G01 Z-1.000000
G01 Z1.000000
(G00 Z1.000000)
G00 X-76.8350 Y54.6100 
G01 Z-1.000000
G01 Z1.000000
(G00 Z1.000000)
G00 X-11.4300 Y54.6100 
G01 Z-1.000000
G01 Z1.000000
(G00 Z1.000000)
G00 X-13.9700 Y54.6100 
G01 Z-1.000000
G01 Z1.000000
(G00 Z1.000000)
G00 X-24.1300 Y25.4000 
G01 Z-1.000000
G01 Z1.000000
(G00 Z1.000000)
G00 X-24.7650 Y16.5100 
G01 Z-1.000000
G01 Z1.000000
(G00 Z1.000000)
G00 X-24.7650 Y19.0500 
G01 Z-1.000000
G01 Z1.000000
M05
G00 Z25.4000 
M06 T03  ; 1.0160 
G01 Z0.0000 F254.00 
M06 T03  ; 1.0160 
G00 Z1.0000 
M03
G04 P3.000000
G00 Z1.000000
G00 X-41.9100 Y33.0200 
G01 Z-1.0000 F254.00 
G01 Z1.000000
(R1.0000  P1.000000)
(G00 Z1.000000)
G00 X-41.9100 Y30.4800 
G01 Z-1.000000
G01 Z1.000000
(G00 Z1.000000)
G00 X-42.1894 Y62.7888 
G01 Z-1.000000
G01 Z1.000000
(G00 Z1.000000)
G00 X-42.1894 Y69.2912 
G01 Z-1.000000
G01 Z1.000000
(G00 Z1.000000)
G00 X-44.4500 Y33.0200 
G01 Z-1.000000
G01 Z1.000000
(G00 Z1.000000)
G00 X-44.4500 Y30.4800 
G01 Z-1.000000
G01 Z1.000000
(G00 Z1.000000)
G00 X-46.7106 Y62.7888 
G01 Z-1.000000
G01 Z1.000000
(G00 Z1.000000)
G00 X-46.7106 Y69.2912 
G01 Z-1.000000
G01 Z1.000000
(G00 Z1.000000)
G00 X-46.9900 Y33.0200 
G01 Z-1.000000
G01 Z1.000000
(G00 Z1.000000)
G00 X-46.9900 Y30.4800 
G01 Z-1.000000
G01 Z1.000000
M05
G00 Z25.4000 
M06 T04  ; 1.1176 
G01 Z0.0000 F254.00 
M06 T04  ; 1.1176 
G00 Z1.0000 
M03
G04 P3.000000
G00 Z1.000000
G00 X-40.6400 Y39.3700 
G01 Z-1.0000 F254.00 
G01 Z1.000000
(R1.0000  P1.000000)
(G00 Z1.000000)
G00 X-40.6400 Y41.9100 
G01 Z-1.000000
G01 Z1.000000
(G00 Z1.000000)
G00 X-40.6400 Y44.4500 
G01 Z-1.000000
G01 Z1.000000
(G00 Z1.000000)
G00 X-40.6400 Y46.9900 
G01 Z-1.000000
G01 Z1.000000
(G00 Z1.000000)
G00 X-40.6400 Y49.5300 
G01 Z-1.000000
G01 Z1.000000
(G00 Z1.000000)
G00 X-40.6400 Y52.0700 
G01 Z-1.000000
G01 Z1.000000
(G00 Z1.000000)
G00 X-40.6400 Y54.6100 
G01 Z-1.000000
G01 Z1.000000
(G00 Z1.000000)
G00 X-48.2600 Y39.3700 
G01 Z-1.000000
G01 Z1.000000
(G00 Z1.000000)
G00 X-48.2600 Y41.9100 
G01 Z-1.000000
G01 Z1.000000
(G00 Z1.000000)
G00 X-48.2600 Y44.4500 
G01 Z-1.000000
G01 Z1.000000
(G00 Z1.000000)
G00 X-48.2600 Y46.9900 
G01 Z-1.000000
G01 Z1.000000
(G00 Z1.000000)
G00 X-48.2600 Y49.5300 
G01 Z-1.000000
G01 Z1.000000
(G00 Z1.000000)
G00 X-48.2600 Y52.0700 
G01 Z-1.000000
G01 Z1.000000
(G00 Z1.000000)
G00 X-48.2600 Y54.6100 
G01 Z-1.000000
G01 Z1.000000
M05
G00 Z25.4000 
M06 T05  ; 2.5400 
G01 Z0.0000 F254.00 
M06 T05  ; 2.5400 
G00 Z1.0000 
M03
G04 P3.000000
G00 Z1.000000
G00 X-44.4500 Y83.8200 
G01 Z-1.0000 F254.00 
G01 Z1.000000
(R1.0000  P1.000000)
T01 
G00 Z10.0000 
M05
M02
