(.../pcb-gcode-3_6_0_4/pcb-gcode.ulp)
(Copyright 2005 - 2012 by John Johnson)
(See readme.txt for licensing terms.)
(This file generated from the board:)
(.../Education/2020/AtmelPcb/hviezda.brd)
(Current profile is .../pcb-gcode-3_6_0_4/profiles/generic.pp  )
(This file generated 11/6/20 3:29 PM)
(Settings from pcb-machine.h)
(  Tool Size)
(0.2500 )
(Z Axis Settings)
(  High     Up        Down     Drill)
(10.0000 	1.0000 	0.0000 	-1.0000 )
(spindle on time = 3.0000)
(milling depth = -0.2500)
(text depth = -0.1200)
(tool change at 12.7000 15.2400 25.4000 )
(feed rate xy = F508.00 )
(feed rate z  = F254.00 )
(Settings from pcb-defaults.h)
(isolate min = 0.0200)
(isolate max = 0.5000)
(isolate step = 0.2000)
(Generated bottom outlines, bottom drill, )
(Unit of measure: mm)
(Metric Mode)
G21
(Absolute Coordinates)
G90
G00 X0.0000 Y0.0000 
M03
G04 P3.000000
G00 Z1.0000 
G00 X-23.0755 Y50.0586 
G01 Z0.0000 F254.00 
G01 X-23.0187 Y50.1074 F508.00 
G01 X-22.9713 Y50.1654 
G01 X-22.9349 Y50.2308 
G01 X-22.9269 Y50.2511 
G01 X-22.9244 Y50.2644 
G01 X-22.9152 Y50.2831 
G01 X-22.9085 Y50.3027 
G01 X-22.8998 Y50.3157 
G01 X-22.8581 Y50.4063 
G01 X-22.7747 Y50.6260 
G01 X-22.7115 Y50.8524 
G01 X-22.6691 Y51.0835 
G01 X-22.6478 Y51.3175 
G01 X-22.6452 Y51.4350 
G01 X-22.6478 Y51.5525 
G01 X-22.6681 Y51.7756 
G01 X-23.7770 Y50.3895 
G01 X-23.7431 Y50.3157 
G01 X-23.7344 Y50.3027 
G01 X-23.7276 Y50.2830 
G01 X-23.7185 Y50.2644 
G01 X-23.7159 Y50.2511 
G01 X-23.7080 Y50.2308 
G01 X-23.6716 Y50.1654 
G01 X-23.6242 Y50.1074 
G01 X-23.5674 Y50.0586 
G01 X-23.5028 Y50.0206 
G01 X-23.4326 Y49.9947 
G01 X-23.3589 Y49.9815 
G01 X-23.3214 Y49.9798 
G01 X-23.2840 Y49.9815 
G01 X-23.2103 Y49.9947 
G01 X-23.1401 Y50.0206 
G01 X-23.0755 Y50.0586 
G00 Z1.0000 
G00 X-22.8998 Y52.5543 
G01 Z0.0000 F254.00 
G01 X-22.9085 Y52.5673 F508.00 
G01 X-22.9152 Y52.5869 
G01 X-22.9244 Y52.6056 
G01 X-22.9269 Y52.6189 
G01 X-22.9349 Y52.6392 
G01 X-22.9713 Y52.7046 
G01 X-23.0187 Y52.7626 
G01 X-23.0755 Y52.8114 
G01 X-23.1401 Y52.8494 
G01 X-23.2103 Y52.8753 
G01 X-23.2840 Y52.8885 
G01 X-23.3214 Y52.8902 
G01 X-23.3589 Y52.8885 
G01 X-23.4326 Y52.8753 
G01 X-23.5028 Y52.8494 
G01 X-23.5674 Y52.8114 
G01 X-23.6242 Y52.7626 
G01 X-23.6716 Y52.7046 
G01 X-23.7080 Y52.6392 
G01 X-23.7159 Y52.6189 
G01 X-23.7185 Y52.6056 
G01 X-23.7276 Y52.5870 
G01 X-23.7344 Y52.5673 
G01 X-23.7431 Y52.5543 
G01 X-23.7848 Y52.4637 
G01 X-23.8682 Y52.2440 
G01 X-23.9313 Y52.0176 
G01 X-23.9737 Y51.7865 
G01 X-23.9950 Y51.5525 
G01 X-23.9977 Y51.4350 
G01 X-23.9950 Y51.3175 
G01 X-23.9747 Y51.0944 
G01 X-22.8659 Y52.4805 
G01 X-22.8998 Y52.5543 
G00 Z1.0000 
G00 X-28.6148 Y52.5543 
G01 Z0.0000 F254.00 
G01 X-28.6235 Y52.5673 F508.00 
G01 X-28.6302 Y52.5869 
G01 X-28.6394 Y52.6056 
G01 X-28.6419 Y52.6189 
G01 X-28.6499 Y52.6392 
G01 X-28.6863 Y52.7046 
G01 X-28.7337 Y52.7626 
G01 X-28.7905 Y52.8114 
G01 X-28.8551 Y52.8494 
G01 X-28.9253 Y52.8753 
G01 X-28.9990 Y52.8885 
G01 X-29.0364 Y52.8902 
G01 X-29.0739 Y52.8885 
G01 X-29.1476 Y52.8753 
G01 X-29.2178 Y52.8494 
G01 X-29.2824 Y52.8114 
G01 X-29.3392 Y52.7626 
G01 X-29.3866 Y52.7046 
G01 X-29.4230 Y52.6392 
G01 X-29.4309 Y52.6189 
G01 X-29.4335 Y52.6056 
G01 X-29.4426 Y52.5870 
G01 X-29.4494 Y52.5673 
G01 X-29.4581 Y52.5543 
G01 X-29.4998 Y52.4637 
G01 X-29.5832 Y52.2440 
G01 X-29.6463 Y52.0176 
G01 X-29.6887 Y51.7865 
G01 X-29.7100 Y51.5525 
G01 X-29.7127 Y51.4350 
G01 X-29.7100 Y51.3175 
G01 X-29.6897 Y51.0944 
G01 X-28.5809 Y52.4805 
G01 X-28.6148 Y52.5543 
G00 Z1.0000 
G00 X-28.7905 Y50.0586 
G01 Z0.0000 F254.00 
G01 X-28.7337 Y50.1074 F508.00 
G01 X-28.6863 Y50.1654 
G01 X-28.6499 Y50.2308 
G01 X-28.6419 Y50.2511 
G01 X-28.6394 Y50.2644 
G01 X-28.6302 Y50.2831 
G01 X-28.6235 Y50.3027 
G01 X-28.6148 Y50.3157 
G01 X-28.5731 Y50.4063 
G01 X-28.4897 Y50.6260 
G01 X-28.4265 Y50.8524 
G01 X-28.3841 Y51.0835 
G01 X-28.3628 Y51.3175 
G01 X-28.3602 Y51.4350 
G01 X-28.3628 Y51.5525 
G01 X-28.3831 Y51.7756 
G01 X-29.4920 Y50.3895 
G01 X-29.4581 Y50.3157 
G01 X-29.4494 Y50.3027 
G01 X-29.4426 Y50.2830 
G01 X-29.4335 Y50.2644 
G01 X-29.4309 Y50.2511 
G01 X-29.4230 Y50.2308 
G01 X-29.3866 Y50.1654 
G01 X-29.3392 Y50.1074 
G01 X-29.2824 Y50.0586 
G01 X-29.2178 Y50.0206 
G01 X-29.1476 Y49.9947 
G01 X-29.0739 Y49.9815 
G01 X-29.0364 Y49.9798 
G01 X-28.9990 Y49.9815 
G01 X-28.9253 Y49.9947 
G01 X-28.8551 Y50.0206 
G01 X-28.7905 Y50.0586 
G00 Z1.0000 
G00 X-45.2554 Y78.4064 
G01 Z0.0000 F254.00 
G01 X-45.2554 Y79.0736 F508.00 
G01 X-44.7836 Y79.5454 
G01 X-44.1164 Y79.5454 
G01 X-43.8624 Y79.2914 
G01 X-39.6867 Y79.2914 
G01 X-39.9422 Y79.8081 
G01 X-44.4495 Y88.9249 
G01 X-57.3824 Y62.7168 
G01 X-57.4012 Y62.6697 
G01 X-57.4145 Y62.6519 
G01 X-57.4243 Y62.6321 
G01 X-57.4577 Y62.5940 
G01 X-57.4880 Y62.5533 
G01 X-57.5054 Y62.5396 
G01 X-57.5200 Y62.5230 
G01 X-57.5622 Y62.4948 
G01 X-57.6020 Y62.4634 
G01 X-57.6223 Y62.4546 
G01 X-57.6407 Y62.4423 
G01 X-57.6888 Y62.4260 
G01 X-57.7354 Y62.4060 
G01 X-57.7573 Y62.4028 
G01 X-57.7782 Y62.3957 
G01 X-57.8288 Y62.3924 
G01 X-86.7252 Y58.1875 
G01 X-84.1735 Y55.6985 
G01 X-84.1296 Y55.6731 
G01 X-84.0269 Y55.5704 
G01 X-84.0071 Y55.5361 
G01 X-83.6089 Y55.1477 
G01 X-77.4363 Y55.1477 
G01 X-77.1686 Y55.4154 
G01 X-76.5014 Y55.4154 
G01 X-76.0296 Y54.9436 
G01 X-76.0296 Y54.2764 
G01 X-76.5014 Y53.8046 
G01 X-77.1686 Y53.8046 
G01 X-77.4089 Y54.0449 
G01 X-82.4784 Y54.0449 
G01 X-65.7975 Y37.7733 
G01 X-65.7584 Y37.7407 
G01 X-65.7457 Y37.7228 
G01 X-65.7300 Y37.7074 
G01 X-65.7040 Y37.6637 
G01 X-65.6747 Y37.6221 
G01 X-65.6671 Y37.6015 
G01 X-65.6559 Y37.5826 
G01 X-65.6421 Y37.5336 
G01 X-65.6245 Y37.4859 
G01 X-65.6225 Y37.4640 
G01 X-65.6165 Y37.4428 
G01 X-65.6159 Y37.3920 
G01 X-65.6113 Y37.3413 
G01 X-65.6150 Y37.3196 
G01 X-65.6147 Y37.2977 
G01 X-65.6273 Y37.2484 
G01 X-70.5898 Y8.4515 
G01 X-64.7410 Y11.5307 
G01 X-64.0514 Y11.8937 
G01 X-64.0514 Y15.9224 
G01 X-64.3054 Y16.1764 
G01 X-64.3054 Y16.8436 
G01 X-63.8336 Y17.3154 
G01 X-63.1664 Y17.3154 
G01 X-62.6946 Y16.8436 
G01 X-62.6946 Y16.1764 
G01 X-62.9486 Y15.9224 
G01 X-62.9486 Y12.4743 
G01 X-44.6426 Y22.1117 
G01 X-44.5010 Y22.1438 
G01 X-44.4373 Y22.1413 
G01 X-44.3736 Y22.1438 
G01 X-44.2320 Y22.1117 
G01 X-25.3164 Y12.1533 
G01 X-25.3164 Y15.9224 
G01 X-25.5704 Y16.1764 
G01 X-25.5704 Y16.8436 
G01 X-25.0986 Y17.3154 
G01 X-24.4314 Y17.3154 
G01 X-23.9596 Y16.8436 
G01 X-23.9596 Y16.1764 
G01 X-24.2136 Y15.9224 
G01 X-24.2136 Y11.6666 
G01 X-24.0154 Y11.4684 
G01 X-18.2849 Y8.4515 
G01 X-20.6728 Y22.3086 
G01 X-35.6326 Y22.3086 
G01 X-35.7728 Y22.3462 
G01 X-35.8986 Y22.4188 
G01 X-36.0012 Y22.5214 
G01 X-37.2712 Y23.7914 
G01 X-37.3438 Y23.9172 
G01 X-37.3814 Y24.0574 
G01 X-37.3814 Y26.7426 
G01 X-37.3438 Y26.8828 
G01 X-37.2712 Y27.0086 
G01 X-37.1686 Y27.1112 
G01 X-36.1114 Y28.1684 
G01 X-36.1114 Y39.1416 
G01 X-38.3284 Y41.3586 
G01 X-39.8259 Y41.3586 
G01 X-39.8763 Y41.2832 
G01 X-40.0132 Y41.1463 
G01 X-40.1743 Y41.0387 
G01 X-40.3532 Y40.9646 
G01 X-40.5432 Y40.9268 
G01 X-40.7368 Y40.9268 
G01 X-40.9268 Y40.9646 
G01 X-41.1057 Y41.0387 
G01 X-41.2668 Y41.1463 
G01 X-41.4037 Y41.2832 
G01 X-41.4540 Y41.3586 
G01 X-41.6816 Y41.3586 
G01 X-41.9936 Y41.0466 
G01 X-41.9936 Y37.6934 
G01 X-39.0314 Y34.7312 
G01 X-38.9288 Y34.6286 
G01 X-38.8562 Y34.5028 
G01 X-38.8186 Y34.3626 
G01 X-38.8186 Y31.6774 
G01 X-38.8562 Y31.5372 
G01 X-38.9288 Y31.4114 
G01 X-40.1988 Y30.1414 
G01 X-40.3014 Y30.0388 
G01 X-40.4272 Y29.9662 
G01 X-40.5674 Y29.9286 
G01 X-41.1787 Y29.9286 
G01 X-41.5343 Y29.5730 
G01 X-42.2857 Y29.5730 
G01 X-42.8170 Y30.1043 
G01 X-42.8170 Y30.8557 
G01 X-42.2857 Y31.3870 
G01 X-41.5343 Y31.3870 
G01 X-41.1787 Y31.0314 
G01 X-40.8684 Y31.0314 
G01 X-39.9214 Y31.9784 
G01 X-39.9214 Y34.0616 
G01 X-42.8836 Y37.0238 
G01 X-42.9862 Y37.1264 
G01 X-43.0588 Y37.2522 
G01 X-43.0964 Y37.3924 
G01 X-43.0964 Y41.3476 
G01 X-43.0588 Y41.4878 
G01 X-42.9862 Y41.6136 
G01 X-42.3512 Y42.2486 
G01 X-42.2486 Y42.3512 
G01 X-42.1228 Y42.4238 
G01 X-41.9826 Y42.4614 
G01 X-41.4540 Y42.4614 
G01 X-41.4037 Y42.5368 
G01 X-41.2668 Y42.6737 
G01 X-41.1057 Y42.7813 
G01 X-40.9268 Y42.8554 
G01 X-40.7368 Y42.8932 
G01 X-40.5432 Y42.8932 
G01 X-40.3532 Y42.8554 
G01 X-40.1743 Y42.7813 
G01 X-40.0132 Y42.6737 
G01 X-39.8763 Y42.5368 
G01 X-39.8259 Y42.4614 
G01 X-38.0274 Y42.4614 
G01 X-37.8872 Y42.4238 
G01 X-37.7614 Y42.3512 
G01 X-35.2214 Y39.8112 
G01 X-35.1188 Y39.7086 
G01 X-35.0462 Y39.5828 
G01 X-35.0086 Y39.4426 
G01 X-35.0086 Y27.8674 
G01 X-35.0462 Y27.7272 
G01 X-35.1188 Y27.6014 
G01 X-35.2214 Y27.4988 
G01 X-36.2786 Y26.4416 
G01 X-36.2786 Y24.3584 
G01 X-35.3316 Y23.4114 
G01 X-20.8628 Y23.4114 
G01 X-21.2289 Y25.5359 
G01 X-21.4049 Y26.5567 
G01 X-22.2581 Y31.5081 
G01 X-22.2749 Y31.5372 
G01 X-22.3125 Y31.6774 
G01 X-22.3125 Y31.8226 
G01 X-23.1784 Y36.8488 
G01 X-23.2473 Y37.2484 
G01 X-23.2599 Y37.2977 
G01 X-23.2596 Y37.3196 
G01 X-23.2633 Y37.3413 
G01 X-23.2587 Y37.3920 
G01 X-23.2581 Y37.4428 
G01 X-23.2521 Y37.4640 
G01 X-23.2501 Y37.4859 
G01 X-23.2325 Y37.5336 
G01 X-23.2187 Y37.5826 
G01 X-23.2075 Y37.6015 
G01 X-23.1999 Y37.6221 
G01 X-23.1706 Y37.6637 
G01 X-23.1446 Y37.7074 
G01 X-23.1288 Y37.7228 
G01 X-23.1162 Y37.7407 
G01 X-23.0771 Y37.7733 
G01 X-22.7506 Y38.0918 
G01 X-6.3822 Y54.0586 
G01 X-10.8424 Y54.0586 
G01 X-11.0964 Y53.8046 
G01 X-11.7636 Y53.8046 
G01 X-12.2354 Y54.2764 
G01 X-12.2354 Y54.9436 
G01 X-11.7636 Y55.4154 
G01 X-11.0964 Y55.4154 
G01 X-10.8424 Y55.1614 
G01 X-5.2516 Y55.1614 
G01 X-2.1494 Y58.1875 
G01 X-27.3505 Y61.8547 
G01 X-27.3505 Y56.6298 
G01 X-27.2984 Y56.5519 
G01 X-27.2438 Y56.4202 
G01 X-27.2160 Y56.2803 
G01 X-27.2160 Y54.9797 
G01 X-27.2438 Y54.8398 
G01 X-27.2984 Y54.7081 
G01 X-27.3776 Y54.5895 
G01 X-27.4785 Y54.4886 
G01 X-27.5971 Y54.4094 
G01 X-27.7288 Y54.3548 
G01 X-27.8687 Y54.3270 
G01 X-28.0113 Y54.3270 
G01 X-28.1512 Y54.3548 
G01 X-28.2829 Y54.4094 
G01 X-28.4015 Y54.4886 
G01 X-28.5024 Y54.5895 
G01 X-28.5816 Y54.7081 
G01 X-28.6362 Y54.8398 
G01 X-28.6640 Y54.9797 
G01 X-28.6640 Y56.2803 
G01 X-28.6362 Y56.4202 
G01 X-28.5816 Y56.5519 
G01 X-28.5024 Y56.6705 
G01 X-28.4533 Y56.7196 
G01 X-28.4533 Y62.0152 
G01 X-28.9984 Y62.0945 
G01 X-29.1374 Y62.0572 
G01 X-29.2826 Y62.0572 
G01 X-29.4228 Y62.0948 
G01 X-29.5486 Y62.1674 
G01 X-29.5569 Y62.1758 
G01 X-31.0455 Y62.3924 
G01 X-31.0960 Y62.3956 
G01 X-31.1171 Y62.4028 
G01 X-31.1392 Y62.4060 
G01 X-31.1856 Y62.4260 
G01 X-31.2335 Y62.4421 
G01 X-31.2521 Y62.4545 
G01 X-31.2726 Y62.4634 
G01 X-31.3123 Y62.4947 
G01 X-31.3543 Y62.5227 
G01 X-31.3690 Y62.5395 
G01 X-31.3866 Y62.5533 
G01 X-31.4168 Y62.5938 
G01 X-31.4501 Y62.6317 
G01 X-31.4600 Y62.6518 
G01 X-31.4734 Y62.6697 
G01 X-31.4921 Y62.7166 
G01 X-33.6493 Y67.0799 
G01 X-36.2319 Y72.3036 
G01 X-45.0266 Y72.3036 
G01 X-46.1592 Y71.1710 
G01 X-46.1592 Y70.7756 
G01 X-46.1324 Y70.7577 
G01 X-46.0061 Y70.6314 
G01 X-45.9068 Y70.4828 
G01 X-45.8385 Y70.3178 
G01 X-45.8036 Y70.1425 
G01 X-45.8036 Y68.4399 
G01 X-45.8385 Y68.2646 
G01 X-45.9068 Y68.0996 
G01 X-46.0061 Y67.9510 
G01 X-46.1324 Y67.8247 
G01 X-46.2810 Y67.7254 
G01 X-46.4460 Y67.6571 
G01 X-46.6213 Y67.6222 
G01 X-46.7999 Y67.6222 
G01 X-46.9752 Y67.6571 
G01 X-47.1402 Y67.7254 
G01 X-47.2888 Y67.8247 
G01 X-47.4151 Y67.9510 
G01 X-47.5144 Y68.0996 
G01 X-47.5827 Y68.2646 
G01 X-47.6176 Y68.4399 
G01 X-47.6176 Y70.1425 
G01 X-47.5827 Y70.3178 
G01 X-47.5144 Y70.4828 
G01 X-47.4151 Y70.6314 
G01 X-47.2888 Y70.7577 
G01 X-47.2620 Y70.7756 
G01 X-47.2620 Y71.4720 
G01 X-47.2244 Y71.6122 
G01 X-47.1518 Y71.7380 
G01 X-45.5935 Y73.2963 
G01 X-45.4678 Y73.3688 
G01 X-45.3276 Y73.4064 
G01 X-36.7771 Y73.4064 
G01 X-36.9204 Y73.6963 
G01 X-39.1415 Y78.1886 
G01 X-43.8624 Y78.1886 
G01 X-44.1164 Y77.9346 
G01 X-44.7836 Y77.9346 
G01 X-45.2554 Y78.4064 
G00 Z1.0000 
G00 X-25.4009 Y43.2012 
G01 Z0.0000 F254.00 
G01 X-25.4066 Y43.2183 F508.00 
G01 X-25.4147 Y43.2344 
G01 X-25.4190 Y43.2553 
G01 X-26.5941 Y46.7807 
G01 X-26.5988 Y46.8589 
G01 X-26.5831 Y46.9356 
G01 X-26.5481 Y47.0056 
G01 X-26.4961 Y47.0642 
G01 X-26.4308 Y47.1074 
G01 X-26.3565 Y47.1321 
G01 X-26.2783 Y47.1368 
G01 X-26.2016 Y47.1211 
G01 X-26.1316 Y47.0861 
G01 X-26.0730 Y47.0341 
G01 X-26.0298 Y46.9688 
G01 X-25.1312 Y44.2728 
G01 X-24.2325 Y46.9688 
G01 X-24.1894 Y47.0341 
G01 X-24.1308 Y47.0861 
G01 X-24.0608 Y47.1211 
G01 X-23.9840 Y47.1368 
G01 X-23.9059 Y47.1321 
G01 X-23.8316 Y47.1074 
G01 X-23.7662 Y47.0642 
G01 X-23.7143 Y47.0056 
G01 X-23.6793 Y46.9356 
G01 X-23.6636 Y46.8589 
G01 X-23.6683 Y46.7807 
G01 X-24.8434 Y43.2553 
G01 X-24.8477 Y43.2344 
G01 X-24.8557 Y43.2183 
G01 X-24.8614 Y43.2012 
G01 X-24.8732 Y43.1834 
G01 X-24.8827 Y43.1644 
G01 X-24.8946 Y43.1509 
G01 X-24.9046 Y43.1359 
G01 X-24.9205 Y43.1217 
G01 X-24.9346 Y43.1058 
G01 X-24.9497 Y43.0959 
G01 X-24.9632 Y43.0839 
G01 X-24.9822 Y43.0744 
G01 X-25.0000 Y43.0626 
G01 X-25.0171 Y43.0570 
G01 X-25.0332 Y43.0489 
G01 X-25.0541 Y43.0446 
G01 X-25.0743 Y43.0379 
G01 X-25.0923 Y43.0368 
G01 X-25.1099 Y43.0332 
G01 X-25.1312 Y43.0345 
G01 X-25.1525 Y43.0332 
G01 X-25.1701 Y43.0368 
G01 X-25.1881 Y43.0379 
G01 X-25.2083 Y43.0446 
G01 X-25.2292 Y43.0489 
G01 X-25.2453 Y43.0570 
G01 X-25.2624 Y43.0626 
G01 X-25.2801 Y43.0744 
G01 X-25.2992 Y43.0839 
G01 X-25.3127 Y43.0959 
G01 X-25.3277 Y43.1058 
G01 X-25.3419 Y43.1217 
G01 X-25.3578 Y43.1359 
G01 X-25.3677 Y43.1509 
G01 X-25.3797 Y43.1644 
G01 X-25.3892 Y43.1834 
G01 X-25.4009 Y43.2012 
G00 Z1.0000 
G00 X-27.7336 Y44.9823 
G01 Z0.0000 F254.00 
G01 X-27.8093 Y45.0026 F508.00 
G01 X-27.8771 Y45.0418 
G01 X-27.9324 Y45.0971 
G01 X-27.9716 Y45.1649 
G01 X-27.9919 Y45.2406 
G01 X-27.9919 Y45.3189 
G01 X-27.9716 Y45.3945 
G01 X-27.9324 Y45.4623 
G01 X-27.8771 Y45.5177 
G01 X-27.8093 Y45.5569 
G01 X-27.7336 Y45.5771 
G01 X-27.0711 Y45.5771 
G01 X-26.9955 Y45.5569 
G01 X-26.9277 Y45.5177 
G01 X-26.8723 Y45.4623 
G01 X-26.8331 Y45.3945 
G01 X-26.8129 Y45.3189 
G01 X-26.8129 Y43.2932 
G01 X-26.8331 Y43.2176 
G01 X-26.8723 Y43.1498 
G01 X-26.9277 Y43.0944 
G01 X-26.9955 Y43.0553 
G01 X-27.0711 Y43.0350 
G01 X-28.3728 Y43.0350 
G01 X-28.5583 Y43.0677 
G01 X-28.7353 Y43.1321 
G01 X-28.8984 Y43.2263 
G01 X-29.0427 Y43.3473 
G01 X-29.1637 Y43.4916 
G01 X-29.2579 Y43.6547 
G01 X-29.3223 Y43.8317 
G01 X-29.3550 Y44.0172 
G01 X-29.3550 Y46.1528 
G01 X-29.3223 Y46.3383 
G01 X-29.2579 Y46.5153 
G01 X-29.1637 Y46.6784 
G01 X-29.0427 Y46.8227 
G01 X-28.8984 Y46.9437 
G01 X-28.7353 Y47.0379 
G01 X-28.5583 Y47.1023 
G01 X-28.3728 Y47.1350 
G01 X-28.3178 Y47.1350 
G01 X-27.0711 Y47.1350 
G01 X-26.9955 Y47.1147 
G01 X-26.9277 Y47.0756 
G01 X-26.8723 Y47.0202 
G01 X-26.8331 Y46.9524 
G01 X-26.8129 Y46.8768 
G01 X-26.8129 Y46.7984 
G01 X-26.8331 Y46.7228 
G01 X-26.8723 Y46.6550 
G01 X-26.9277 Y46.5996 
G01 X-26.9955 Y46.5605 
G01 X-27.0711 Y46.5402 
G01 X-28.2395 Y46.5402 
G01 X-28.2787 Y46.5402 
G01 X-28.3206 Y46.5384 
G01 X-28.4033 Y46.5238 
G01 X-28.4822 Y46.4951 
G01 X-28.5549 Y46.4531 
G01 X-28.6192 Y46.3992 
G01 X-28.6731 Y46.3349 
G01 X-28.7151 Y46.2622 
G01 X-28.7438 Y46.1833 
G01 X-28.7584 Y46.1006 
G01 X-28.7602 Y46.0587 
G01 X-28.7602 Y44.1113 
G01 X-28.7584 Y44.0694 
G01 X-28.7438 Y43.9867 
G01 X-28.7151 Y43.9078 
G01 X-28.6731 Y43.8351 
G01 X-28.6192 Y43.7708 
G01 X-28.5549 Y43.7169 
G01 X-28.4822 Y43.6749 
G01 X-28.4033 Y43.6462 
G01 X-28.3206 Y43.6316 
G01 X-28.2787 Y43.6298 
G01 X-27.4077 Y43.6298 
G01 X-27.4077 Y44.9823 
G01 X-27.7336 Y44.9823 
G00 Z1.0000 
G00 X-27.4476 Y52.4630 
G01 Z0.0000 F254.00 
G01 X-27.4355 Y52.5003 F508.00 
G01 X-27.4010 Y52.6069 
G01 X-27.2994 Y52.8068 
G01 X-27.1677 Y52.9882 
G01 X-27.0093 Y53.1469 
G01 X-26.8280 Y53.2787 
G01 X-26.6283 Y53.3806 
G01 X-26.4151 Y53.4499 
G01 X-26.1937 Y53.4850 
G01 X-25.9789 Y53.4850 
G01 X-25.7766 Y53.4493 
G01 X-25.5836 Y53.3791 
G01 X-25.4058 Y53.2764 
G01 X-25.2485 Y53.1444 
G01 X-25.1165 Y52.9871 
G01 X-25.0138 Y52.8092 
G01 X-24.9435 Y52.6162 
G01 X-24.9079 Y52.4140 
G01 X-24.9079 Y52.2108 
G01 X-24.9403 Y52.0124 
G01 X-25.0043 Y51.8218 
G01 X-25.0982 Y51.6440 
G01 X-25.2195 Y51.4837 
G01 X-25.2809 Y51.4252 
G01 X-26.5095 Y49.9798 
G01 X-25.1661 Y49.9798 
G01 X-25.0905 Y49.9595 
G01 X-25.0227 Y49.9204 
G01 X-24.9673 Y49.8650 
G01 X-24.9281 Y49.7972 
G01 X-24.9079 Y49.7216 
G01 X-24.9079 Y49.6432 
G01 X-24.9281 Y49.5676 
G01 X-24.9673 Y49.4998 
G01 X-25.0227 Y49.4444 
G01 X-25.0905 Y49.4053 
G01 X-25.1661 Y49.3850 
G01 X-27.1406 Y49.3850 
G01 X-27.1676 Y49.3828 
G01 X-27.1796 Y49.3850 
G01 X-27.1918 Y49.3850 
G01 X-27.2180 Y49.3920 
G01 X-27.2446 Y49.3969 
G01 X-27.2556 Y49.4021 
G01 X-27.2674 Y49.4053 
G01 X-27.2909 Y49.4188 
G01 X-27.3154 Y49.4304 
G01 X-27.3246 Y49.4383 
G01 X-27.3352 Y49.4444 
G01 X-27.3544 Y49.4636 
G01 X-27.3750 Y49.4812 
G01 X-27.3820 Y49.4912 
G01 X-27.3906 Y49.4998 
G01 X-27.4041 Y49.5233 
G01 X-27.4195 Y49.5456 
G01 X-27.4236 Y49.5571 
G01 X-27.4297 Y49.5676 
G01 X-27.4367 Y49.5938 
G01 X-27.4459 Y49.6193 
G01 X-27.4468 Y49.6315 
G01 X-27.4500 Y49.6432 
G01 X-27.4500 Y49.6704 
G01 X-27.4522 Y49.6974 
G01 X-27.4500 Y49.7094 
G01 X-27.4500 Y49.7216 
G01 X-27.4430 Y49.7478 
G01 X-27.4381 Y49.7744 
G01 X-27.4329 Y49.7854 
G01 X-27.4297 Y49.7972 
G01 X-27.4162 Y49.8207 
G01 X-27.4046 Y49.8452 
G01 X-27.3967 Y49.8544 
G01 X-27.3906 Y49.8650 
G01 X-27.3714 Y49.8842 
G01 X-25.7391 Y51.8046 
G01 X-25.7308 Y51.8181 
G01 X-25.7138 Y51.8343 
G01 X-25.6986 Y51.8522 
G01 X-25.6896 Y51.8584 
G01 X-25.6662 Y51.8825 
G01 X-25.6034 Y51.9656 
G01 X-25.5547 Y52.0577 
G01 X-25.5216 Y52.1564 
G01 X-25.5048 Y52.2592 
G01 X-25.5027 Y52.3113 
G01 X-25.5049 Y52.3618 
G01 X-25.5224 Y52.4611 
G01 X-25.5569 Y52.5560 
G01 X-25.6074 Y52.6433 
G01 X-25.6722 Y52.7206 
G01 X-25.7495 Y52.7855 
G01 X-25.8369 Y52.8360 
G01 X-25.9317 Y52.8705 
G01 X-26.0311 Y52.8880 
G01 X-26.0816 Y52.8902 
G01 X-26.1466 Y52.8876 
G01 X-26.2751 Y52.8673 
G01 X-26.3988 Y52.8270 
G01 X-26.5147 Y52.7679 
G01 X-26.6199 Y52.6914 
G01 X-26.7118 Y52.5994 
G01 X-26.7882 Y52.4941 
G01 X-26.8472 Y52.3781 
G01 X-26.8697 Y52.3170 
G01 X-26.8817 Y52.2798 
G01 X-26.9243 Y52.2141 
G01 X-26.9825 Y52.1616 
G01 X-27.0522 Y52.1260 
G01 X-27.1288 Y52.1096 
G01 X-27.2070 Y52.1137 
G01 X-27.2815 Y52.1378 
G01 X-27.3472 Y52.1804 
G01 X-27.3996 Y52.2385 
G01 X-27.4353 Y52.3083 
G01 X-27.4516 Y52.3848 
G01 X-27.4476 Y52.4630 
G00 Z1.0000 
G00 X-30.0487 Y50.1689 
G01 Z0.0000 F254.00 
G01 X-30.0487 Y50.1689 F508.00 
G01 X-30.1514 Y50.4393 
G01 X-30.2291 Y50.7179 
G01 X-30.2813 Y51.0023 
G01 X-30.3075 Y51.2904 
G01 X-30.3075 Y51.5796 
G01 X-30.2813 Y51.8676 
G01 X-30.2291 Y52.1521 
G01 X-30.1514 Y52.4307 
G01 X-30.0487 Y52.7011 
G01 X-29.9934 Y52.8146 
G01 X-29.9700 Y52.8828 
G01 X-29.8821 Y53.0408 
G01 X-29.7677 Y53.1809 
G01 X-29.6304 Y53.2987 
G01 X-29.4745 Y53.3903 
G01 X-29.3049 Y53.4531 
G01 X-29.1269 Y53.4850 
G01 X-28.9460 Y53.4850 
G01 X-28.7680 Y53.4531 
G01 X-28.5984 Y53.3903 
G01 X-28.4425 Y53.2987 
G01 X-28.3052 Y53.1809 
G01 X-28.1908 Y53.0408 
G01 X-28.1029 Y52.8828 
G01 X-28.0795 Y52.8146 
G01 X-28.0242 Y52.7011 
G01 X-27.9215 Y52.4307 
G01 X-27.8438 Y52.1521 
G01 X-27.7916 Y51.8677 
G01 X-27.7654 Y51.5796 
G01 X-27.7654 Y51.2904 
G01 X-27.7916 Y51.0023 
G01 X-27.8438 Y50.7179 
G01 X-27.9215 Y50.4393 
G01 X-28.0242 Y50.1689 
G01 X-28.0795 Y50.0555 
G01 X-28.1029 Y49.9872 
G01 X-28.1908 Y49.8292 
G01 X-28.3052 Y49.6891 
G01 X-28.4425 Y49.5713 
G01 X-28.5984 Y49.4797 
G01 X-28.7680 Y49.4169 
G01 X-28.9460 Y49.3850 
G01 X-29.1269 Y49.3850 
G01 X-29.3049 Y49.4169 
G01 X-29.4745 Y49.4797 
G01 X-29.6304 Y49.5713 
G01 X-29.7677 Y49.6891 
G01 X-29.8821 Y49.8292 
G01 X-29.9700 Y49.9872 
G01 X-29.9934 Y50.0554 
G01 X-30.0487 Y50.1689 
G00 Z1.0000 
G00 X-33.1626 Y52.4630 
G01 Z0.0000 F254.00 
G01 X-33.1505 Y52.5003 F508.00 
G01 X-33.1160 Y52.6069 
G01 X-33.0144 Y52.8068 
G01 X-32.8827 Y52.9882 
G01 X-32.7243 Y53.1469 
G01 X-32.5430 Y53.2787 
G01 X-32.3433 Y53.3806 
G01 X-32.1301 Y53.4499 
G01 X-31.9087 Y53.4850 
G01 X-31.6939 Y53.4850 
G01 X-31.4916 Y53.4493 
G01 X-31.2986 Y53.3791 
G01 X-31.1208 Y53.2764 
G01 X-30.9635 Y53.1444 
G01 X-30.8315 Y52.9871 
G01 X-30.7288 Y52.8092 
G01 X-30.6585 Y52.6162 
G01 X-30.6229 Y52.4140 
G01 X-30.6229 Y52.2108 
G01 X-30.6553 Y52.0124 
G01 X-30.7193 Y51.8218 
G01 X-30.8132 Y51.6440 
G01 X-30.9345 Y51.4837 
G01 X-30.9959 Y51.4252 
G01 X-32.2245 Y49.9798 
G01 X-30.8811 Y49.9798 
G01 X-30.8055 Y49.9595 
G01 X-30.7377 Y49.9204 
G01 X-30.6823 Y49.8650 
G01 X-30.6431 Y49.7972 
G01 X-30.6229 Y49.7216 
G01 X-30.6229 Y49.6432 
G01 X-30.6431 Y49.5676 
G01 X-30.6823 Y49.4998 
G01 X-30.7377 Y49.4444 
G01 X-30.8055 Y49.4053 
G01 X-30.8811 Y49.3850 
G01 X-32.8556 Y49.3850 
G01 X-32.8826 Y49.3828 
G01 X-32.8946 Y49.3850 
G01 X-32.9068 Y49.3850 
G01 X-32.9330 Y49.3920 
G01 X-32.9596 Y49.3969 
G01 X-32.9706 Y49.4021 
G01 X-32.9824 Y49.4053 
G01 X-33.0059 Y49.4188 
G01 X-33.0304 Y49.4304 
G01 X-33.0396 Y49.4383 
G01 X-33.0502 Y49.4444 
G01 X-33.0694 Y49.4636 
G01 X-33.0900 Y49.4812 
G01 X-33.0970 Y49.4912 
G01 X-33.1056 Y49.4998 
G01 X-33.1191 Y49.5233 
G01 X-33.1345 Y49.5456 
G01 X-33.1386 Y49.5571 
G01 X-33.1447 Y49.5676 
G01 X-33.1518 Y49.5938 
G01 X-33.1609 Y49.6193 
G01 X-33.1618 Y49.6315 
G01 X-33.1650 Y49.6432 
G01 X-33.1650 Y49.6704 
G01 X-33.1672 Y49.6974 
G01 X-33.1650 Y49.7094 
G01 X-33.1650 Y49.7216 
G01 X-33.1580 Y49.7478 
G01 X-33.1531 Y49.7744 
G01 X-33.1479 Y49.7854 
G01 X-33.1447 Y49.7972 
G01 X-33.1312 Y49.8207 
G01 X-33.1196 Y49.8452 
G01 X-33.1117 Y49.8544 
G01 X-33.1056 Y49.8650 
G01 X-33.0864 Y49.8842 
G01 X-31.4541 Y51.8046 
G01 X-31.4458 Y51.8181 
G01 X-31.4288 Y51.8343 
G01 X-31.4136 Y51.8522 
G01 X-31.4046 Y51.8584 
G01 X-31.3812 Y51.8825 
G01 X-31.3184 Y51.9656 
G01 X-31.2697 Y52.0577 
G01 X-31.2366 Y52.1564 
G01 X-31.2198 Y52.2592 
G01 X-31.2177 Y52.3113 
G01 X-31.2199 Y52.3618 
G01 X-31.2374 Y52.4611 
G01 X-31.2719 Y52.5560 
G01 X-31.3224 Y52.6433 
G01 X-31.3872 Y52.7206 
G01 X-31.4645 Y52.7855 
G01 X-31.5519 Y52.8360 
G01 X-31.6467 Y52.8705 
G01 X-31.7461 Y52.8880 
G01 X-31.7966 Y52.8902 
G01 X-31.8616 Y52.8876 
G01 X-31.9901 Y52.8673 
G01 X-32.1138 Y52.8270 
G01 X-32.2297 Y52.7679 
G01 X-32.3349 Y52.6914 
G01 X-32.4268 Y52.5994 
G01 X-32.5032 Y52.4941 
G01 X-32.5622 Y52.3781 
G01 X-32.5847 Y52.3170 
G01 X-32.5967 Y52.2798 
G01 X-32.6393 Y52.2141 
G01 X-32.6975 Y52.1616 
G01 X-32.7672 Y52.1260 
G01 X-32.8438 Y52.1096 
G01 X-32.9220 Y52.1137 
G01 X-32.9965 Y52.1378 
G01 X-33.0622 Y52.1804 
G01 X-33.1146 Y52.2385 
G01 X-33.1503 Y52.3083 
G01 X-33.1666 Y52.3848 
G01 X-33.1626 Y52.4630 
G00 Z1.0000 
G00 X-24.3337 Y50.1689 
G01 Z0.0000 F254.00 
G01 X-24.3337 Y50.1689 F508.00 
G01 X-24.4364 Y50.4393 
G01 X-24.5141 Y50.7179 
G01 X-24.5663 Y51.0023 
G01 X-24.5925 Y51.2904 
G01 X-24.5925 Y51.5796 
G01 X-24.5663 Y51.8676 
G01 X-24.5141 Y52.1521 
G01 X-24.4364 Y52.4307 
G01 X-24.3337 Y52.7011 
G01 X-24.2784 Y52.8146 
G01 X-24.2550 Y52.8828 
G01 X-24.1671 Y53.0408 
G01 X-24.0527 Y53.1809 
G01 X-23.9154 Y53.2987 
G01 X-23.7595 Y53.3903 
G01 X-23.5899 Y53.4531 
G01 X-23.4119 Y53.4850 
G01 X-23.2310 Y53.4850 
G01 X-23.0530 Y53.4531 
G01 X-22.8834 Y53.3903 
G01 X-22.7275 Y53.2987 
G01 X-22.5902 Y53.1809 
G01 X-22.4758 Y53.0408 
G01 X-22.3879 Y52.8828 
G01 X-22.3645 Y52.8146 
G01 X-22.3092 Y52.7011 
G01 X-22.2065 Y52.4307 
G01 X-22.1288 Y52.1521 
G01 X-22.0766 Y51.8677 
G01 X-22.0504 Y51.5796 
G01 X-22.0504 Y51.2904 
G01 X-22.0766 Y51.0023 
G01 X-22.1288 Y50.7179 
G01 X-22.2065 Y50.4393 
G01 X-22.3092 Y50.1689 
G01 X-22.3645 Y50.0555 
G01 X-22.3879 Y49.9872 
G01 X-22.4758 Y49.8292 
G01 X-22.5902 Y49.6891 
G01 X-22.7275 Y49.5713 
G01 X-22.8834 Y49.4797 
G01 X-23.0530 Y49.4169 
G01 X-23.2310 Y49.3850 
G01 X-23.4119 Y49.3850 
G01 X-23.5899 Y49.4169 
G01 X-23.7595 Y49.4797 
G01 X-23.9154 Y49.5713 
G01 X-24.0527 Y49.6891 
G01 X-24.1671 Y49.8292 
G01 X-24.2550 Y49.9872 
G01 X-24.2784 Y50.0554 
G01 X-24.3337 Y50.1689 
G00 Z1.0000 
G00 X-75.1004 Y54.2764 
G01 Z0.0000 F254.00 
G01 X-75.1004 Y54.9436 F508.00 
G01 X-74.6286 Y55.4154 
G01 X-73.9614 Y55.4154 
G01 X-73.7074 Y55.1614 
G01 X-72.3174 Y55.1614 
G01 X-72.1772 Y55.1238 
G01 X-72.0514 Y55.0512 
G01 X-71.9488 Y54.9486 
G01 X-68.3516 Y51.3514 
G01 X-64.0876 Y51.3514 
G01 X-63.8336 Y51.6054 
G01 X-63.1664 Y51.6054 
G01 X-62.6946 Y51.1336 
G01 X-62.6946 Y50.4664 
G01 X-63.1664 Y49.9946 
G01 X-63.8336 Y49.9946 
G01 X-64.0876 Y50.2486 
G01 X-68.6526 Y50.2486 
G01 X-68.7928 Y50.2862 
G01 X-68.9186 Y50.3588 
G01 X-72.6184 Y54.0586 
G01 X-73.7074 Y54.0586 
G01 X-73.9614 Y53.8046 
G01 X-74.6286 Y53.8046 
G01 X-75.1004 Y54.2764 
G00 Z1.0000 
G00 X-64.3054 Y42.8464 
G01 Z0.0000 F254.00 
G01 X-64.3054 Y43.5136 F508.00 
G01 X-63.8336 Y43.9854 
G01 X-63.1664 Y43.9854 
G01 X-62.6946 Y43.5136 
G01 X-62.6946 Y42.8464 
G01 X-62.9486 Y42.5924 
G01 X-62.9486 Y19.6376 
G01 X-62.6946 Y19.3836 
G01 X-62.6946 Y18.7164 
G01 X-63.1664 Y18.2446 
G01 X-63.8336 Y18.2446 
G01 X-64.3054 Y18.7164 
G01 X-64.3054 Y19.3836 
G01 X-64.0514 Y19.6376 
G01 X-64.0514 Y42.5924 
G01 X-64.3054 Y42.8464 
G00 Z1.0000 
G00 X-64.3054 Y46.6564 
G01 Z0.0000 F254.00 
G01 X-64.3054 Y47.3236 F508.00 
G01 X-63.8336 Y47.7954 
G01 X-63.1664 Y47.7954 
G01 X-62.9124 Y47.5414 
G01 X-60.8874 Y47.5414 
G01 X-60.7472 Y47.5038 
G01 X-60.6214 Y47.4312 
G01 X-60.5188 Y47.3286 
G01 X-59.3514 Y46.1612 
G01 X-59.2488 Y46.0586 
G01 X-59.1762 Y45.9328 
G01 X-59.1386 Y45.7926 
G01 X-59.1386 Y33.2484 
G01 X-50.5716 Y24.6814 
G01 X-39.2974 Y24.6814 
G01 X-39.1572 Y24.6438 
G01 X-39.0314 Y24.5712 
G01 X-38.9288 Y24.4686 
G01 X-34.0616 Y19.6014 
G01 X-25.3526 Y19.6014 
G01 X-25.0986 Y19.8554 
G01 X-24.4314 Y19.8554 
G01 X-23.9596 Y19.3836 
G01 X-23.9596 Y18.7164 
G01 X-24.4314 Y18.2446 
G01 X-25.0986 Y18.2446 
G01 X-25.3526 Y18.4986 
G01 X-34.3626 Y18.4986 
G01 X-34.5028 Y18.5362 
G01 X-34.6286 Y18.6088 
G01 X-34.7312 Y18.7114 
G01 X-39.5984 Y23.5786 
G01 X-50.8726 Y23.5786 
G01 X-51.0128 Y23.6162 
G01 X-51.1386 Y23.6888 
G01 X-51.2412 Y23.7914 
G01 X-60.0286 Y32.5788 
G01 X-60.1312 Y32.6814 
G01 X-60.2038 Y32.8072 
G01 X-60.2414 Y32.9474 
G01 X-60.2414 Y45.4916 
G01 X-61.1884 Y46.4386 
G01 X-62.9124 Y46.4386 
G01 X-63.1664 Y46.1846 
G01 X-63.8336 Y46.1846 
G01 X-64.3054 Y46.6564 
G00 Z1.0000 
G00 X-54.1454 Y46.6564 
G01 Z0.0000 F254.00 
G01 X-54.1454 Y47.3236 F508.00 
G01 X-53.6736 Y47.7954 
G01 X-53.0064 Y47.7954 
G01 X-52.7524 Y47.5414 
G01 X-49.0740 Y47.5414 
G01 X-49.0237 Y47.6168 
G01 X-48.8867 Y47.7537 
G01 X-48.7257 Y47.8613 
G01 X-48.5468 Y47.9354 
G01 X-48.3568 Y47.9732 
G01 X-48.1632 Y47.9732 
G01 X-47.9732 Y47.9354 
G01 X-47.7943 Y47.8613 
G01 X-47.6332 Y47.7537 
G01 X-47.4963 Y47.6168 
G01 X-47.3887 Y47.4557 
G01 X-47.3146 Y47.2768 
G01 X-47.2768 Y47.0868 
G01 X-47.2768 Y46.8932 
G01 X-47.3146 Y46.7032 
G01 X-47.3887 Y46.5243 
G01 X-47.4963 Y46.3632 
G01 X-47.6332 Y46.2263 
G01 X-47.7943 Y46.1187 
G01 X-47.9732 Y46.0446 
G01 X-48.1632 Y46.0068 
G01 X-48.3568 Y46.0068 
G01 X-48.5468 Y46.0446 
G01 X-48.7257 Y46.1187 
G01 X-48.8867 Y46.2263 
G01 X-49.0237 Y46.3632 
G01 X-49.0740 Y46.4386 
G01 X-52.7524 Y46.4386 
G01 X-53.0064 Y46.1846 
G01 X-53.6736 Y46.1846 
G01 X-54.1454 Y46.6564 
G00 Z1.0000 
G00 X-54.1454 Y50.4664 
G01 Z0.0000 F254.00 
G01 X-54.1454 Y51.1336 F508.00 
G01 X-53.6736 Y51.6054 
G01 X-53.0064 Y51.6054 
G01 X-52.5346 Y51.1336 
G01 X-52.5346 Y50.7744 
G01 X-51.8416 Y50.0814 
G01 X-49.0740 Y50.0814 
G01 X-49.0237 Y50.1568 
G01 X-48.8867 Y50.2937 
G01 X-48.7257 Y50.4013 
G01 X-48.5468 Y50.4754 
G01 X-48.3568 Y50.5132 
G01 X-48.1632 Y50.5132 
G01 X-47.9732 Y50.4754 
G01 X-47.7943 Y50.4013 
G01 X-47.6332 Y50.2937 
G01 X-47.4963 Y50.1568 
G01 X-47.3887 Y49.9957 
G01 X-47.3146 Y49.8168 
G01 X-47.2768 Y49.6268 
G01 X-47.2768 Y49.4332 
G01 X-47.3146 Y49.2432 
G01 X-47.3887 Y49.0643 
G01 X-47.4963 Y48.9032 
G01 X-47.6332 Y48.7663 
G01 X-47.7943 Y48.6587 
G01 X-47.9732 Y48.5846 
G01 X-48.1632 Y48.5468 
G01 X-48.3568 Y48.5468 
G01 X-48.5468 Y48.5846 
G01 X-48.7257 Y48.6587 
G01 X-48.8867 Y48.7663 
G01 X-49.0237 Y48.9032 
G01 X-49.0740 Y48.9786 
G01 X-52.1426 Y48.9786 
G01 X-52.2828 Y49.0162 
G01 X-52.4086 Y49.0888 
G01 X-53.3144 Y49.9946 
G01 X-53.6736 Y49.9946 
G01 X-54.1454 Y50.4664 
G00 Z1.0000 
G00 X-64.3054 Y54.2764 
G01 Z0.0000 F254.00 
G01 X-64.3054 Y54.9436 F508.00 
G01 X-63.8336 Y55.4154 
G01 X-63.1664 Y55.4154 
G01 X-62.9124 Y55.1614 
G01 X-62.4584 Y55.1614 
G01 X-51.3514 Y66.2684 
G01 X-51.3514 Y71.1926 
G01 X-51.3138 Y71.3328 
G01 X-51.2412 Y71.4586 
G01 X-51.1386 Y71.5612 
G01 X-46.0586 Y76.6412 
G01 X-45.9328 Y76.7138 
G01 X-45.7926 Y76.7514 
G01 X-45.0376 Y76.7514 
G01 X-44.7836 Y77.0054 
G01 X-44.1164 Y77.0054 
G01 X-43.6446 Y76.5336 
G01 X-43.6446 Y75.8664 
G01 X-44.1164 Y75.3946 
G01 X-44.7836 Y75.3946 
G01 X-45.0376 Y75.6486 
G01 X-45.4916 Y75.6486 
G01 X-50.2486 Y70.8916 
G01 X-50.2486 Y65.9674 
G01 X-50.2862 Y65.8272 
G01 X-50.3588 Y65.7014 
G01 X-50.4614 Y65.5988 
G01 X-61.8914 Y54.1688 
G01 X-62.0172 Y54.0962 
G01 X-62.1574 Y54.0586 
G01 X-62.9124 Y54.0586 
G01 X-63.1664 Y53.8046 
G01 X-63.8336 Y53.8046 
G01 X-64.3054 Y54.2764 
G00 Z1.0000 
G00 X-54.1454 Y54.2764 
G01 Z0.0000 F254.00 
G01 X-54.1454 Y54.9436 F508.00 
G01 X-53.6736 Y55.4154 
G01 X-53.0064 Y55.4154 
G01 X-52.7524 Y55.1614 
G01 X-51.9974 Y55.1614 
G01 X-51.8572 Y55.1238 
G01 X-51.7314 Y55.0512 
G01 X-51.6288 Y54.9486 
G01 X-49.3016 Y52.6214 
G01 X-49.0740 Y52.6214 
G01 X-49.0237 Y52.6968 
G01 X-48.8867 Y52.8337 
G01 X-48.7257 Y52.9413 
G01 X-48.5468 Y53.0154 
G01 X-48.3568 Y53.0532 
G01 X-48.1632 Y53.0532 
G01 X-47.9732 Y53.0154 
G01 X-47.7943 Y52.9413 
G01 X-47.6332 Y52.8337 
G01 X-47.4963 Y52.6968 
G01 X-47.3887 Y52.5357 
G01 X-47.3146 Y52.3568 
G01 X-47.2768 Y52.1668 
G01 X-47.2768 Y51.9732 
G01 X-47.3146 Y51.7832 
G01 X-47.3887 Y51.6043 
G01 X-47.4963 Y51.4432 
G01 X-47.6332 Y51.3063 
G01 X-47.7943 Y51.1987 
G01 X-47.9732 Y51.1246 
G01 X-48.1632 Y51.0868 
G01 X-48.3568 Y51.0868 
G01 X-48.5468 Y51.1246 
G01 X-48.7257 Y51.1987 
G01 X-48.8867 Y51.3063 
G01 X-49.0237 Y51.4432 
G01 X-49.0740 Y51.5186 
G01 X-49.6026 Y51.5186 
G01 X-49.7428 Y51.5562 
G01 X-49.8686 Y51.6288 
G01 X-52.2984 Y54.0586 
G01 X-52.7524 Y54.0586 
G01 X-53.0064 Y53.8046 
G01 X-53.6736 Y53.8046 
G01 X-54.1454 Y54.2764 
G00 Z1.0000 
G00 X-24.9354 Y25.0664 
G01 Z0.0000 F254.00 
G01 X-24.9354 Y25.4256 F508.00 
G01 X-25.8412 Y26.3314 
G01 X-25.9138 Y26.4572 
G01 X-25.9514 Y26.5974 
G01 X-25.9514 Y38.1726 
G01 X-25.9138 Y38.3128 
G01 X-25.8412 Y38.4386 
G01 X-25.7386 Y38.5412 
G01 X-14.5214 Y49.7584 
G01 X-14.5214 Y54.0224 
G01 X-14.7754 Y54.2764 
G01 X-14.7754 Y54.9436 
G01 X-14.3036 Y55.4154 
G01 X-13.6364 Y55.4154 
G01 X-13.1646 Y54.9436 
G01 X-13.1646 Y54.2764 
G01 X-13.4186 Y54.0224 
G01 X-13.4186 Y49.4574 
G01 X-13.4562 Y49.3172 
G01 X-13.5288 Y49.1914 
G01 X-13.6314 Y49.0888 
G01 X-24.8486 Y37.8716 
G01 X-24.8486 Y26.8984 
G01 X-24.1556 Y26.2054 
G01 X-23.7964 Y26.2054 
G01 X-23.3246 Y25.7336 
G01 X-23.3246 Y25.0664 
G01 X-23.7964 Y24.5946 
G01 X-24.4636 Y24.5946 
G01 X-24.9354 Y25.0664 
G00 Z1.0000 
G00 X-43.0964 Y68.4399 
G01 Z0.0000 F254.00 
G01 X-43.0964 Y70.1425 F508.00 
G01 X-43.0615 Y70.3178 
G01 X-42.9932 Y70.4828 
G01 X-42.8939 Y70.6314 
G01 X-42.7676 Y70.7577 
G01 X-42.6190 Y70.8570 
G01 X-42.4540 Y70.9253 
G01 X-42.2787 Y70.9602 
G01 X-42.1001 Y70.9602 
G01 X-41.9248 Y70.9253 
G01 X-41.7598 Y70.8570 
G01 X-41.6112 Y70.7577 
G01 X-41.4849 Y70.6314 
G01 X-41.3856 Y70.4828 
G01 X-41.3173 Y70.3178 
G01 X-41.2824 Y70.1425 
G01 X-41.2824 Y68.4399 
G01 X-41.3173 Y68.2646 
G01 X-41.3856 Y68.0996 
G01 X-41.4849 Y67.9510 
G01 X-41.6112 Y67.8247 
G01 X-41.7598 Y67.7254 
G01 X-41.9248 Y67.6571 
G01 X-42.1001 Y67.6222 
G01 X-42.2787 Y67.6222 
G01 X-42.4540 Y67.6571 
G01 X-42.6190 Y67.7254 
G01 X-42.7676 Y67.8247 
G01 X-42.8939 Y67.9510 
G01 X-42.9932 Y68.0996 
G01 X-43.0615 Y68.2646 
G01 X-43.0964 Y68.4399 
G00 Z1.0000 
G00 X-45.3570 Y32.6443 
G01 Z0.0000 F254.00 
G01 X-45.3570 Y33.1472 F508.00 
G01 X-46.6936 Y34.4838 
G01 X-46.7962 Y34.5864 
G01 X-46.8688 Y34.7122 
G01 X-46.9064 Y34.8524 
G01 X-46.9064 Y39.7766 
G01 X-48.0743 Y40.9445 
G01 X-48.1632 Y40.9268 
G01 X-48.3568 Y40.9268 
G01 X-48.5468 Y40.9646 
G01 X-48.7257 Y41.0387 
G01 X-48.8867 Y41.1463 
G01 X-49.0237 Y41.2832 
G01 X-49.1313 Y41.4443 
G01 X-49.2054 Y41.6232 
G01 X-49.2432 Y41.8132 
G01 X-49.2432 Y42.0068 
G01 X-49.2054 Y42.1968 
G01 X-49.1313 Y42.3757 
G01 X-49.0237 Y42.5368 
G01 X-48.8867 Y42.6737 
G01 X-48.7257 Y42.7813 
G01 X-48.5468 Y42.8554 
G01 X-48.3568 Y42.8932 
G01 X-48.1632 Y42.8932 
G01 X-47.9732 Y42.8554 
G01 X-47.7943 Y42.7813 
G01 X-47.6332 Y42.6737 
G01 X-47.4963 Y42.5368 
G01 X-47.3887 Y42.3757 
G01 X-47.3146 Y42.1968 
G01 X-47.2768 Y42.0068 
G01 X-47.2768 Y41.8132 
G01 X-47.2945 Y41.7243 
G01 X-46.0164 Y40.4462 
G01 X-45.9138 Y40.3436 
G01 X-45.8412 Y40.2178 
G01 X-45.8036 Y40.0776 
G01 X-45.8036 Y35.1534 
G01 X-44.5772 Y33.9270 
G01 X-44.0743 Y33.9270 
G01 X-43.5430 Y33.3957 
G01 X-43.5430 Y32.6443 
G01 X-44.0743 Y32.1130 
G01 X-44.8257 Y32.1130 
G01 X-45.3570 Y32.6443 
G00 Z1.0000 
G00 X-42.8170 Y32.6443 
G01 Z0.0000 F254.00 
G01 X-42.8170 Y33.1472 F508.00 
G01 X-44.7886 Y35.1188 
G01 X-44.8912 Y35.2214 
G01 X-44.9638 Y35.3472 
G01 X-45.0014 Y35.4874 
G01 X-45.0014 Y45.7926 
G01 X-44.9638 Y45.9328 
G01 X-44.8912 Y46.0586 
G01 X-44.7886 Y46.1612 
G01 X-43.6212 Y47.3286 
G01 X-43.5186 Y47.4312 
G01 X-43.3928 Y47.5038 
G01 X-43.2526 Y47.5414 
G01 X-41.4540 Y47.5414 
G01 X-41.4037 Y47.6168 
G01 X-41.2668 Y47.7537 
G01 X-41.1057 Y47.8613 
G01 X-40.9268 Y47.9354 
G01 X-40.7368 Y47.9732 
G01 X-40.5432 Y47.9732 
G01 X-40.3532 Y47.9354 
G01 X-40.1743 Y47.8613 
G01 X-40.0132 Y47.7537 
G01 X-39.8763 Y47.6168 
G01 X-39.7687 Y47.4557 
G01 X-39.6946 Y47.2768 
G01 X-39.6568 Y47.0868 
G01 X-39.6568 Y46.8932 
G01 X-39.6946 Y46.7032 
G01 X-39.7687 Y46.5243 
G01 X-39.8763 Y46.3632 
G01 X-40.0132 Y46.2263 
G01 X-40.1743 Y46.1187 
G01 X-40.3532 Y46.0446 
G01 X-40.5432 Y46.0068 
G01 X-40.7368 Y46.0068 
G01 X-40.9268 Y46.0446 
G01 X-41.1057 Y46.1187 
G01 X-41.2668 Y46.2263 
G01 X-41.4037 Y46.3632 
G01 X-41.4540 Y46.4386 
G01 X-42.9516 Y46.4386 
G01 X-43.8986 Y45.4916 
G01 X-43.8986 Y35.7884 
G01 X-42.0372 Y33.9270 
G01 X-41.5343 Y33.9270 
G01 X-41.0030 Y33.3957 
G01 X-41.0030 Y32.6443 
G01 X-41.5343 Y32.1130 
G01 X-42.2857 Y32.1130 
G01 X-42.8170 Y32.6443 
G00 Z1.0000 
G00 X-47.3657 Y31.3870 
G01 Z0.0000 F254.00 
G01 X-46.6143 Y31.3870 F508.00 
G01 X-46.0830 Y30.8557 
G01 X-46.0830 Y30.1043 
G01 X-46.6143 Y29.5730 
G01 X-47.3657 Y29.5730 
G01 X-47.7213 Y29.9286 
G01 X-52.1426 Y29.9286 
G01 X-52.2828 Y29.9662 
G01 X-52.4086 Y30.0388 
G01 X-57.4886 Y35.1188 
G01 X-57.5912 Y35.2214 
G01 X-57.6638 Y35.3472 
G01 X-57.7014 Y35.4874 
G01 X-57.7014 Y57.2226 
G01 X-57.6638 Y57.3628 
G01 X-57.5912 Y57.4886 
G01 X-57.4886 Y57.5912 
G01 X-48.7012 Y66.3786 
G01 X-48.5986 Y66.4812 
G01 X-48.4728 Y66.5538 
G01 X-48.3326 Y66.5914 
G01 X-39.2974 Y66.5914 
G01 X-39.1572 Y66.5538 
G01 X-39.0314 Y66.4812 
G01 X-38.9288 Y66.3786 
G01 X-37.7614 Y65.2112 
G01 X-37.6588 Y65.1086 
G01 X-37.5862 Y64.9828 
G01 X-37.5486 Y64.8426 
G01 X-37.5486 Y49.7584 
G01 X-27.4988 Y39.7086 
G01 X-27.4262 Y39.5828 
G01 X-27.3886 Y39.4426 
G01 X-27.3886 Y36.6815 
G01 X-27.3776 Y36.6705 
G01 X-27.2984 Y36.5519 
G01 X-27.2438 Y36.4202 
G01 X-27.2160 Y36.2803 
G01 X-27.2160 Y34.9797 
G01 X-27.2438 Y34.8398 
G01 X-27.2984 Y34.7081 
G01 X-27.3776 Y34.5895 
G01 X-27.4785 Y34.4886 
G01 X-27.5971 Y34.4094 
G01 X-27.7288 Y34.3548 
G01 X-27.8687 Y34.3270 
G01 X-28.0113 Y34.3270 
G01 X-28.1512 Y34.3548 
G01 X-28.2829 Y34.4094 
G01 X-28.4015 Y34.4886 
G01 X-28.5024 Y34.5895 
G01 X-28.5816 Y34.7081 
G01 X-28.6362 Y34.8398 
G01 X-28.6640 Y34.9797 
G01 X-28.6640 Y36.2803 
G01 X-28.6362 Y36.4202 
G01 X-28.5816 Y36.5519 
G01 X-28.5024 Y36.6705 
G01 X-28.4914 Y36.6815 
G01 X-28.4914 Y39.1416 
G01 X-38.4386 Y49.0888 
G01 X-38.5412 Y49.1914 
G01 X-38.6138 Y49.3172 
G01 X-38.6514 Y49.4574 
G01 X-38.6514 Y54.0586 
G01 X-39.6568 Y54.0586 
G01 X-39.6568 Y53.7430 
G01 X-39.6789 Y53.6897 
G01 X-39.7197 Y53.6489 
G01 X-39.7730 Y53.6268 
G01 X-41.5070 Y53.6268 
G01 X-41.5603 Y53.6489 
G01 X-41.6011 Y53.6897 
G01 X-41.6232 Y53.7430 
G01 X-41.6232 Y54.8134 
G01 X-42.2486 Y55.4388 
G01 X-42.3512 Y55.5414 
G01 X-42.4238 Y55.6672 
G01 X-42.4614 Y55.8074 
G01 X-42.4614 Y57.8324 
G01 X-42.7154 Y58.0864 
G01 X-42.7154 Y58.7536 
G01 X-42.2436 Y59.2254 
G01 X-41.5764 Y59.2254 
G01 X-41.1046 Y58.7536 
G01 X-41.1046 Y58.0864 
G01 X-41.3586 Y57.8324 
G01 X-41.3586 Y56.1084 
G01 X-40.8434 Y55.5932 
G01 X-39.7730 Y55.5932 
G01 X-39.7197 Y55.5711 
G01 X-39.6789 Y55.5303 
G01 X-39.6568 Y55.4770 
G01 X-39.6568 Y55.1614 
G01 X-38.6514 Y55.1614 
G01 X-38.6514 Y64.5416 
G01 X-39.5984 Y65.4886 
G01 X-48.0316 Y65.4886 
G01 X-56.5986 Y56.9216 
G01 X-56.5986 Y35.7884 
G01 X-51.8416 Y31.0314 
G01 X-47.7213 Y31.0314 
G01 X-47.3657 Y31.3870 
G00 Z1.0000 
G00 X-45.3570 Y30.1043 
G01 Z0.0000 F254.00 
G01 X-45.3570 Y30.8557 F508.00 
G01 X-44.8257 Y31.3870 
G01 X-44.0743 Y31.3870 
G01 X-43.5430 Y30.8557 
G01 X-43.5430 Y30.1043 
G01 X-43.8986 Y29.7487 
G01 X-43.8986 Y29.4384 
G01 X-42.9516 Y28.4914 
G01 X-38.9634 Y28.4914 
G01 X-38.0164 Y29.4384 
G01 X-38.0164 Y37.8716 
G01 X-38.9634 Y38.8186 
G01 X-39.8259 Y38.8186 
G01 X-39.8763 Y38.7432 
G01 X-40.0132 Y38.6063 
G01 X-40.1743 Y38.4987 
G01 X-40.3532 Y38.4246 
G01 X-40.5432 Y38.3868 
G01 X-40.7368 Y38.3868 
G01 X-40.9268 Y38.4246 
G01 X-41.1057 Y38.4987 
G01 X-41.2668 Y38.6063 
G01 X-41.4037 Y38.7432 
G01 X-41.5113 Y38.9043 
G01 X-41.5854 Y39.0832 
G01 X-41.6232 Y39.2732 
G01 X-41.6232 Y39.4668 
G01 X-41.5854 Y39.6568 
G01 X-41.5113 Y39.8357 
G01 X-41.4037 Y39.9967 
G01 X-41.2668 Y40.1337 
G01 X-41.1057 Y40.2413 
G01 X-40.9268 Y40.3154 
G01 X-40.7368 Y40.3532 
G01 X-40.5432 Y40.3532 
G01 X-40.3532 Y40.3154 
G01 X-40.1743 Y40.2413 
G01 X-40.0132 Y40.1337 
G01 X-39.8763 Y39.9967 
G01 X-39.8259 Y39.9214 
G01 X-38.6624 Y39.9214 
G01 X-38.5222 Y39.8838 
G01 X-38.3964 Y39.8112 
G01 X-38.2938 Y39.7086 
G01 X-37.1264 Y38.5412 
G01 X-37.0238 Y38.4386 
G01 X-36.9512 Y38.3128 
G01 X-36.9136 Y38.1726 
G01 X-36.9136 Y29.1374 
G01 X-36.9512 Y28.9972 
G01 X-37.0238 Y28.8714 
G01 X-37.1264 Y28.7688 
G01 X-38.3964 Y27.4988 
G01 X-38.5222 Y27.4262 
G01 X-38.6624 Y27.3886 
G01 X-43.2526 Y27.3886 
G01 X-43.3928 Y27.4262 
G01 X-43.5186 Y27.4988 
G01 X-43.6212 Y27.6014 
G01 X-44.8912 Y28.8714 
G01 X-44.9638 Y28.9972 
G01 X-45.0014 Y29.1374 
G01 X-45.0014 Y29.7487 
G01 X-45.3570 Y30.1043 
G00 Z1.0000 
G00 X-41.4037 Y52.6968 
G01 Z0.0000 F254.00 
G01 X-41.2668 Y52.8337 F508.00 
G01 X-41.1057 Y52.9413 
G01 X-40.9268 Y53.0154 
G01 X-40.7368 Y53.0532 
G01 X-40.5432 Y53.0532 
G01 X-40.3532 Y53.0154 
G01 X-40.1743 Y52.9413 
G01 X-40.0132 Y52.8337 
G01 X-39.8763 Y52.6968 
G01 X-39.7687 Y52.5357 
G01 X-39.6946 Y52.3568 
G01 X-39.6568 Y52.1668 
G01 X-39.6568 Y51.9732 
G01 X-39.6946 Y51.7832 
G01 X-39.7687 Y51.6043 
G01 X-39.8763 Y51.4432 
G01 X-40.0132 Y51.3063 
G01 X-40.1743 Y51.1987 
G01 X-40.3532 Y51.1246 
G01 X-40.5432 Y51.0868 
G01 X-40.7368 Y51.0868 
G01 X-40.9268 Y51.1246 
G01 X-41.1057 Y51.1987 
G01 X-41.2668 Y51.3063 
G01 X-41.4037 Y51.4432 
G01 X-41.4540 Y51.5186 
G01 X-41.9826 Y51.5186 
G01 X-42.1228 Y51.5562 
G01 X-42.2486 Y51.6288 
G01 X-44.7886 Y54.1688 
G01 X-44.8912 Y54.2714 
G01 X-44.9638 Y54.3972 
G01 X-45.0014 Y54.5374 
G01 X-45.0014 Y59.7626 
G01 X-44.9638 Y59.9028 
G01 X-44.8912 Y60.0286 
G01 X-43.0775 Y61.8423 
G01 X-43.0964 Y61.9375 
G01 X-43.0964 Y63.6401 
G01 X-43.0615 Y63.8154 
G01 X-42.9932 Y63.9804 
G01 X-42.8939 Y64.1290 
G01 X-42.7676 Y64.2553 
G01 X-42.6190 Y64.3546 
G01 X-42.4540 Y64.4229 
G01 X-42.2787 Y64.4578 
G01 X-42.1001 Y64.4578 
G01 X-41.9248 Y64.4229 
G01 X-41.7598 Y64.3546 
G01 X-41.6112 Y64.2553 
G01 X-41.4849 Y64.1290 
G01 X-41.3856 Y63.9804 
G01 X-41.3173 Y63.8154 
G01 X-41.2824 Y63.6401 
G01 X-41.2824 Y61.9375 
G01 X-41.3173 Y61.7622 
G01 X-41.3856 Y61.5972 
G01 X-41.4849 Y61.4486 
G01 X-41.6112 Y61.3223 
G01 X-41.7598 Y61.2230 
G01 X-41.9248 Y61.1547 
G01 X-42.1001 Y61.1198 
G01 X-42.2404 Y61.1198 
G01 X-43.8986 Y59.4616 
G01 X-43.8986 Y54.8384 
G01 X-41.6816 Y52.6214 
G01 X-41.4540 Y52.6214 
G01 X-41.4037 Y52.6968 
G00 Z1.0000 
G00 X-41.6232 Y49.4332 
G01 Z0.0000 F254.00 
G01 X-41.6232 Y49.6268 F508.00 
G01 X-41.5854 Y49.8168 
G01 X-41.5113 Y49.9957 
G01 X-41.4037 Y50.1568 
G01 X-41.2668 Y50.2937 
G01 X-41.1057 Y50.4013 
G01 X-40.9268 Y50.4754 
G01 X-40.7368 Y50.5132 
G01 X-40.5432 Y50.5132 
G01 X-40.3532 Y50.4754 
G01 X-40.1743 Y50.4013 
G01 X-40.0132 Y50.2937 
G01 X-39.8763 Y50.1568 
G01 X-39.7687 Y49.9957 
G01 X-39.6946 Y49.8168 
G01 X-39.6568 Y49.6268 
G01 X-39.6568 Y49.4332 
G01 X-39.6946 Y49.2432 
G01 X-39.7687 Y49.0643 
G01 X-39.8763 Y48.9032 
G01 X-40.0132 Y48.7663 
G01 X-40.1743 Y48.6587 
G01 X-40.3532 Y48.5846 
G01 X-40.5432 Y48.5468 
G01 X-40.7368 Y48.5468 
G01 X-40.9268 Y48.5846 
G01 X-41.1057 Y48.6587 
G01 X-41.2668 Y48.7663 
G01 X-41.4037 Y48.9032 
G01 X-41.5113 Y49.0643 
G01 X-41.5854 Y49.2432 
G01 X-41.6232 Y49.4332 
G00 Z1.0000 
G00 X-41.6232 Y44.3532 
G01 Z0.0000 F254.00 
G01 X-41.6232 Y44.5468 F508.00 
G01 X-41.5854 Y44.7368 
G01 X-41.5113 Y44.9157 
G01 X-41.4037 Y45.0768 
G01 X-41.2668 Y45.2137 
G01 X-41.1057 Y45.3213 
G01 X-40.9268 Y45.3954 
G01 X-40.7368 Y45.4332 
G01 X-40.5432 Y45.4332 
G01 X-40.3532 Y45.3954 
G01 X-40.1743 Y45.3213 
G01 X-40.0132 Y45.2137 
G01 X-39.8763 Y45.0768 
G01 X-39.8259 Y45.0014 
G01 X-36.7574 Y45.0014 
G01 X-36.6172 Y44.9638 
G01 X-36.4914 Y44.8912 
G01 X-36.3888 Y44.7886 
G01 X-32.5788 Y40.9786 
G01 X-32.5062 Y40.8528 
G01 X-32.4686 Y40.7126 
G01 X-32.4686 Y26.5974 
G01 X-32.5062 Y26.4572 
G01 X-32.5788 Y26.3314 
G01 X-32.6814 Y26.2288 
G01 X-33.4846 Y25.4256 
G01 X-33.4846 Y25.0664 
G01 X-33.9564 Y24.5946 
G01 X-34.6236 Y24.5946 
G01 X-35.0954 Y25.0664 
G01 X-35.0954 Y25.7336 
G01 X-34.6236 Y26.2054 
G01 X-34.2644 Y26.2054 
G01 X-33.5714 Y26.8984 
G01 X-33.5714 Y40.4116 
G01 X-37.0584 Y43.8986 
G01 X-39.8259 Y43.8986 
G01 X-39.8763 Y43.8232 
G01 X-40.0132 Y43.6863 
G01 X-40.1743 Y43.5787 
G01 X-40.3532 Y43.5046 
G01 X-40.5432 Y43.4668 
G01 X-40.7368 Y43.4668 
G01 X-40.9268 Y43.5046 
G01 X-41.1057 Y43.5787 
G01 X-41.2668 Y43.6863 
G01 X-41.4037 Y43.8232 
G01 X-41.5113 Y43.9843 
G01 X-41.5854 Y44.1632 
G01 X-41.6232 Y44.3532 
G00 Z1.0000 
G00 X-49.2432 Y39.2732 
G01 Z0.0000 F254.00 
G01 X-49.2432 Y39.4668 F508.00 
G01 X-49.2054 Y39.6568 
G01 X-49.1313 Y39.8357 
G01 X-49.0237 Y39.9967 
G01 X-48.8867 Y40.1337 
G01 X-48.7257 Y40.2413 
G01 X-48.5468 Y40.3154 
G01 X-48.3568 Y40.3532 
G01 X-48.1632 Y40.3532 
G01 X-47.9732 Y40.3154 
G01 X-47.7943 Y40.2413 
G01 X-47.6332 Y40.1337 
G01 X-47.4963 Y39.9967 
G01 X-47.3887 Y39.8357 
G01 X-47.3146 Y39.6568 
G01 X-47.2768 Y39.4668 
G01 X-47.2768 Y39.2732 
G01 X-47.3146 Y39.0832 
G01 X-47.3887 Y38.9043 
G01 X-47.4963 Y38.7432 
G01 X-47.6332 Y38.6063 
G01 X-47.7943 Y38.4987 
G01 X-47.9732 Y38.4246 
G01 X-48.1632 Y38.3868 
G01 X-48.3568 Y38.3868 
G01 X-48.4457 Y38.4045 
G01 X-48.9786 Y37.8716 
G01 X-48.9786 Y34.5184 
G01 X-48.0316 Y33.5714 
G01 X-47.7124 Y33.5714 
G01 X-47.6945 Y33.5982 
G01 X-47.5682 Y33.7245 
G01 X-47.4196 Y33.8238 
G01 X-47.2546 Y33.8921 
G01 X-47.0793 Y33.9270 
G01 X-46.9007 Y33.9270 
G01 X-46.7254 Y33.8921 
G01 X-46.5604 Y33.8238 
G01 X-46.4118 Y33.7245 
G01 X-46.2855 Y33.5982 
G01 X-46.1862 Y33.4496 
G01 X-46.1179 Y33.2846 
G01 X-46.0830 Y33.1093 
G01 X-46.0830 Y32.9307 
G01 X-46.1179 Y32.7554 
G01 X-46.1862 Y32.5904 
G01 X-46.2855 Y32.4418 
G01 X-46.4118 Y32.3155 
G01 X-46.5604 Y32.2162 
G01 X-46.7254 Y32.1479 
G01 X-46.9007 Y32.1130 
G01 X-47.0793 Y32.1130 
G01 X-47.2546 Y32.1479 
G01 X-47.4196 Y32.2162 
G01 X-47.5682 Y32.3155 
G01 X-47.6945 Y32.4418 
G01 X-47.7124 Y32.4686 
G01 X-48.3326 Y32.4686 
G01 X-48.4728 Y32.5062 
G01 X-48.5986 Y32.5788 
G01 X-48.7012 Y32.6814 
G01 X-49.8686 Y33.8488 
G01 X-49.9712 Y33.9514 
G01 X-50.0438 Y34.0772 
G01 X-50.0814 Y34.2174 
G01 X-50.0814 Y38.1726 
G01 X-50.0438 Y38.3128 
G01 X-49.9712 Y38.4386 
G01 X-49.8686 Y38.5412 
G01 X-49.2255 Y39.1843 
G01 X-49.2432 Y39.2732 
G00 Z1.0000 
G00 X-49.0237 Y45.0768 
G01 Z0.0000 F254.00 
G01 X-48.8867 Y45.2137 F508.00 
G01 X-48.7257 Y45.3213 
G01 X-48.5468 Y45.3954 
G01 X-48.3568 Y45.4332 
G01 X-48.1632 Y45.4332 
G01 X-47.9732 Y45.3954 
G01 X-47.7943 Y45.3213 
G01 X-47.6332 Y45.2137 
G01 X-47.4963 Y45.0768 
G01 X-47.3887 Y44.9157 
G01 X-47.3146 Y44.7368 
G01 X-47.2768 Y44.5468 
G01 X-47.2768 Y44.3532 
G01 X-47.3146 Y44.1632 
G01 X-47.3887 Y43.9843 
G01 X-47.4963 Y43.8232 
G01 X-47.6332 Y43.6863 
G01 X-47.7943 Y43.5787 
G01 X-47.9732 Y43.5046 
G01 X-48.1632 Y43.4668 
G01 X-48.3568 Y43.4668 
G01 X-48.5468 Y43.5046 
G01 X-48.7257 Y43.5787 
G01 X-48.8867 Y43.6863 
G01 X-49.0237 Y43.8232 
G01 X-49.0740 Y43.8986 
G01 X-51.8416 Y43.8986 
G01 X-52.5346 Y43.2056 
G01 X-52.5346 Y42.8464 
G01 X-53.0064 Y42.3746 
G01 X-53.6736 Y42.3746 
G01 X-54.1454 Y42.8464 
G01 X-54.1454 Y43.5136 
G01 X-53.6736 Y43.9854 
G01 X-53.3144 Y43.9854 
G01 X-52.4086 Y44.8912 
G01 X-52.2828 Y44.9638 
G01 X-52.1426 Y45.0014 
G01 X-49.0740 Y45.0014 
G01 X-49.0237 Y45.0768 
G00 Z1.0000 
G00 X-49.2432 Y54.5132 
G01 Z0.0000 F254.00 
G01 X-49.2432 Y54.7068 F508.00 
G01 X-49.2054 Y54.8968 
G01 X-49.1313 Y55.0757 
G01 X-49.0237 Y55.2368 
G01 X-48.8867 Y55.3737 
G01 X-48.7257 Y55.4813 
G01 X-48.5468 Y55.5554 
G01 X-48.3568 Y55.5932 
G01 X-48.1632 Y55.5932 
G01 X-48.0743 Y55.5755 
G01 X-47.5414 Y56.1084 
G01 X-47.5414 Y57.8324 
G01 X-47.7954 Y58.0864 
G01 X-47.7954 Y58.7536 
G01 X-47.5414 Y59.0076 
G01 X-47.5414 Y61.6624 
G01 X-47.5827 Y61.7622 
G01 X-47.6176 Y61.9375 
G01 X-47.6176 Y63.6401 
G01 X-47.5827 Y63.8154 
G01 X-47.5144 Y63.9804 
G01 X-47.4151 Y64.1290 
G01 X-47.2888 Y64.2553 
G01 X-47.1402 Y64.3546 
G01 X-46.9752 Y64.4229 
G01 X-46.7999 Y64.4578 
G01 X-46.6213 Y64.4578 
G01 X-46.4460 Y64.4229 
G01 X-46.2810 Y64.3546 
G01 X-46.1324 Y64.2553 
G01 X-46.0061 Y64.1290 
G01 X-45.9068 Y63.9804 
G01 X-45.8385 Y63.8154 
G01 X-45.8036 Y63.6401 
G01 X-45.8036 Y61.9375 
G01 X-45.8385 Y61.7622 
G01 X-45.9068 Y61.5972 
G01 X-46.0061 Y61.4486 
G01 X-46.1324 Y61.3223 
G01 X-46.2810 Y61.2230 
G01 X-46.4386 Y61.1577 
G01 X-46.4386 Y59.0076 
G01 X-46.1846 Y58.7536 
G01 X-46.1846 Y58.0864 
G01 X-46.4386 Y57.8324 
G01 X-46.4386 Y55.8074 
G01 X-46.4762 Y55.6672 
G01 X-46.5488 Y55.5414 
G01 X-46.6514 Y55.4388 
G01 X-47.2945 Y54.7957 
G01 X-47.2768 Y54.7068 
G01 X-47.2768 Y54.5132 
G01 X-47.3146 Y54.3232 
G01 X-47.3887 Y54.1443 
G01 X-47.4963 Y53.9832 
G01 X-47.6332 Y53.8463 
G01 X-47.7943 Y53.7387 
G01 X-47.9732 Y53.6646 
G01 X-48.1632 Y53.6268 
G01 X-48.3568 Y53.6268 
G01 X-48.5468 Y53.6646 
G01 X-48.7257 Y53.7387 
G01 X-48.8867 Y53.8463 
G01 X-49.0237 Y53.9832 
G01 X-49.1313 Y54.1443 
G01 X-49.2054 Y54.3232 
G01 X-49.2432 Y54.5132 
G00 Z1.0000 
G00 X-46.3730 Y83.6940 
G01 Z0.0000 F254.00 
G01 X-46.3730 Y83.9460 F508.00 
G01 X-46.3401 Y84.1960 
G01 X-46.2749 Y84.4395 
G01 X-46.1784 Y84.6723 
G01 X-46.0523 Y84.8907 
G01 X-45.8989 Y85.0906 
G01 X-45.7206 Y85.2689 
G01 X-45.5207 Y85.4223 
G01 X-45.3023 Y85.5484 
G01 X-45.0695 Y85.6449 
G01 X-44.8260 Y85.7101 
G01 X-44.5760 Y85.7430 
G01 X-44.3240 Y85.7430 
G01 X-44.0740 Y85.7101 
G01 X-43.8305 Y85.6449 
G01 X-43.5977 Y85.5484 
G01 X-43.3793 Y85.4223 
G01 X-43.1794 Y85.2689 
G01 X-43.0011 Y85.0906 
G01 X-42.8477 Y84.8907 
G01 X-42.7216 Y84.6723 
G01 X-42.6251 Y84.4395 
G01 X-42.5599 Y84.1960 
G01 X-42.5270 Y83.9460 
G01 X-42.5270 Y83.6940 
G01 X-42.5599 Y83.4440 
G01 X-42.6251 Y83.2005 
G01 X-42.7216 Y82.9677 
G01 X-42.8477 Y82.7493 
G01 X-43.0011 Y82.5494 
G01 X-43.1794 Y82.3711 
G01 X-43.3793 Y82.2177 
G01 X-43.5977 Y82.0916 
G01 X-43.8305 Y81.9951 
G01 X-44.0740 Y81.9299 
G01 X-44.3240 Y81.8970 
G01 X-44.5760 Y81.8970 
G01 X-44.8260 Y81.9299 
G01 X-45.0695 Y81.9951 
G01 X-45.3023 Y82.0916 
G01 X-45.5207 Y82.2177 
G01 X-45.7206 Y82.3711 
G01 X-45.8989 Y82.5494 
G01 X-46.0523 Y82.7493 
G01 X-46.1784 Y82.9677 
G01 X-46.2749 Y83.2005 
G01 X-46.3401 Y83.4440 
G01 X-46.3730 Y83.6940 
G00 Z1.0000 
G00 X-1.1724 Y59.1842 
G01 Z0.0000 F254.00 
G01 X-0.9005 Y59.1230 F508.00 
G01 X-0.8858 Y59.1229 
G01 X-0.8504 Y59.1129 
G01 X-0.8140 Y59.1076 
G01 X-0.7942 Y59.0991 
G01 X-0.7733 Y59.0944 
G01 X-0.7602 Y59.0875 
G01 X-0.7460 Y59.0835 
G01 X-0.7144 Y59.0648 
G01 X-0.6806 Y59.0502 
G01 X-0.6637 Y59.0369 
G01 X-0.6447 Y59.0269 
G01 X-0.6339 Y59.0169 
G01 X-0.6212 Y59.0094 
G01 X-0.5955 Y58.9831 
G01 X-0.5666 Y58.9603 
G01 X-0.5538 Y58.9431 
G01 X-0.5380 Y58.9285 
G01 X-0.5301 Y58.9160 
G01 X-0.5198 Y58.9055 
G01 X-0.5018 Y58.8734 
G01 X-0.4798 Y58.8439 
G01 X-0.4719 Y58.8240 
G01 X-0.4604 Y58.8058 
G01 X-0.4560 Y58.7917 
G01 X-0.4488 Y58.7788 
G01 X-0.4397 Y58.7432 
G01 X-0.4261 Y58.7090 
G01 X-0.4236 Y58.6877 
G01 X-0.4172 Y58.6672 
G01 X-0.4166 Y58.6524 
G01 X-0.4129 Y58.6381 
G01 X-0.4134 Y58.6014 
G01 X-0.4091 Y58.5648 
G01 X-0.4122 Y58.5436 
G01 X-0.4113 Y58.5221 
G01 X-0.4146 Y58.5077 
G01 X-0.4147 Y58.4930 
G01 X-0.4247 Y58.4576 
G01 X-0.4300 Y58.4212 
G01 X-0.4385 Y58.4014 
G01 X-0.4432 Y58.3805 
G01 X-0.4501 Y58.3674 
G01 X-0.4541 Y58.3532 
G01 X-0.4728 Y58.3216 
G01 X-0.4874 Y58.2878 
G01 X-0.5007 Y58.2709 
G01 X-0.5107 Y58.2519 
G01 X-0.5207 Y58.2411 
G01 X-0.5282 Y58.2284 
G01 X-0.5545 Y58.2027 
G01 X-0.5773 Y58.1738 
G01 X-0.5945 Y58.1610 
G01 X-0.6091 Y58.1452 
G01 X-0.6216 Y58.1373 
G01 X-0.9681 Y57.7993 
G01 X-0.9812 Y57.7766 
G01 X-1.0838 Y57.6740 
G01 X-1.1150 Y57.6560 
G01 X-4.6173 Y54.2396 
G01 X-4.6667 Y54.1914 
G01 X-4.7157 Y54.1424 
G01 X-4.7187 Y54.1407 
G01 X-21.9805 Y37.3024 
G01 X-22.1150 Y37.1712 
G01 X-22.0670 Y36.8930 
G01 X-21.1968 Y31.8433 
G01 X-21.1845 Y31.7974 
G01 X-21.1845 Y31.7720 
G01 X-21.1802 Y31.7470 
G01 X-20.2934 Y26.6009 
G01 X-20.1175 Y25.5801 
G01 X-19.6724 Y22.9971 
G01 X-19.6601 Y22.9513 
G01 X-19.6601 Y22.9259 
G01 X-19.6558 Y22.9008 
G01 X-17.0642 Y7.8622 
G01 X-17.0275 Y7.7631 
G01 X-17.0077 Y7.5507 
G01 X-17.0033 Y7.5362 
G01 X-17.0018 Y7.5000 
G01 X-16.9957 Y7.4643 
G01 X-16.9977 Y7.4427 
G01 X-16.9956 Y7.4211 
G01 X-16.9982 Y7.4063 
G01 X-16.9976 Y7.3912 
G01 X-17.0056 Y7.3558 
G01 X-17.0089 Y7.3197 
G01 X-17.0164 Y7.2994 
G01 X-17.0200 Y7.2780 
G01 X-17.0263 Y7.2643 
G01 X-17.0297 Y7.2496 
G01 X-17.0465 Y7.2175 
G01 X-17.0591 Y7.1835 
G01 X-17.0716 Y7.1658 
G01 X-17.0806 Y7.1461 
G01 X-17.0903 Y7.1345 
G01 X-17.0973 Y7.1211 
G01 X-17.1219 Y7.0945 
G01 X-17.1428 Y7.0649 
G01 X-17.1595 Y7.0510 
G01 X-17.1733 Y7.0343 
G01 X-17.1856 Y7.0256 
G01 X-17.1959 Y7.0145 
G01 X-17.2266 Y6.9952 
G01 X-17.2544 Y6.9720 
G01 X-17.2741 Y6.9629 
G01 X-17.2918 Y6.9504 
G01 X-17.3059 Y6.9451 
G01 X-17.3187 Y6.9371 
G01 X-17.3533 Y6.9263 
G01 X-17.3862 Y6.9111 
G01 X-17.4076 Y6.9075 
G01 X-17.4279 Y6.8999 
G01 X-17.4429 Y6.8985 
G01 X-17.4574 Y6.8941 
G01 X-17.4936 Y6.8926 
G01 X-17.5293 Y6.8865 
G01 X-17.5509 Y6.8885 
G01 X-17.5725 Y6.8864 
G01 X-17.5873 Y6.8890 
G01 X-17.6024 Y6.8884 
G01 X-17.6378 Y6.8964 
G01 X-17.6739 Y6.8997 
G01 X-17.6942 Y6.9072 
G01 X-17.7156 Y6.9108 
G01 X-17.7293 Y6.9171 
G01 X-17.7440 Y6.9205 
G01 X-17.7761 Y6.9374 
G01 X-17.8101 Y6.9499 
G01 X-17.8278 Y6.9624 
G01 X-17.8475 Y6.9714 
G01 X-17.8591 Y6.9811 
G01 X-24.5388 Y10.4977 
G01 X-24.5485 Y10.5028 
G01 X-24.5590 Y10.5056 
G01 X-24.6125 Y10.5365 
G01 X-25.5332 Y11.0212 
G01 X-25.5428 Y11.0263 
G01 X-25.5534 Y11.0291 
G01 X-25.6069 Y11.0600 
G01 X-44.4373 Y20.9735 
G01 X-63.2865 Y11.0501 
G01 X-63.3411 Y11.0186 
G01 X-63.3516 Y11.0158 
G01 X-64.2272 Y10.5548 
G01 X-64.2978 Y10.5177 
G01 X-64.3557 Y10.4872 
G01 X-70.7010 Y7.1466 
G01 X-70.8019 Y7.0667 
G01 X-71.0520 Y6.9587 
G01 X-71.0645 Y6.9499 
G01 X-71.0985 Y6.9374 
G01 X-71.1306 Y6.9205 
G01 X-71.1515 Y6.9157 
G01 X-71.1712 Y6.9072 
G01 X-71.1864 Y6.9050 
G01 X-71.2007 Y6.8997 
G01 X-71.2368 Y6.8964 
G01 X-71.2722 Y6.8884 
G01 X-71.2936 Y6.8892 
G01 X-71.3148 Y6.8861 
G01 X-71.3300 Y6.8879 
G01 X-71.3453 Y6.8865 
G01 X-71.3810 Y6.8926 
G01 X-71.4172 Y6.8941 
G01 X-71.4377 Y6.9004 
G01 X-71.4590 Y6.9029 
G01 X-71.4733 Y6.9085 
G01 X-71.4884 Y6.9111 
G01 X-71.5213 Y6.9263 
G01 X-71.5559 Y6.9371 
G01 X-71.5741 Y6.9485 
G01 X-71.5940 Y6.9564 
G01 X-71.6063 Y6.9656 
G01 X-71.6202 Y6.9720 
G01 X-71.6480 Y6.9952 
G01 X-71.6787 Y7.0145 
G01 X-71.6933 Y7.0303 
G01 X-71.7105 Y7.0431 
G01 X-71.7200 Y7.0551 
G01 X-71.7318 Y7.0649 
G01 X-71.7527 Y7.0945 
G01 X-71.7773 Y7.1211 
G01 X-71.7873 Y7.1401 
G01 X-71.8006 Y7.1569 
G01 X-71.8067 Y7.1710 
G01 X-71.8155 Y7.1835 
G01 X-71.8280 Y7.2175 
G01 X-71.8449 Y7.2496 
G01 X-71.8497 Y7.2705 
G01 X-71.8582 Y7.2902 
G01 X-71.8604 Y7.3054 
G01 X-71.8657 Y7.3197 
G01 X-71.8690 Y7.3558 
G01 X-71.8770 Y7.3912 
G01 X-71.8762 Y7.4126 
G01 X-71.8793 Y7.4338 
G01 X-71.8775 Y7.4490 
G01 X-71.8789 Y7.4643 
G01 X-71.8728 Y7.5000 
G01 X-71.8713 Y7.5362 
G01 X-71.8650 Y7.5567 
G01 X-71.8625 Y7.5780 
G01 X-71.8569 Y7.5923 
G01 X-66.7596 Y37.1712 
G01 X-84.1689 Y54.1534 
G01 X-84.1719 Y54.1551 
G01 X-84.2208 Y54.2040 
G01 X-84.2703 Y54.2523 
G01 X-84.8037 Y54.7726 
G01 X-84.8067 Y54.7743 
G01 X-84.8556 Y54.8233 
G01 X-84.9051 Y54.8715 
G01 X-88.2530 Y58.1373 
G01 X-88.2655 Y58.1452 
G01 X-88.2801 Y58.1610 
G01 X-88.2973 Y58.1738 
G01 X-88.3201 Y58.2027 
G01 X-88.3464 Y58.2284 
G01 X-88.3539 Y58.2411 
G01 X-88.3639 Y58.2519 
G01 X-88.3739 Y58.2709 
G01 X-88.3872 Y58.2878 
G01 X-88.4018 Y58.3216 
G01 X-88.4205 Y58.3532 
G01 X-88.4245 Y58.3674 
G01 X-88.4314 Y58.3805 
G01 X-88.4361 Y58.4014 
G01 X-88.4446 Y58.4212 
G01 X-88.4499 Y58.4576 
G01 X-88.4599 Y58.4930 
G01 X-88.4600 Y58.5077 
G01 X-88.4633 Y58.5221 
G01 X-88.4624 Y58.5436 
G01 X-88.4655 Y58.5648 
G01 X-88.4612 Y58.6014 
G01 X-88.4617 Y58.6381 
G01 X-88.4580 Y58.6524 
G01 X-88.4574 Y58.6672 
G01 X-88.4510 Y58.6877 
G01 X-88.4485 Y58.7090 
G01 X-88.4349 Y58.7432 
G01 X-88.4258 Y58.7788 
G01 X-88.4186 Y58.7917 
G01 X-88.4142 Y58.8058 
G01 X-88.4027 Y58.8240 
G01 X-88.3948 Y58.8439 
G01 X-88.3728 Y58.8734 
G01 X-88.3548 Y58.9055 
G01 X-88.3445 Y58.9160 
G01 X-88.3366 Y58.9285 
G01 X-88.3208 Y58.9431 
G01 X-88.3080 Y58.9603 
G01 X-88.2791 Y58.9831 
G01 X-88.2534 Y59.0094 
G01 X-88.2407 Y59.0169 
G01 X-88.2299 Y59.0269 
G01 X-88.2109 Y59.0369 
G01 X-88.1940 Y59.0502 
G01 X-88.1602 Y59.0648 
G01 X-88.1286 Y59.0835 
G01 X-88.1144 Y59.0875 
G01 X-88.1013 Y59.0944 
G01 X-88.0804 Y59.0991 
G01 X-88.0606 Y59.1076 
G01 X-88.0242 Y59.1129 
G01 X-87.9888 Y59.1229 
G01 X-87.9741 Y59.1230 
G01 X-87.7264 Y59.1788 
G01 X-87.6051 Y59.1739 
G01 X-58.2528 Y63.4451 
G01 X-44.9606 Y90.3813 
G01 X-44.9490 Y90.4155 
G01 X-44.9286 Y90.4461 
G01 X-44.9123 Y90.4791 
G01 X-44.8885 Y90.5062 
G01 X-44.8685 Y90.5363 
G01 X-44.8409 Y90.5606 
G01 X-44.8166 Y90.5882 
G01 X-44.7866 Y90.6083 
G01 X-44.7595 Y90.6321 
G01 X-44.7265 Y90.6484 
G01 X-44.6959 Y90.6689 
G01 X-44.6617 Y90.6805 
G01 X-44.6293 Y90.6965 
G01 X-44.5932 Y90.7037 
G01 X-44.5584 Y90.7155 
G01 X-44.5223 Y90.7178 
G01 X-44.4869 Y90.7249 
G01 X-44.4502 Y90.7226 
G01 X-44.4135 Y90.7250 
G01 X-44.3781 Y90.7179 
G01 X-44.3420 Y90.7156 
G01 X-44.3072 Y90.7038 
G01 X-44.2711 Y90.6966 
G01 X-44.2387 Y90.6806 
G01 X-44.2045 Y90.6690 
G01 X-44.1739 Y90.6486 
G01 X-44.1409 Y90.6323 
G01 X-44.1138 Y90.6085 
G01 X-44.0837 Y90.5885 
G01 X-44.0594 Y90.5609 
G01 X-44.0318 Y90.5366 
G01 X-44.0117 Y90.5066 
G01 X-43.9879 Y90.4794 
G01 X-43.9716 Y90.4465 
G01 X-43.9511 Y90.4159 
G01 X-43.9395 Y90.3817 
G01 X-38.8892 Y80.1667 
G01 X-38.4247 Y79.2272 
G01 X-38.3973 Y79.1797 
G01 X-38.3927 Y79.1623 
G01 X-38.3847 Y79.1462 
G01 X-35.8675 Y74.0549 
G01 X-35.4030 Y73.1153 
G01 X-35.3756 Y73.0679 
G01 X-35.3709 Y73.0505 
G01 X-35.3630 Y73.0343 
G01 X-32.5964 Y67.4385 
G01 X-30.6220 Y63.4452 
G01 X-29.1056 Y63.2245 
G01 X-29.0729 Y63.2245 
G01 X-29.0341 Y63.2141 
G01 X-28.9943 Y63.2083 
G01 X-27.8619 Y63.0435 
G01 X-27.8293 Y63.0435 
G01 X-27.7904 Y63.0331 
G01 X-27.7506 Y63.0273 
G01 X-1.3040 Y59.1789 
G01 X-1.1724 Y59.1842 
G00 Z1.0000 
G00 X-44.4494 Y88.4733 
G01 Z0.0000 F254.00 
G01 X-46.0603 Y85.2089 F508.00 
G01 X-46.0496 Y85.2228 
G01 X-45.8528 Y85.4196 
G01 X-45.6320 Y85.5890 
G01 X-45.3910 Y85.7281 
G01 X-45.1339 Y85.8346 
G01 X-44.8651 Y85.9067 
G01 X-44.5892 Y85.9430 
G01 X-44.3108 Y85.9430 
G01 X-44.0349 Y85.9067 
G01 X-43.7661 Y85.8346 
G01 X-43.5090 Y85.7281 
G01 X-43.2680 Y85.5890 
G01 X-43.0472 Y85.4196 
G01 X-42.8504 Y85.2228 
G01 X-42.8276 Y85.1930 
G01 X-44.4494 Y88.4733 
G00 Z1.0000 
G00 X-47.1282 Y39.7156 
G01 Z0.0000 F254.00 
G01 X-47.1064 Y39.6485 F508.00 
G01 X-47.1064 Y39.6938 
G01 X-47.1282 Y39.7156 
G00 Z1.0000 
G00 X-47.1635 Y38.9158 
G01 Z0.0000 F254.00 
G01 X-47.2480 Y38.7499 F508.00 
G01 X-47.3575 Y38.5992 
G01 X-47.4892 Y38.4675 
G01 X-47.6399 Y38.3580 
G01 X-47.8058 Y38.2735 
G01 X-47.9829 Y38.2159 
G01 X-48.1669 Y38.1868 
G01 X-48.3531 Y38.1868 
G01 X-48.3768 Y38.1906 
G01 X-48.7786 Y37.7888 
G01 X-48.7786 Y34.6012 
G01 X-47.9488 Y33.7714 
G01 X-47.8041 Y33.7714 
G01 X-47.7112 Y33.8644 
G01 X-47.5702 Y33.9668 
G01 X-47.4149 Y34.0459 
G01 X-47.2492 Y34.0997 
G01 X-47.0771 Y34.1270 
G01 X-46.9029 Y34.1270 
G01 X-46.7308 Y34.0997 
G01 X-46.5651 Y34.0459 
G01 X-46.5110 Y34.0183 
G01 X-46.8340 Y34.3413 
G01 X-46.9386 Y34.4460 
G01 X-47.0209 Y34.5691 
G01 X-47.0775 Y34.7058 
G01 X-47.1064 Y34.8510 
G01 X-47.1064 Y39.0915 
G01 X-47.1635 Y38.9158 
G00 Z1.0000 
G00 X-23.1004 Y52.5104 
G01 Z0.0000 F254.00 
G01 X-23.1157 Y52.5417 F508.00 
G01 X-23.1194 Y52.5611 
G01 X-23.1368 Y52.5923 
G01 X-23.1618 Y52.6229 
G01 X-23.1918 Y52.6486 
G01 X-23.2258 Y52.6687 
G01 X-23.2628 Y52.6824 
G01 X-23.3017 Y52.6893 
G01 X-23.3214 Y52.6902 
G01 X-23.3412 Y52.6893 
G01 X-23.3800 Y52.6824 
G01 X-23.4171 Y52.6687 
G01 X-23.4511 Y52.6486 
G01 X-23.4811 Y52.6229 
G01 X-23.5061 Y52.5924 
G01 X-23.5234 Y52.5611 
G01 X-23.5272 Y52.5417 
G01 X-23.5424 Y52.5104 
G01 X-23.5537 Y52.4775 
G01 X-23.5683 Y52.4558 
G01 X-23.6012 Y52.3843 
G01 X-23.6782 Y52.1815 
G01 X-23.7365 Y51.9727 
G01 X-23.7756 Y51.7594 
G01 X-23.7854 Y51.6512 
G01 X-23.0997 Y52.5084 
G00 Z1.0000 
G00 X-23.0417 Y50.4857 
G01 Z0.0000 F254.00 
G01 X-22.9647 Y50.6885 F508.00 
G01 X-22.9064 Y50.8973 
G01 X-22.8673 Y51.1106 
G01 X-22.8574 Y51.2188 
G01 X-23.5431 Y50.3616 
G01 X-23.5272 Y50.3283 
G01 X-23.5234 Y50.3089 
G01 X-23.5061 Y50.2776 
G01 X-23.4811 Y50.2471 
G01 X-23.4511 Y50.2214 
G01 X-23.4171 Y50.2013 
G01 X-23.3800 Y50.1876 
G01 X-23.3412 Y50.1807 
G01 X-23.3214 Y50.1798 
G01 X-23.3017 Y50.1807 
G01 X-23.2628 Y50.1876 
G01 X-23.2258 Y50.2013 
G01 X-23.1918 Y50.2214 
G01 X-23.1618 Y50.2471 
G01 X-23.1368 Y50.2777 
G01 X-23.1194 Y50.3088 
G01 X-23.1157 Y50.3283 
G01 X-23.1004 Y50.3596 
G01 X-23.0891 Y50.3925 
G01 X-23.0746 Y50.4141 
G01 X-23.0417 Y50.4857 
G00 Z1.0000 
G00 X-28.8154 Y52.5104 
G01 Z0.0000 F254.00 
G01 X-28.8307 Y52.5417 F508.00 
G01 X-28.8344 Y52.5611 
G01 X-28.8518 Y52.5923 
G01 X-28.8768 Y52.6229 
G01 X-28.9068 Y52.6486 
G01 X-28.9408 Y52.6687 
G01 X-28.9778 Y52.6824 
G01 X-29.0167 Y52.6893 
G01 X-29.0364 Y52.6902 
G01 X-29.0562 Y52.6893 
G01 X-29.0950 Y52.6824 
G01 X-29.1321 Y52.6687 
G01 X-29.1661 Y52.6486 
G01 X-29.1961 Y52.6229 
G01 X-29.2211 Y52.5924 
G01 X-29.2384 Y52.5611 
G01 X-29.2422 Y52.5417 
G01 X-29.2574 Y52.5104 
G01 X-29.2687 Y52.4775 
G01 X-29.2833 Y52.4558 
G01 X-29.3162 Y52.3843 
G01 X-29.3932 Y52.1815 
G01 X-29.4515 Y51.9727 
G01 X-29.4906 Y51.7594 
G01 X-29.5004 Y51.6512 
G01 X-28.8147 Y52.5084 
G00 Z1.0000 
G00 X-28.7567 Y50.4857 
G01 Z0.0000 F254.00 
G01 X-28.6797 Y50.6885 F508.00 
G01 X-28.6214 Y50.8973 
G01 X-28.5823 Y51.1106 
G01 X-28.5724 Y51.2188 
G01 X-29.2581 Y50.3616 
G01 X-29.2422 Y50.3283 
G01 X-29.2384 Y50.3089 
G01 X-29.2211 Y50.2776 
G01 X-29.1961 Y50.2471 
G01 X-29.1661 Y50.2214 
G01 X-29.1321 Y50.2013 
G01 X-29.0950 Y50.1876 
G01 X-29.0562 Y50.1807 
G01 X-29.0364 Y50.1798 
G01 X-29.0167 Y50.1807 
G01 X-28.9778 Y50.1876 
G01 X-28.9408 Y50.2013 
G01 X-28.9068 Y50.2214 
G01 X-28.8768 Y50.2471 
G01 X-28.8518 Y50.2777 
G01 X-28.8344 Y50.3088 
G01 X-28.8307 Y50.3283 
G01 X-28.8154 Y50.3596 
G01 X-28.8041 Y50.3925 
G01 X-28.7896 Y50.4141 
G01 X-28.7567 Y50.4857 
G00 Z1.0000 
G00 X-28.8640 Y54.9600 
G01 Z0.0000 F254.00 
G01 X-28.8640 Y56.3000 F508.00 
G01 X-28.8285 Y56.4785 
G01 X-28.7588 Y56.6467 
G01 X-28.6577 Y56.7980 
G01 X-28.6533 Y56.8025 
G01 X-28.6533 Y61.8421 
G01 X-28.9816 Y61.8899 
G01 X-28.9908 Y61.8861 
G01 X-29.1360 Y61.8572 
G01 X-29.2840 Y61.8572 
G01 X-29.4292 Y61.8861 
G01 X-29.5659 Y61.9427 
G01 X-29.6276 Y61.9839 
G01 X-31.0908 Y62.1968 
G01 X-31.1587 Y62.2057 
G01 X-31.1639 Y62.2075 
G01 X-31.1694 Y62.2083 
G01 X-31.2340 Y62.2312 
G01 X-31.2989 Y62.2532 
G01 X-31.3037 Y62.2559 
G01 X-31.3089 Y62.2578 
G01 X-31.3678 Y62.2929 
G01 X-31.4272 Y62.3270 
G01 X-31.4313 Y62.3307 
G01 X-31.4361 Y62.3335 
G01 X-31.4870 Y62.3794 
G01 X-31.5386 Y62.4245 
G01 X-31.5419 Y62.4289 
G01 X-31.5460 Y62.4326 
G01 X-31.5870 Y62.4875 
G01 X-31.6288 Y62.5418 
G01 X-31.6312 Y62.5468 
G01 X-31.6345 Y62.5512 
G01 X-31.6640 Y62.6130 
G01 X-33.7636 Y66.8598 
G01 X-36.3561 Y72.1036 
G01 X-44.9437 Y72.1036 
G01 X-45.9592 Y71.0882 
G01 X-45.9592 Y70.8673 
G01 X-45.8662 Y70.7744 
G01 X-45.7638 Y70.6334 
G01 X-45.6847 Y70.4781 
G01 X-45.6309 Y70.3124 
G01 X-45.6036 Y70.1403 
G01 X-45.6036 Y68.4421 
G01 X-45.6309 Y68.2700 
G01 X-45.6847 Y68.1043 
G01 X-45.7638 Y67.9490 
G01 X-45.8662 Y67.8080 
G01 X-45.9894 Y67.6848 
G01 X-46.1304 Y67.5824 
G01 X-46.2857 Y67.5033 
G01 X-46.4514 Y67.4495 
G01 X-46.6235 Y67.4222 
G01 X-46.7977 Y67.4222 
G01 X-46.9698 Y67.4495 
G01 X-47.1355 Y67.5033 
G01 X-47.2908 Y67.5824 
G01 X-47.4318 Y67.6848 
G01 X-47.5550 Y67.8080 
G01 X-47.6574 Y67.9490 
G01 X-47.7365 Y68.1043 
G01 X-47.7903 Y68.2700 
G01 X-47.8176 Y68.4421 
G01 X-47.8176 Y70.1403 
G01 X-47.7903 Y70.3124 
G01 X-47.7365 Y70.4781 
G01 X-47.6574 Y70.6334 
G01 X-47.5550 Y70.7744 
G01 X-47.4620 Y70.8673 
G01 X-47.4620 Y71.4734 
G01 X-47.4331 Y71.6186 
G01 X-47.3765 Y71.7553 
G01 X-47.2942 Y71.8784 
G01 X-47.1896 Y71.9830 
G01 X-45.7340 Y73.4387 
G01 X-45.6109 Y73.5209 
G01 X-45.4742 Y73.5775 
G01 X-45.3290 Y73.6064 
G01 X-37.0991 Y73.6064 
G01 X-39.2657 Y77.9886 
G01 X-43.7796 Y77.9886 
G01 X-44.0336 Y77.7346 
G01 X-44.8664 Y77.7346 
G01 X-45.4554 Y78.3235 
G01 X-45.4554 Y79.1564 
G01 X-44.8664 Y79.7454 
G01 X-44.0336 Y79.7454 
G01 X-43.7796 Y79.4914 
G01 X-40.0087 Y79.4914 
G01 X-40.0565 Y79.5880 
G01 X-42.3744 Y84.2764 
G01 X-42.3633 Y84.2351 
G01 X-42.3270 Y83.9592 
G01 X-42.3270 Y83.6808 
G01 X-42.3633 Y83.4049 
G01 X-42.4354 Y83.1361 
G01 X-42.5419 Y82.8790 
G01 X-42.6810 Y82.6380 
G01 X-42.8504 Y82.4172 
G01 X-43.0472 Y82.2204 
G01 X-43.2680 Y82.0510 
G01 X-43.5090 Y81.9119 
G01 X-43.7661 Y81.8054 
G01 X-44.0349 Y81.7333 
G01 X-44.3108 Y81.6970 
G01 X-44.5892 Y81.6970 
G01 X-44.8651 Y81.7333 
G01 X-45.1339 Y81.8054 
G01 X-45.3910 Y81.9119 
G01 X-45.6320 Y82.0510 
G01 X-45.8528 Y82.2204 
G01 X-46.0496 Y82.4172 
G01 X-46.2190 Y82.6380 
G01 X-46.3581 Y82.8790 
G01 X-46.4646 Y83.1361 
G01 X-46.5367 Y83.4049 
G01 X-46.5730 Y83.6808 
G01 X-46.5730 Y83.9592 
G01 X-46.5367 Y84.2351 
G01 X-46.5318 Y84.2534 
G01 X-57.2105 Y62.6134 
G01 X-57.2401 Y62.5512 
G01 X-57.2432 Y62.5470 
G01 X-57.2455 Y62.5423 
G01 X-57.2874 Y62.4877 
G01 X-57.3286 Y62.4326 
G01 X-57.3325 Y62.4291 
G01 X-57.3357 Y62.4249 
G01 X-57.3874 Y62.3796 
G01 X-57.4385 Y62.3335 
G01 X-57.4430 Y62.3308 
G01 X-57.4470 Y62.3274 
G01 X-57.5065 Y62.2930 
G01 X-57.5657 Y62.2578 
G01 X-57.5706 Y62.2560 
G01 X-57.5752 Y62.2534 
G01 X-57.6403 Y62.2313 
G01 X-57.7052 Y62.2083 
G01 X-57.7104 Y62.2075 
G01 X-57.7153 Y62.2058 
G01 X-57.7835 Y62.1969 
G01 X-86.2956 Y58.0479 
G01 X-84.0461 Y55.8536 
G01 X-83.9891 Y55.8155 
G01 X-83.8845 Y55.7109 
G01 X-83.8558 Y55.6680 
G01 X-83.5275 Y55.3477 
G01 X-77.5191 Y55.3477 
G01 X-77.2514 Y55.6154 
G01 X-76.4186 Y55.6154 
G01 X-75.8296 Y55.0264 
G01 X-75.8296 Y54.1936 
G01 X-76.4186 Y53.6046 
G01 X-77.2514 Y53.6046 
G01 X-77.4918 Y53.8449 
G01 X-81.9870 Y53.8449 
G01 X-65.6459 Y37.9048 
G01 X-65.5958 Y37.8572 
G01 X-65.5929 Y37.8531 
G01 X-65.5893 Y37.8496 
G01 X-65.5502 Y37.7926 
G01 X-65.5105 Y37.7363 
G01 X-65.5084 Y37.7317 
G01 X-65.5056 Y37.7276 
G01 X-65.4784 Y37.6640 
G01 X-65.4503 Y37.6011 
G01 X-65.4492 Y37.5962 
G01 X-65.4473 Y37.5915 
G01 X-65.4330 Y37.5240 
G01 X-65.4177 Y37.4567 
G01 X-65.4176 Y37.4517 
G01 X-65.4166 Y37.4467 
G01 X-65.4157 Y37.3777 
G01 X-65.4139 Y37.3087 
G01 X-65.4148 Y37.3038 
G01 X-65.4147 Y37.2987 
G01 X-65.4274 Y37.2308 
G01 X-70.3237 Y8.8176 
G01 X-64.9639 Y11.6393 
G01 X-64.2514 Y12.0144 
G01 X-64.2514 Y15.8396 
G01 X-64.5054 Y16.0936 
G01 X-64.5054 Y16.9264 
G01 X-63.9164 Y17.5154 
G01 X-63.0836 Y17.5154 
G01 X-62.4946 Y16.9264 
G01 X-62.4946 Y16.0936 
G01 X-62.7486 Y15.8396 
G01 X-62.7486 Y12.8056 
G01 X-44.7346 Y22.2894 
G01 X-44.5926 Y22.3314 
G01 X-44.4453 Y22.3450 
G01 X-44.4373 Y22.3442 
G01 X-44.4293 Y22.3450 
G01 X-44.2820 Y22.3314 
G01 X-44.1400 Y22.2894 
G01 X-25.5164 Y12.4847 
G01 X-25.5164 Y15.8396 
G01 X-25.7704 Y16.0936 
G01 X-25.7704 Y16.9264 
G01 X-25.1814 Y17.5154 
G01 X-24.3485 Y17.5154 
G01 X-23.7596 Y16.9264 
G01 X-23.7596 Y16.0936 
G01 X-24.0136 Y15.8396 
G01 X-24.0136 Y11.7495 
G01 X-23.8954 Y11.6312 
G01 X-18.5509 Y8.8176 
G01 X-20.8413 Y22.1086 
G01 X-35.6340 Y22.1086 
G01 X-35.7792 Y22.1375 
G01 X-35.9159 Y22.1941 
G01 X-36.0390 Y22.2764 
G01 X-37.4136 Y23.6510 
G01 X-37.4959 Y23.7741 
G01 X-37.5525 Y23.9108 
G01 X-37.5814 Y24.0560 
G01 X-37.5814 Y26.7440 
G01 X-37.5525 Y26.8892 
G01 X-37.4959 Y27.0259 
G01 X-37.4136 Y27.1490 
G01 X-37.3090 Y27.2536 
G01 X-36.3114 Y28.2512 
G01 X-36.3114 Y39.0588 
G01 X-38.4112 Y41.1586 
G01 X-39.7234 Y41.1586 
G01 X-39.7375 Y41.1392 
G01 X-39.8692 Y41.0075 
G01 X-40.0199 Y40.8980 
G01 X-40.1858 Y40.8135 
G01 X-40.3629 Y40.7559 
G01 X-40.5469 Y40.7268 
G01 X-40.7331 Y40.7268 
G01 X-40.9171 Y40.7559 
G01 X-41.0942 Y40.8135 
G01 X-41.2601 Y40.8980 
G01 X-41.4108 Y41.0075 
G01 X-41.5425 Y41.1392 
G01 X-41.5566 Y41.1586 
G01 X-41.5988 Y41.1586 
G01 X-41.7936 Y40.9638 
G01 X-41.7936 Y39.6485 
G01 X-41.7365 Y39.8242 
G01 X-41.6520 Y39.9901 
G01 X-41.5425 Y40.1408 
G01 X-41.4108 Y40.2725 
G01 X-41.2601 Y40.3820 
G01 X-41.0942 Y40.4665 
G01 X-40.9171 Y40.5241 
G01 X-40.7331 Y40.5532 
G01 X-40.5469 Y40.5532 
G01 X-40.3629 Y40.5241 
G01 X-40.1858 Y40.4665 
G01 X-40.0199 Y40.3820 
G01 X-39.8692 Y40.2725 
G01 X-39.7375 Y40.1408 
G01 X-39.7234 Y40.1214 
G01 X-38.6610 Y40.1214 
G01 X-38.5158 Y40.0925 
G01 X-38.3791 Y40.0359 
G01 X-38.2560 Y39.9536 
G01 X-38.1514 Y39.8490 
G01 X-36.9860 Y38.6836 
G01 X-36.8814 Y38.5790 
G01 X-36.7991 Y38.4559 
G01 X-36.7425 Y38.3192 
G01 X-36.7136 Y38.1740 
G01 X-36.7136 Y29.1360 
G01 X-36.7425 Y28.9908 
G01 X-36.7991 Y28.8541 
G01 X-36.8814 Y28.7310 
G01 X-36.9860 Y28.6264 
G01 X-38.2560 Y27.3564 
G01 X-38.3791 Y27.2741 
G01 X-38.5158 Y27.2175 
G01 X-38.6610 Y27.1886 
G01 X-43.2540 Y27.1886 
G01 X-43.3992 Y27.2175 
G01 X-43.5359 Y27.2741 
G01 X-43.6590 Y27.3564 
G01 X-43.7636 Y27.4610 
G01 X-45.0336 Y28.7310 
G01 X-45.1159 Y28.8541 
G01 X-45.1725 Y28.9908 
G01 X-45.2014 Y29.1360 
G01 X-45.2014 Y29.6659 
G01 X-45.5570 Y30.0215 
G01 X-45.5570 Y30.9385 
G01 X-44.9085 Y31.5870 
G01 X-43.9915 Y31.5870 
G01 X-43.3430 Y30.9385 
G01 X-43.3430 Y30.0215 
G01 X-43.6986 Y29.6659 
G01 X-43.6986 Y29.5212 
G01 X-42.8688 Y28.6914 
G01 X-39.0462 Y28.6914 
G01 X-38.2164 Y29.5212 
G01 X-38.2164 Y37.7888 
G01 X-39.0462 Y38.6186 
G01 X-39.7234 Y38.6186 
G01 X-39.7375 Y38.5992 
G01 X-39.8692 Y38.4675 
G01 X-40.0199 Y38.3580 
G01 X-40.1858 Y38.2735 
G01 X-40.3629 Y38.2159 
G01 X-40.5469 Y38.1868 
G01 X-40.7331 Y38.1868 
G01 X-40.9171 Y38.2159 
G01 X-41.0942 Y38.2735 
G01 X-41.2601 Y38.3580 
G01 X-41.4108 Y38.4675 
G01 X-41.5425 Y38.5992 
G01 X-41.6520 Y38.7499 
G01 X-41.7365 Y38.9158 
G01 X-41.7936 Y39.0915 
G01 X-41.7936 Y37.7762 
G01 X-38.8910 Y34.8736 
G01 X-38.7863 Y34.7690 
G01 X-38.7041 Y34.6459 
G01 X-38.6475 Y34.5092 
G01 X-38.6186 Y34.3640 
G01 X-38.6186 Y31.6760 
G01 X-38.6475 Y31.5308 
G01 X-38.7041 Y31.3941 
G01 X-38.7863 Y31.2710 
G01 X-40.0564 Y30.0010 
G01 X-40.1610 Y29.8964 
G01 X-40.2841 Y29.8141 
G01 X-40.4208 Y29.7575 
G01 X-40.5660 Y29.7286 
G01 X-41.0959 Y29.7286 
G01 X-41.4515 Y29.3730 
G01 X-42.3685 Y29.3730 
G01 X-43.0170 Y30.0215 
G01 X-43.0170 Y30.9385 
G01 X-42.3685 Y31.5870 
G01 X-41.4515 Y31.5870 
G01 X-41.0959 Y31.2314 
G01 X-40.9512 Y31.2314 
G01 X-40.1214 Y32.0612 
G01 X-40.1214 Y33.9788 
G01 X-43.0240 Y36.8814 
G01 X-43.1286 Y36.9860 
G01 X-43.2109 Y37.1091 
G01 X-43.2675 Y37.2458 
G01 X-43.2964 Y37.3910 
G01 X-43.2964 Y41.3490 
G01 X-43.2675 Y41.4942 
G01 X-43.2109 Y41.6309 
G01 X-43.1286 Y41.7540 
G01 X-43.0240 Y41.8586 
G01 X-42.4936 Y42.3890 
G01 X-42.3890 Y42.4936 
G01 X-42.2659 Y42.5759 
G01 X-42.1292 Y42.6325 
G01 X-41.9840 Y42.6614 
G01 X-41.5566 Y42.6614 
G01 X-41.5425 Y42.6808 
G01 X-41.4108 Y42.8125 
G01 X-41.2601 Y42.9220 
G01 X-41.0942 Y43.0065 
G01 X-40.9171 Y43.0641 
G01 X-40.7331 Y43.0932 
G01 X-40.5469 Y43.0932 
G01 X-40.3629 Y43.0641 
G01 X-40.1858 Y43.0065 
G01 X-40.0199 Y42.9220 
G01 X-39.8692 Y42.8125 
G01 X-39.7375 Y42.6808 
G01 X-39.7234 Y42.6614 
G01 X-38.0260 Y42.6614 
G01 X-37.8808 Y42.6325 
G01 X-37.7441 Y42.5759 
G01 X-37.6210 Y42.4936 
G01 X-35.0810 Y39.9536 
G01 X-34.9764 Y39.8490 
G01 X-34.8941 Y39.7259 
G01 X-34.8375 Y39.5892 
G01 X-34.8086 Y39.4440 
G01 X-34.8086 Y27.8660 
G01 X-34.8375 Y27.7208 
G01 X-34.8941 Y27.5841 
G01 X-34.9764 Y27.4610 
G01 X-35.0810 Y27.3564 
G01 X-36.0786 Y26.3588 
G01 X-36.0786 Y24.4412 
G01 X-35.2488 Y23.6114 
G01 X-21.1002 Y23.6114 
G01 X-21.4011 Y25.3574 
G01 X-21.5770 Y26.3783 
G01 X-22.4517 Y31.4538 
G01 X-22.4836 Y31.5308 
G01 X-22.5125 Y31.6760 
G01 X-22.5125 Y31.8065 
G01 X-23.3506 Y36.6703 
G01 X-23.4472 Y37.2309 
G01 X-23.4599 Y37.2987 
G01 X-23.4598 Y37.3038 
G01 X-23.4607 Y37.3087 
G01 X-23.4589 Y37.3778 
G01 X-23.4580 Y37.4467 
G01 X-23.4570 Y37.4516 
G01 X-23.4568 Y37.4567 
G01 X-23.4416 Y37.5241 
G01 X-23.4273 Y37.5915 
G01 X-23.4254 Y37.5962 
G01 X-23.4243 Y37.6011 
G01 X-23.3962 Y37.6641 
G01 X-23.3690 Y37.7276 
G01 X-23.3662 Y37.7317 
G01 X-23.3641 Y37.7363 
G01 X-23.3243 Y37.7927 
G01 X-23.2853 Y37.8496 
G01 X-23.2817 Y37.8531 
G01 X-23.2787 Y37.8572 
G01 X-23.2287 Y37.9048 
G01 X-22.9952 Y38.1326 
G01 X-6.8736 Y53.8586 
G01 X-10.7596 Y53.8586 
G01 X-11.0136 Y53.6046 
G01 X-11.8464 Y53.6046 
G01 X-12.4354 Y54.1936 
G01 X-12.4354 Y55.0264 
G01 X-11.8464 Y55.6154 
G01 X-11.0136 Y55.6154 
G01 X-10.7596 Y55.3614 
G01 X-5.3330 Y55.3614 
G01 X-2.5790 Y58.0479 
G01 X-27.1505 Y61.6235 
G01 X-27.1505 Y56.6905 
G01 X-27.1212 Y56.6467 
G01 X-27.0515 Y56.4785 
G01 X-27.0160 Y56.3000 
G01 X-27.0160 Y54.9600 
G01 X-27.0515 Y54.7815 
G01 X-27.1212 Y54.6133 
G01 X-27.2223 Y54.4620 
G01 X-27.3510 Y54.3333 
G01 X-27.5023 Y54.2322 
G01 X-27.6705 Y54.1625 
G01 X-27.8490 Y54.1270 
G01 X-28.0310 Y54.1270 
G01 X-28.2095 Y54.1625 
G01 X-28.3777 Y54.2322 
G01 X-28.5290 Y54.3333 
G01 X-28.6577 Y54.4620 
G01 X-28.7588 Y54.6133 
G01 X-28.8285 Y54.7815 
G01 X-28.8640 Y54.9600 
G00 Z1.0000 
G00 X-30.5075 Y51.3695 
G01 Z0.0000 F254.00 
G01 X-30.5075 Y51.5887 F508.00 
G01 X-30.5075 Y51.5887 
G01 X-30.4797 Y51.8948 
G01 X-30.4747 Y51.9220 
G01 X-30.5348 Y51.7427 
G01 X-30.6439 Y51.5363 
G01 X-30.7848 Y51.3501 
G01 X-30.8504 Y51.2876 
G01 X-31.7920 Y50.1798 
G01 X-30.8548 Y50.1798 
G01 X-30.7283 Y50.1459 
G01 X-30.6149 Y50.0804 
G01 X-30.5223 Y49.9878 
G01 X-30.4568 Y49.8744 
G01 X-30.4229 Y49.7479 
G01 X-30.4229 Y49.6169 
G01 X-30.4568 Y49.4904 
G01 X-30.5223 Y49.3770 
G01 X-30.6149 Y49.2844 
G01 X-30.7283 Y49.2189 
G01 X-30.8548 Y49.1850 
G01 X-32.8475 Y49.1850 
G01 X-32.8927 Y49.1813 
G01 X-32.9127 Y49.1850 
G01 X-32.9331 Y49.1850 
G01 X-32.9769 Y49.1967 
G01 X-33.0215 Y49.2049 
G01 X-33.0399 Y49.2136 
G01 X-33.0596 Y49.2189 
G01 X-33.0989 Y49.2416 
G01 X-33.1398 Y49.2610 
G01 X-33.1554 Y49.2742 
G01 X-33.1730 Y49.2844 
G01 X-33.2051 Y49.3165 
G01 X-33.2396 Y49.3458 
G01 X-33.2512 Y49.3626 
G01 X-33.2656 Y49.3770 
G01 X-33.2883 Y49.4163 
G01 X-33.3141 Y49.4536 
G01 X-33.3209 Y49.4728 
G01 X-33.3311 Y49.4904 
G01 X-33.3428 Y49.5342 
G01 X-33.3581 Y49.5769 
G01 X-33.3597 Y49.5972 
G01 X-33.3650 Y49.6169 
G01 X-33.3650 Y49.6623 
G01 X-33.3687 Y49.7075 
G01 X-33.3650 Y49.7275 
G01 X-33.3650 Y49.7479 
G01 X-33.3533 Y49.7917 
G01 X-33.3451 Y49.8363 
G01 X-33.3364 Y49.8547 
G01 X-33.3311 Y49.8744 
G01 X-33.3084 Y49.9137 
G01 X-33.2890 Y49.9546 
G01 X-33.2758 Y49.9702 
G01 X-33.2656 Y49.9878 
G01 X-33.2336 Y50.0199 
G01 X-31.6166 Y51.9221 
G01 X-31.6028 Y51.9448 
G01 X-31.5744 Y51.9719 
G01 X-31.5489 Y52.0018 
G01 X-31.5338 Y52.0122 
G01 X-31.5304 Y52.0157 
G01 X-31.4871 Y52.0730 
G01 X-31.4535 Y52.1365 
G01 X-31.4307 Y52.2045 
G01 X-31.4191 Y52.2754 
G01 X-31.4177 Y52.3113 
G01 X-31.4188 Y52.3410 
G01 X-31.4281 Y52.3998 
G01 X-31.4465 Y52.4563 
G01 X-31.4735 Y52.5093 
G01 X-31.5084 Y52.5574 
G01 X-31.5505 Y52.5994 
G01 X-31.5986 Y52.6344 
G01 X-31.6516 Y52.6614 
G01 X-31.7081 Y52.6797 
G01 X-31.7668 Y52.6890 
G01 X-31.7966 Y52.6902 
G01 X-31.8404 Y52.6887 
G01 X-31.9273 Y52.6764 
G01 X-32.0117 Y52.6522 
G01 X-32.0918 Y52.6165 
G01 X-32.1662 Y52.5700 
G01 X-32.2334 Y52.5136 
G01 X-32.2920 Y52.4483 
G01 X-32.3410 Y52.3756 
G01 X-32.3794 Y52.2967 
G01 X-32.3944 Y52.2554 
G01 X-32.4146 Y52.1931 
G01 X-32.4858 Y52.0832 
G01 X-32.5830 Y51.9955 
G01 X-32.6997 Y51.9359 
G01 X-32.8278 Y51.9086 
G01 X-32.9586 Y51.9153 
G01 X-33.0832 Y51.9556 
G01 X-33.1931 Y52.0269 
G01 X-33.2808 Y52.1241 
G01 X-33.3404 Y52.2407 
G01 X-33.3677 Y52.3688 
G01 X-33.3610 Y52.4996 
G01 X-33.3408 Y52.5619 
G01 X-33.3058 Y52.6700 
G01 X-33.2064 Y52.8743 
G01 X-33.0795 Y53.0627 
G01 X-32.9276 Y53.2316 
G01 X-32.7536 Y53.3777 
G01 X-32.5610 Y53.4982 
G01 X-32.3535 Y53.5907 
G01 X-32.1351 Y53.6534 
G01 X-31.9102 Y53.6850 
G01 X-31.6885 Y53.6850 
G01 X-31.4749 Y53.6512 
G01 X-31.2693 Y53.5844 
G01 X-31.0766 Y53.4862 
G01 X-30.9017 Y53.3591 
G01 X-30.7488 Y53.2062 
G01 X-30.6217 Y53.0313 
G01 X-30.5235 Y52.8386 
G01 X-30.4567 Y52.6330 
G01 X-30.4229 Y52.4194 
G01 X-30.4229 Y52.2018 
G01 X-30.3416 Y52.4932 
G01 X-30.2324 Y52.7806 
G01 X-30.1786 Y52.8911 
G01 X-30.1534 Y52.9644 
G01 X-30.0483 Y53.1536 
G01 X-29.9114 Y53.3212 
G01 X-29.7471 Y53.4620 
G01 X-29.5606 Y53.5717 
G01 X-29.3576 Y53.6469 
G01 X-29.1446 Y53.6850 
G01 X-28.9282 Y53.6850 
G01 X-28.7152 Y53.6468 
G01 X-28.5123 Y53.5717 
G01 X-28.3258 Y53.4620 
G01 X-28.1615 Y53.3212 
G01 X-28.0246 Y53.1536 
G01 X-27.9194 Y52.9644 
G01 X-27.8943 Y52.8911 
G01 X-27.8404 Y52.7806 
G01 X-27.7313 Y52.4932 
G01 X-27.6487 Y52.1971 
G01 X-27.5932 Y51.8948 
G01 X-27.5654 Y51.5887 
G01 X-27.5654 Y51.2813 
G01 X-27.5932 Y50.9752 
G01 X-27.6487 Y50.6729 
G01 X-27.7313 Y50.3768 
G01 X-27.8404 Y50.0894 
G01 X-27.8943 Y49.9789 
G01 X-27.9194 Y49.9056 
G01 X-28.0246 Y49.7164 
G01 X-28.1615 Y49.5488 
G01 X-28.3257 Y49.4079 
G01 X-28.5123 Y49.2983 
G01 X-28.7152 Y49.2231 
G01 X-28.9282 Y49.1850 
G01 X-29.1446 Y49.1850 
G01 X-29.3576 Y49.2231 
G01 X-29.5606 Y49.2983 
G01 X-29.7471 Y49.4080 
G01 X-29.9114 Y49.5488 
G01 X-30.0482 Y49.7164 
G01 X-30.1534 Y49.9056 
G01 X-30.1785 Y49.9788 
G01 X-30.2324 Y50.0894 
G01 X-30.3416 Y50.3768 
G01 X-30.4242 Y50.6729 
G01 X-30.4797 Y50.9752 
G01 X-30.5075 Y51.2813 
G01 X-30.5075 Y51.3695 
G00 Z1.0000 
G00 X-24.7925 Y51.3695 
G01 Z0.0000 F254.00 
G01 X-24.7925 Y51.5887 F508.00 
G01 X-24.7925 Y51.5887 
G01 X-24.7646 Y51.8948 
G01 X-24.7597 Y51.9220 
G01 X-24.8198 Y51.7427 
G01 X-24.9289 Y51.5363 
G01 X-25.0698 Y51.3501 
G01 X-25.1354 Y51.2876 
G01 X-26.0770 Y50.1798 
G01 X-25.1398 Y50.1798 
G01 X-25.0133 Y50.1459 
G01 X-24.8999 Y50.0804 
G01 X-24.8072 Y49.9878 
G01 X-24.7418 Y49.8744 
G01 X-24.7079 Y49.7479 
G01 X-24.7079 Y49.6169 
G01 X-24.7418 Y49.4904 
G01 X-24.8072 Y49.3770 
G01 X-24.8999 Y49.2844 
G01 X-25.0133 Y49.2189 
G01 X-25.1398 Y49.1850 
G01 X-27.1325 Y49.1850 
G01 X-27.1777 Y49.1813 
G01 X-27.1977 Y49.1850 
G01 X-27.2181 Y49.1850 
G01 X-27.2619 Y49.1967 
G01 X-27.3065 Y49.2049 
G01 X-27.3249 Y49.2136 
G01 X-27.3446 Y49.2189 
G01 X-27.3839 Y49.2416 
G01 X-27.4248 Y49.2610 
G01 X-27.4404 Y49.2742 
G01 X-27.4580 Y49.2844 
G01 X-27.4901 Y49.3165 
G01 X-27.5246 Y49.3458 
G01 X-27.5362 Y49.3626 
G01 X-27.5506 Y49.3770 
G01 X-27.5733 Y49.4163 
G01 X-27.5991 Y49.4536 
G01 X-27.6059 Y49.4728 
G01 X-27.6161 Y49.4904 
G01 X-27.6278 Y49.5342 
G01 X-27.6431 Y49.5769 
G01 X-27.6447 Y49.5972 
G01 X-27.6500 Y49.6169 
G01 X-27.6500 Y49.6623 
G01 X-27.6537 Y49.7075 
G01 X-27.6500 Y49.7275 
G01 X-27.6500 Y49.7479 
G01 X-27.6383 Y49.7917 
G01 X-27.6301 Y49.8363 
G01 X-27.6214 Y49.8547 
G01 X-27.6161 Y49.8744 
G01 X-27.5934 Y49.9137 
G01 X-27.5740 Y49.9546 
G01 X-27.5608 Y49.9702 
G01 X-27.5506 Y49.9878 
G01 X-27.5186 Y50.0199 
G01 X-25.9016 Y51.9221 
G01 X-25.8878 Y51.9448 
G01 X-25.8594 Y51.9719 
G01 X-25.8339 Y52.0018 
G01 X-25.8188 Y52.0122 
G01 X-25.8154 Y52.0157 
G01 X-25.7721 Y52.0730 
G01 X-25.7386 Y52.1365 
G01 X-25.7157 Y52.2045 
G01 X-25.7041 Y52.2754 
G01 X-25.7027 Y52.3113 
G01 X-25.7038 Y52.3410 
G01 X-25.7131 Y52.3998 
G01 X-25.7315 Y52.4563 
G01 X-25.7585 Y52.5093 
G01 X-25.7934 Y52.5574 
G01 X-25.8355 Y52.5994 
G01 X-25.8836 Y52.6344 
G01 X-25.9366 Y52.6614 
G01 X-25.9931 Y52.6797 
G01 X-26.0518 Y52.6890 
G01 X-26.0816 Y52.6902 
G01 X-26.1254 Y52.6887 
G01 X-26.2123 Y52.6764 
G01 X-26.2966 Y52.6522 
G01 X-26.3768 Y52.6165 
G01 X-26.4512 Y52.5700 
G01 X-26.5184 Y52.5136 
G01 X-26.5770 Y52.4483 
G01 X-26.6260 Y52.3756 
G01 X-26.6644 Y52.2967 
G01 X-26.6794 Y52.2554 
G01 X-26.6996 Y52.1931 
G01 X-26.7708 Y52.0832 
G01 X-26.8680 Y51.9955 
G01 X-26.9847 Y51.9359 
G01 X-27.1128 Y51.9086 
G01 X-27.2436 Y51.9153 
G01 X-27.3681 Y51.9556 
G01 X-27.4781 Y52.0269 
G01 X-27.5658 Y52.1241 
G01 X-27.6254 Y52.2407 
G01 X-27.6527 Y52.3688 
G01 X-27.6460 Y52.4996 
G01 X-27.6258 Y52.5619 
G01 X-27.5908 Y52.6700 
G01 X-27.4914 Y52.8743 
G01 X-27.3645 Y53.0627 
G01 X-27.2126 Y53.2316 
G01 X-27.0386 Y53.3777 
G01 X-26.8460 Y53.4982 
G01 X-26.6385 Y53.5907 
G01 X-26.4201 Y53.6534 
G01 X-26.1952 Y53.6850 
G01 X-25.9735 Y53.6850 
G01 X-25.7599 Y53.6512 
G01 X-25.5543 Y53.5844 
G01 X-25.3616 Y53.4862 
G01 X-25.1867 Y53.3591 
G01 X-25.0338 Y53.2062 
G01 X-24.9067 Y53.0313 
G01 X-24.8085 Y52.8386 
G01 X-24.7417 Y52.6330 
G01 X-24.7079 Y52.4194 
G01 X-24.7079 Y52.2018 
G01 X-24.6266 Y52.4932 
G01 X-24.5174 Y52.7806 
G01 X-24.4636 Y52.8911 
G01 X-24.4384 Y52.9644 
G01 X-24.3332 Y53.1536 
G01 X-24.1964 Y53.3212 
G01 X-24.0321 Y53.4620 
G01 X-23.8456 Y53.5717 
G01 X-23.6426 Y53.6469 
G01 X-23.4296 Y53.6850 
G01 X-23.2132 Y53.6850 
G01 X-23.0002 Y53.6468 
G01 X-22.7973 Y53.5717 
G01 X-22.6107 Y53.4620 
G01 X-22.4465 Y53.3212 
G01 X-22.3096 Y53.1536 
G01 X-22.2044 Y52.9644 
G01 X-22.1793 Y52.8911 
G01 X-22.1254 Y52.7806 
G01 X-22.0163 Y52.4932 
G01 X-21.9337 Y52.1971 
G01 X-21.8782 Y51.8948 
G01 X-21.8504 Y51.5887 
G01 X-21.8504 Y51.2813 
G01 X-21.8782 Y50.9752 
G01 X-21.9337 Y50.6729 
G01 X-22.0163 Y50.3768 
G01 X-22.1254 Y50.0894 
G01 X-22.1793 Y49.9789 
G01 X-22.2044 Y49.9056 
G01 X-22.3096 Y49.7164 
G01 X-22.4465 Y49.5488 
G01 X-22.6107 Y49.4079 
G01 X-22.7973 Y49.2983 
G01 X-23.0002 Y49.2231 
G01 X-23.2132 Y49.1850 
G01 X-23.4296 Y49.1850 
G01 X-23.6426 Y49.2231 
G01 X-23.8456 Y49.2983 
G01 X-24.0321 Y49.4080 
G01 X-24.1964 Y49.5488 
G01 X-24.3332 Y49.7164 
G01 X-24.4384 Y49.9056 
G01 X-24.4635 Y49.9788 
G01 X-24.5174 Y50.0894 
G01 X-24.6266 Y50.3768 
G01 X-24.7092 Y50.6729 
G01 X-24.7646 Y50.9752 
G01 X-24.7925 Y51.2813 
G01 X-24.7925 Y51.3695 
G00 Z1.0000 
G00 X-27.7600 Y44.7823 
G01 Z0.0000 F254.00 
G01 X-27.8865 Y44.8162 F508.00 
G01 X-27.9999 Y44.8817 
G01 X-28.0925 Y44.9743 
G01 X-28.1580 Y45.0877 
G01 X-28.1919 Y45.2142 
G01 X-28.1919 Y45.3452 
G01 X-28.1580 Y45.4717 
G01 X-28.0925 Y45.5851 
G01 X-27.9999 Y45.6777 
G01 X-27.8865 Y45.7432 
G01 X-27.7600 Y45.7771 
G01 X-27.0448 Y45.7771 
G01 X-26.9183 Y45.7432 
G01 X-26.8049 Y45.6777 
G01 X-26.7123 Y45.5851 
G01 X-26.6468 Y45.4717 
G01 X-26.6129 Y45.3452 
G01 X-26.6129 Y43.2669 
G01 X-26.6468 Y43.1404 
G01 X-26.7123 Y43.0270 
G01 X-26.8049 Y42.9344 
G01 X-26.9183 Y42.8689 
G01 X-27.0448 Y42.8350 
G01 X-28.3791 Y42.8350 
G01 X-28.5775 Y42.8664 
G01 X-28.7686 Y42.9285 
G01 X-28.9476 Y43.0197 
G01 X-29.1101 Y43.1378 
G01 X-29.2522 Y43.2799 
G01 X-29.3703 Y43.4424 
G01 X-29.4615 Y43.6214 
G01 X-29.5236 Y43.8125 
G01 X-29.5550 Y44.0109 
G01 X-29.5550 Y46.1591 
G01 X-29.5236 Y46.3575 
G01 X-29.4615 Y46.5486 
G01 X-29.3703 Y46.7276 
G01 X-29.2522 Y46.8901 
G01 X-29.1101 Y47.0322 
G01 X-28.9476 Y47.1503 
G01 X-28.7686 Y47.2415 
G01 X-28.5775 Y47.3036 
G01 X-28.3791 Y47.3350 
G01 X-28.3442 Y47.3350 
G01 X-27.0448 Y47.3350 
G01 X-26.9183 Y47.3011 
G01 X-26.8049 Y47.2356 
G01 X-26.7123 Y47.1430 
G01 X-26.7049 Y47.1302 
G01 X-26.6283 Y47.2166 
G01 X-26.5190 Y47.2888 
G01 X-26.3948 Y47.3302 
G01 X-26.2640 Y47.3380 
G01 X-26.1357 Y47.3118 
G01 X-26.0186 Y47.2532 
G01 X-25.9206 Y47.1663 
G01 X-25.8484 Y47.0570 
G01 X-25.1312 Y44.9053 
G01 X-24.4139 Y47.0570 
G01 X-24.3418 Y47.1663 
G01 X-24.2438 Y47.2532 
G01 X-24.1267 Y47.3118 
G01 X-23.9984 Y47.3380 
G01 X-23.8676 Y47.3302 
G01 X-23.7434 Y47.2888 
G01 X-23.6341 Y47.2166 
G01 X-23.5472 Y47.1186 
G01 X-23.4886 Y47.0015 
G01 X-23.4624 Y46.8732 
G01 X-23.4702 Y46.7424 
G01 X-24.6499 Y43.2034 
G01 X-24.6570 Y43.1685 
G01 X-24.6705 Y43.1416 
G01 X-24.6800 Y43.1130 
G01 X-24.6997 Y43.0832 
G01 X-24.7156 Y43.0514 
G01 X-24.7356 Y43.0288 
G01 X-24.7522 Y43.0037 
G01 X-24.7788 Y42.9801 
G01 X-24.8025 Y42.9534 
G01 X-24.8276 Y42.9368 
G01 X-24.8502 Y42.9168 
G01 X-24.8820 Y42.9009 
G01 X-24.9118 Y42.8812 
G01 X-24.9404 Y42.8717 
G01 X-24.9673 Y42.8582 
G01 X-25.0022 Y42.8511 
G01 X-25.0360 Y42.8398 
G01 X-25.0661 Y42.8380 
G01 X-25.0956 Y42.8320 
G01 X-25.1312 Y42.8341 
G01 X-25.1668 Y42.8320 
G01 X-25.1963 Y42.8380 
G01 X-25.2264 Y42.8398 
G01 X-25.2602 Y42.8511 
G01 X-25.2951 Y42.8582 
G01 X-25.3220 Y42.8717 
G01 X-25.3506 Y42.8812 
G01 X-25.3803 Y42.9009 
G01 X-25.4122 Y42.9168 
G01 X-25.4347 Y42.9368 
G01 X-25.4599 Y42.9534 
G01 X-25.4835 Y42.9801 
G01 X-25.5102 Y43.0037 
G01 X-25.5268 Y43.0288 
G01 X-25.5468 Y43.0514 
G01 X-25.5627 Y43.0833 
G01 X-25.5824 Y43.1130 
G01 X-25.5919 Y43.1416 
G01 X-25.6054 Y43.1685 
G01 X-25.6125 Y43.2034 
G01 X-26.7196 Y46.5248 
G01 X-26.8049 Y46.4396 
G01 X-26.9183 Y46.3741 
G01 X-27.0448 Y46.3402 
G01 X-28.2132 Y46.3402 
G01 X-28.2787 Y46.3402 
G01 X-28.3008 Y46.3393 
G01 X-28.3444 Y46.3324 
G01 X-28.3864 Y46.3188 
G01 X-28.4258 Y46.2987 
G01 X-28.4615 Y46.2727 
G01 X-28.4927 Y46.2415 
G01 X-28.5187 Y46.2058 
G01 X-28.5388 Y46.1664 
G01 X-28.5524 Y46.1244 
G01 X-28.5593 Y46.0808 
G01 X-28.5602 Y46.0587 
G01 X-28.5602 Y44.1113 
G01 X-28.5593 Y44.0892 
G01 X-28.5524 Y44.0456 
G01 X-28.5388 Y44.0036 
G01 X-28.5187 Y43.9642 
G01 X-28.4927 Y43.9285 
G01 X-28.4615 Y43.8972 
G01 X-28.4258 Y43.8713 
G01 X-28.3864 Y43.8512 
G01 X-28.3444 Y43.8376 
G01 X-28.3008 Y43.8307 
G01 X-28.2787 Y43.8298 
G01 X-27.6077 Y43.8298 
G01 X-27.6077 Y44.7823 
G01 X-27.7600 Y44.7823 
G00 Z1.0000 
G00 X-64.5054 Y18.6335 
G01 Z0.0000 F254.00 
G01 X-64.5054 Y19.4664 F508.00 
G01 X-64.2514 Y19.7204 
G01 X-64.2514 Y42.5096 
G01 X-64.5054 Y42.7636 
G01 X-64.5054 Y43.5964 
G01 X-63.9164 Y44.1854 
G01 X-63.0836 Y44.1854 
G01 X-62.4946 Y43.5964 
G01 X-62.4946 Y42.7636 
G01 X-62.7486 Y42.5096 
G01 X-62.7486 Y19.7204 
G01 X-62.4946 Y19.4664 
G01 X-62.4946 Y18.6335 
G01 X-63.0836 Y18.0446 
G01 X-63.9164 Y18.0446 
G01 X-64.5054 Y18.6335 
G00 Z1.0000 
G00 X-44.8664 Y77.2054 
G01 Z0.0000 F254.00 
G01 X-44.0336 Y77.2054 F508.00 
G01 X-43.4446 Y76.6164 
G01 X-43.4446 Y75.7836 
G01 X-44.0336 Y75.1946 
G01 X-44.8664 Y75.1946 
G01 X-45.1204 Y75.4486 
G01 X-45.4088 Y75.4486 
G01 X-50.0486 Y70.8088 
G01 X-50.0486 Y65.9660 
G01 X-50.0775 Y65.8208 
G01 X-50.1341 Y65.6841 
G01 X-50.2164 Y65.5610 
G01 X-50.3210 Y65.4564 
G01 X-61.7510 Y54.0264 
G01 X-61.8741 Y53.9441 
G01 X-62.0108 Y53.8875 
G01 X-62.1560 Y53.8586 
G01 X-62.8296 Y53.8586 
G01 X-63.0836 Y53.6046 
G01 X-63.9164 Y53.6046 
G01 X-64.5054 Y54.1936 
G01 X-64.5054 Y55.0264 
G01 X-63.9164 Y55.6154 
G01 X-63.0836 Y55.6154 
G01 X-62.8296 Y55.3614 
G01 X-62.5412 Y55.3614 
G01 X-51.5514 Y66.3512 
G01 X-51.5514 Y71.1940 
G01 X-51.5225 Y71.3392 
G01 X-51.4659 Y71.4759 
G01 X-51.3836 Y71.5990 
G01 X-51.2790 Y71.7036 
G01 X-46.1990 Y76.7836 
G01 X-46.0759 Y76.8659 
G01 X-45.9392 Y76.9225 
G01 X-45.7940 Y76.9514 
G01 X-45.1204 Y76.9514 
G01 X-44.8664 Y77.2054 
G00 Z1.0000 
G00 X-14.9754 Y54.1936 
G01 Z0.0000 F254.00 
G01 X-14.9754 Y55.0264 F508.00 
G01 X-14.3864 Y55.6154 
G01 X-13.5536 Y55.6154 
G01 X-12.9646 Y55.0264 
G01 X-12.9646 Y54.1936 
G01 X-13.2186 Y53.9396 
G01 X-13.2186 Y49.4560 
G01 X-13.2475 Y49.3108 
G01 X-13.3041 Y49.1741 
G01 X-13.3864 Y49.0510 
G01 X-13.4910 Y48.9464 
G01 X-24.6486 Y37.7888 
G01 X-24.6486 Y26.9812 
G01 X-24.0728 Y26.4054 
G01 X-23.7136 Y26.4054 
G01 X-23.1246 Y25.8164 
G01 X-23.1246 Y24.9836 
G01 X-23.7136 Y24.3946 
G01 X-24.5464 Y24.3946 
G01 X-25.1354 Y24.9836 
G01 X-25.1354 Y25.3428 
G01 X-25.9836 Y26.1910 
G01 X-26.0659 Y26.3141 
G01 X-26.1225 Y26.4508 
G01 X-26.1514 Y26.5960 
G01 X-26.1514 Y38.1740 
G01 X-26.1225 Y38.3192 
G01 X-26.0659 Y38.4559 
G01 X-25.9836 Y38.5790 
G01 X-25.8790 Y38.6836 
G01 X-14.7214 Y49.8412 
G01 X-14.7214 Y53.9396 
G01 X-14.9754 Y54.1936 
G00 Z1.0000 
G00 X-54.3454 Y42.7636 
G01 Z0.0000 F254.00 
G01 X-54.3454 Y43.5964 F508.00 
G01 X-53.7564 Y44.1854 
G01 X-53.3972 Y44.1854 
G01 X-52.5490 Y45.0336 
G01 X-52.4259 Y45.1159 
G01 X-52.2892 Y45.1725 
G01 X-52.1440 Y45.2014 
G01 X-49.1766 Y45.2014 
G01 X-49.1625 Y45.2208 
G01 X-49.0308 Y45.3525 
G01 X-48.8801 Y45.4620 
G01 X-48.7142 Y45.5465 
G01 X-48.5371 Y45.6041 
G01 X-48.3531 Y45.6332 
G01 X-48.1669 Y45.6332 
G01 X-47.9829 Y45.6041 
G01 X-47.8058 Y45.5465 
G01 X-47.6399 Y45.4620 
G01 X-47.4892 Y45.3525 
G01 X-47.3575 Y45.2208 
G01 X-47.2480 Y45.0701 
G01 X-47.1635 Y44.9042 
G01 X-47.1059 Y44.7271 
G01 X-47.0768 Y44.5431 
G01 X-47.0768 Y44.3569 
G01 X-47.1059 Y44.1729 
G01 X-47.1635 Y43.9958 
G01 X-47.2480 Y43.8299 
G01 X-47.3575 Y43.6792 
G01 X-47.4892 Y43.5475 
G01 X-47.6399 Y43.4380 
G01 X-47.8058 Y43.3535 
G01 X-47.9829 Y43.2959 
G01 X-48.1669 Y43.2668 
G01 X-48.3531 Y43.2668 
G01 X-48.5371 Y43.2959 
G01 X-48.7142 Y43.3535 
G01 X-48.8801 Y43.4380 
G01 X-49.0308 Y43.5475 
G01 X-49.1625 Y43.6792 
G01 X-49.1766 Y43.6986 
G01 X-51.7588 Y43.6986 
G01 X-52.3346 Y43.1228 
G01 X-52.3346 Y42.7636 
G01 X-52.9236 Y42.1746 
G01 X-53.7564 Y42.1746 
G01 X-54.3454 Y42.7636 
G00 Z1.0000 
G00 X-64.5054 Y46.5736 
G01 Z0.0000 F254.00 
G01 X-64.5054 Y47.4064 F508.00 
G01 X-63.9164 Y47.9954 
G01 X-63.0836 Y47.9954 
G01 X-62.8296 Y47.7414 
G01 X-60.8860 Y47.7414 
G01 X-60.7408 Y47.7125 
G01 X-60.6041 Y47.6559 
G01 X-60.4810 Y47.5736 
G01 X-60.3764 Y47.4690 
G01 X-59.1064 Y46.1990 
G01 X-59.0241 Y46.0759 
G01 X-58.9675 Y45.9392 
G01 X-58.9386 Y45.7940 
G01 X-58.9386 Y33.3312 
G01 X-50.4888 Y24.8814 
G01 X-39.2960 Y24.8814 
G01 X-39.1508 Y24.8525 
G01 X-39.0141 Y24.7959 
G01 X-38.8910 Y24.7136 
G01 X-38.7863 Y24.6090 
G01 X-33.9788 Y19.8014 
G01 X-25.4354 Y19.8014 
G01 X-25.1814 Y20.0554 
G01 X-24.3485 Y20.0554 
G01 X-23.7596 Y19.4664 
G01 X-23.7596 Y18.6335 
G01 X-24.3485 Y18.0446 
G01 X-25.1814 Y18.0446 
G01 X-25.4354 Y18.2986 
G01 X-34.3640 Y18.2986 
G01 X-34.5092 Y18.3275 
G01 X-34.6459 Y18.3841 
G01 X-34.7690 Y18.4664 
G01 X-34.8736 Y18.5710 
G01 X-39.6812 Y23.3786 
G01 X-50.8740 Y23.3786 
G01 X-51.0192 Y23.4075 
G01 X-51.1559 Y23.4641 
G01 X-51.2790 Y23.5464 
G01 X-51.3836 Y23.6510 
G01 X-60.2736 Y32.5410 
G01 X-60.3559 Y32.6641 
G01 X-60.4125 Y32.8008 
G01 X-60.4414 Y32.9460 
G01 X-60.4414 Y45.4088 
G01 X-61.2712 Y46.2386 
G01 X-62.8296 Y46.2386 
G01 X-63.0836 Y45.9846 
G01 X-63.9164 Y45.9846 
G01 X-64.5054 Y46.5736 
G00 Z1.0000 
G00 X-63.9164 Y51.8054 
G01 Z0.0000 F254.00 
G01 X-63.0836 Y51.8054 F508.00 
G01 X-62.4946 Y51.2164 
G01 X-62.4946 Y50.3835 
G01 X-63.0836 Y49.7946 
G01 X-63.9164 Y49.7946 
G01 X-64.1704 Y50.0486 
G01 X-68.6540 Y50.0486 
G01 X-68.7992 Y50.0775 
G01 X-68.9359 Y50.1341 
G01 X-69.0590 Y50.2164 
G01 X-72.7012 Y53.8586 
G01 X-73.6246 Y53.8586 
G01 X-73.8786 Y53.6046 
G01 X-74.7114 Y53.6046 
G01 X-75.3004 Y54.1936 
G01 X-75.3004 Y55.0264 
G01 X-74.7114 Y55.6154 
G01 X-73.8786 Y55.6154 
G01 X-73.6246 Y55.3614 
G01 X-72.3160 Y55.3614 
G01 X-72.1708 Y55.3325 
G01 X-72.0341 Y55.2759 
G01 X-71.9110 Y55.1936 
G01 X-71.8064 Y55.0890 
G01 X-68.2688 Y51.5514 
G01 X-64.1704 Y51.5514 
G01 X-63.9164 Y51.8054 
G00 Z1.0000 
G00 X-35.2954 Y24.9836 
G01 Z0.0000 F254.00 
G01 X-35.2954 Y25.8164 F508.00 
G01 X-34.7064 Y26.4054 
G01 X-34.3472 Y26.4054 
G01 X-33.7714 Y26.9812 
G01 X-33.7714 Y40.3288 
G01 X-37.1412 Y43.6986 
G01 X-39.7234 Y43.6986 
G01 X-39.7375 Y43.6792 
G01 X-39.8692 Y43.5475 
G01 X-40.0199 Y43.4380 
G01 X-40.1858 Y43.3535 
G01 X-40.3629 Y43.2959 
G01 X-40.5469 Y43.2668 
G01 X-40.7331 Y43.2668 
G01 X-40.9171 Y43.2959 
G01 X-41.0942 Y43.3535 
G01 X-41.2601 Y43.4380 
G01 X-41.4108 Y43.5475 
G01 X-41.5425 Y43.6792 
G01 X-41.6520 Y43.8299 
G01 X-41.7365 Y43.9958 
G01 X-41.7941 Y44.1729 
G01 X-41.8232 Y44.3569 
G01 X-41.8232 Y44.5431 
G01 X-41.7941 Y44.7271 
G01 X-41.7365 Y44.9042 
G01 X-41.6520 Y45.0701 
G01 X-41.5425 Y45.2208 
G01 X-41.4108 Y45.3525 
G01 X-41.2601 Y45.4620 
G01 X-41.0942 Y45.5465 
G01 X-40.9171 Y45.6041 
G01 X-40.7331 Y45.6332 
G01 X-40.5469 Y45.6332 
G01 X-40.3629 Y45.6041 
G01 X-40.1858 Y45.5465 
G01 X-40.0199 Y45.4620 
G01 X-39.8692 Y45.3525 
G01 X-39.7375 Y45.2208 
G01 X-39.7234 Y45.2014 
G01 X-36.7560 Y45.2014 
G01 X-36.6108 Y45.1725 
G01 X-36.4741 Y45.1159 
G01 X-36.3510 Y45.0336 
G01 X-36.2463 Y44.9290 
G01 X-32.4364 Y41.1190 
G01 X-32.3541 Y40.9959 
G01 X-32.2975 Y40.8592 
G01 X-32.2686 Y40.7140 
G01 X-32.2686 Y26.5960 
G01 X-32.2975 Y26.4508 
G01 X-32.3541 Y26.3141 
G01 X-32.4364 Y26.1910 
G01 X-32.5410 Y26.0863 
G01 X-33.2846 Y25.3428 
G01 X-33.2846 Y24.9836 
G01 X-33.8736 Y24.3946 
G01 X-34.7064 Y24.3946 
G01 X-35.2954 Y24.9836 
G00 Z1.0000 
G00 X-43.2964 Y68.4421 
G01 Z0.0000 F254.00 
G01 X-43.2964 Y70.1403 F508.00 
G01 X-43.2691 Y70.3124 
G01 X-43.2153 Y70.4781 
G01 X-43.1362 Y70.6334 
G01 X-43.0338 Y70.7744 
G01 X-42.9106 Y70.8976 
G01 X-42.7696 Y71.0000 
G01 X-42.6143 Y71.0791 
G01 X-42.4486 Y71.1329 
G01 X-42.2765 Y71.1602 
G01 X-42.1023 Y71.1602 
G01 X-41.9302 Y71.1329 
G01 X-41.7645 Y71.0791 
G01 X-41.6092 Y71.0000 
G01 X-41.4682 Y70.8976 
G01 X-41.3450 Y70.7744 
G01 X-41.2426 Y70.6334 
G01 X-41.1635 Y70.4781 
G01 X-41.1097 Y70.3124 
G01 X-41.0824 Y70.1403 
G01 X-41.0824 Y68.4421 
G01 X-41.1097 Y68.2700 
G01 X-41.1635 Y68.1043 
G01 X-41.2426 Y67.9490 
G01 X-41.3450 Y67.8080 
G01 X-41.4682 Y67.6848 
G01 X-41.6092 Y67.5824 
G01 X-41.7645 Y67.5033 
G01 X-41.9302 Y67.4495 
G01 X-42.1023 Y67.4222 
G01 X-42.2765 Y67.4222 
G01 X-42.4486 Y67.4495 
G01 X-42.6143 Y67.5033 
G01 X-42.7696 Y67.5824 
G01 X-42.9106 Y67.6848 
G01 X-43.0338 Y67.8080 
G01 X-43.1362 Y67.9490 
G01 X-43.2153 Y68.1043 
G01 X-43.2691 Y68.2700 
G01 X-43.2964 Y68.4421 
G00 Z1.0000 
G00 X-47.8176 Y61.9397 
G01 Z0.0000 F254.00 
G01 X-47.8176 Y63.6379 F508.00 
G01 X-47.7903 Y63.8100 
G01 X-47.7365 Y63.9757 
G01 X-47.6574 Y64.1310 
G01 X-47.5550 Y64.2720 
G01 X-47.4318 Y64.3952 
G01 X-47.2908 Y64.4976 
G01 X-47.1355 Y64.5767 
G01 X-46.9698 Y64.6305 
G01 X-46.7977 Y64.6578 
G01 X-46.6235 Y64.6578 
G01 X-46.4514 Y64.6305 
G01 X-46.2857 Y64.5767 
G01 X-46.1304 Y64.4976 
G01 X-45.9894 Y64.3952 
G01 X-45.8662 Y64.2720 
G01 X-45.7638 Y64.1310 
G01 X-45.6847 Y63.9757 
G01 X-45.6309 Y63.8100 
G01 X-45.6036 Y63.6379 
G01 X-45.6036 Y61.9397 
G01 X-45.6309 Y61.7676 
G01 X-45.6847 Y61.6019 
G01 X-45.7638 Y61.4466 
G01 X-45.8662 Y61.3056 
G01 X-45.9894 Y61.1824 
G01 X-46.1304 Y61.0800 
G01 X-46.2386 Y61.0249 
G01 X-46.2386 Y59.0904 
G01 X-45.9846 Y58.8364 
G01 X-45.9846 Y58.0036 
G01 X-46.2386 Y57.7496 
G01 X-46.2386 Y55.8060 
G01 X-46.2675 Y55.6608 
G01 X-46.3241 Y55.5241 
G01 X-46.4064 Y55.4010 
G01 X-46.5110 Y55.2964 
G01 X-47.0806 Y54.7268 
G01 X-47.0768 Y54.7031 
G01 X-47.0768 Y54.5169 
G01 X-47.1059 Y54.3329 
G01 X-47.1635 Y54.1558 
G01 X-47.2480 Y53.9899 
G01 X-47.3575 Y53.8392 
G01 X-47.4892 Y53.7075 
G01 X-47.6399 Y53.5980 
G01 X-47.8058 Y53.5135 
G01 X-47.9829 Y53.4559 
G01 X-48.1669 Y53.4268 
G01 X-48.3531 Y53.4268 
G01 X-48.5371 Y53.4559 
G01 X-48.7142 Y53.5135 
G01 X-48.8801 Y53.5980 
G01 X-49.0308 Y53.7075 
G01 X-49.1625 Y53.8392 
G01 X-49.2720 Y53.9899 
G01 X-49.3565 Y54.1558 
G01 X-49.4141 Y54.3329 
G01 X-49.4432 Y54.5169 
G01 X-49.4432 Y54.7031 
G01 X-49.4141 Y54.8871 
G01 X-49.3565 Y55.0642 
G01 X-49.2720 Y55.2301 
G01 X-49.1625 Y55.3808 
G01 X-49.0308 Y55.5125 
G01 X-48.8801 Y55.6220 
G01 X-48.7142 Y55.7065 
G01 X-48.5371 Y55.7641 
G01 X-48.3531 Y55.7932 
G01 X-48.1669 Y55.7932 
G01 X-48.1432 Y55.7894 
G01 X-47.7414 Y56.1912 
G01 X-47.7414 Y57.7496 
G01 X-47.9954 Y58.0036 
G01 X-47.9954 Y58.8364 
G01 X-47.7414 Y59.0904 
G01 X-47.7414 Y61.6170 
G01 X-47.7903 Y61.7676 
G01 X-47.8176 Y61.9397 
G00 Z1.0000 
G00 X-43.0170 Y32.5615 
G01 Z0.0000 F254.00 
G01 X-43.0170 Y33.0644 F508.00 
G01 X-43.3430 Y33.3904 
G01 X-43.3430 Y32.5615 
G01 X-43.9915 Y31.9130 
G01 X-44.9085 Y31.9130 
G01 X-45.5570 Y32.5615 
G01 X-45.5570 Y33.0644 
G01 X-45.9917 Y33.4990 
G01 X-45.9641 Y33.4449 
G01 X-45.9103 Y33.2792 
G01 X-45.8830 Y33.1071 
G01 X-45.8830 Y32.9329 
G01 X-45.9103 Y32.7608 
G01 X-45.9641 Y32.5951 
G01 X-46.0432 Y32.4398 
G01 X-46.1456 Y32.2988 
G01 X-46.2688 Y32.1756 
G01 X-46.4098 Y32.0732 
G01 X-46.5651 Y31.9941 
G01 X-46.7308 Y31.9403 
G01 X-46.9029 Y31.9130 
G01 X-47.0771 Y31.9130 
G01 X-47.2492 Y31.9403 
G01 X-47.4149 Y31.9941 
G01 X-47.5702 Y32.0732 
G01 X-47.7112 Y32.1756 
G01 X-47.8041 Y32.2686 
G01 X-48.3340 Y32.2686 
G01 X-48.4792 Y32.2975 
G01 X-48.6159 Y32.3541 
G01 X-48.7390 Y32.4364 
G01 X-48.8436 Y32.5410 
G01 X-50.0090 Y33.7064 
G01 X-50.1136 Y33.8110 
G01 X-50.1959 Y33.9341 
G01 X-50.2525 Y34.0708 
G01 X-50.2814 Y34.2160 
G01 X-50.2814 Y38.1740 
G01 X-50.2525 Y38.3192 
G01 X-50.1959 Y38.4559 
G01 X-50.1136 Y38.5790 
G01 X-50.0090 Y38.6836 
G01 X-49.4394 Y39.2532 
G01 X-49.4432 Y39.2769 
G01 X-49.4432 Y39.4631 
G01 X-49.4141 Y39.6471 
G01 X-49.3565 Y39.8242 
G01 X-49.2720 Y39.9901 
G01 X-49.1625 Y40.1408 
G01 X-49.0308 Y40.2725 
G01 X-48.8801 Y40.3820 
G01 X-48.7142 Y40.4665 
G01 X-48.5371 Y40.5241 
G01 X-48.3531 Y40.5532 
G01 X-48.1669 Y40.5532 
G01 X-47.9829 Y40.5241 
G01 X-47.9144 Y40.5018 
G01 X-48.1432 Y40.7306 
G01 X-48.1669 Y40.7268 
G01 X-48.3531 Y40.7268 
G01 X-48.5371 Y40.7559 
G01 X-48.7142 Y40.8135 
G01 X-48.8801 Y40.8980 
G01 X-49.0308 Y41.0075 
G01 X-49.1625 Y41.1392 
G01 X-49.2720 Y41.2899 
G01 X-49.3565 Y41.4558 
G01 X-49.4141 Y41.6329 
G01 X-49.4432 Y41.8169 
G01 X-49.4432 Y42.0031 
G01 X-49.4141 Y42.1871 
G01 X-49.3565 Y42.3642 
G01 X-49.2720 Y42.5301 
G01 X-49.1625 Y42.6808 
G01 X-49.0308 Y42.8125 
G01 X-48.8801 Y42.9220 
G01 X-48.7142 Y43.0065 
G01 X-48.5371 Y43.0641 
G01 X-48.3531 Y43.0932 
G01 X-48.1669 Y43.0932 
G01 X-47.9829 Y43.0641 
G01 X-47.8058 Y43.0065 
G01 X-47.6399 Y42.9220 
G01 X-47.4892 Y42.8125 
G01 X-47.3575 Y42.6808 
G01 X-47.2480 Y42.5301 
G01 X-47.1635 Y42.3642 
G01 X-47.1059 Y42.1871 
G01 X-47.0768 Y42.0031 
G01 X-47.0768 Y41.8169 
G01 X-47.0806 Y41.7932 
G01 X-45.8760 Y40.5886 
G01 X-45.7714 Y40.4840 
G01 X-45.6891 Y40.3609 
G01 X-45.6325 Y40.2242 
G01 X-45.6036 Y40.0790 
G01 X-45.6036 Y35.2362 
G01 X-44.4944 Y34.1270 
G01 X-44.0796 Y34.1270 
G01 X-44.9290 Y34.9764 
G01 X-45.0336 Y35.0810 
G01 X-45.1159 Y35.2041 
G01 X-45.1725 Y35.3408 
G01 X-45.2014 Y35.4860 
G01 X-45.2014 Y45.7940 
G01 X-45.1725 Y45.9392 
G01 X-45.1159 Y46.0759 
G01 X-45.0336 Y46.1990 
G01 X-44.9290 Y46.3036 
G01 X-43.7636 Y47.4690 
G01 X-43.6590 Y47.5736 
G01 X-43.5359 Y47.6559 
G01 X-43.3992 Y47.7125 
G01 X-43.2540 Y47.7414 
G01 X-41.5566 Y47.7414 
G01 X-41.5425 Y47.7608 
G01 X-41.4108 Y47.8925 
G01 X-41.2601 Y48.0020 
G01 X-41.0942 Y48.0865 
G01 X-40.9171 Y48.1441 
G01 X-40.7331 Y48.1732 
G01 X-40.5469 Y48.1732 
G01 X-40.3629 Y48.1441 
G01 X-40.1858 Y48.0865 
G01 X-40.0199 Y48.0020 
G01 X-39.8692 Y47.8925 
G01 X-39.7375 Y47.7608 
G01 X-39.6280 Y47.6101 
G01 X-39.5435 Y47.4442 
G01 X-39.4859 Y47.2671 
G01 X-39.4568 Y47.0831 
G01 X-39.4568 Y46.8969 
G01 X-39.4859 Y46.7129 
G01 X-39.5435 Y46.5358 
G01 X-39.6280 Y46.3699 
G01 X-39.7375 Y46.2192 
G01 X-39.8692 Y46.0875 
G01 X-40.0199 Y45.9780 
G01 X-40.1858 Y45.8935 
G01 X-40.3629 Y45.8359 
G01 X-40.5469 Y45.8068 
G01 X-40.7331 Y45.8068 
G01 X-40.9171 Y45.8359 
G01 X-41.0942 Y45.8935 
G01 X-41.2601 Y45.9780 
G01 X-41.4108 Y46.0875 
G01 X-41.5425 Y46.2192 
G01 X-41.5566 Y46.2386 
G01 X-42.8688 Y46.2386 
G01 X-43.6986 Y45.4088 
G01 X-43.6986 Y35.8712 
G01 X-41.9544 Y34.1270 
G01 X-41.4515 Y34.1270 
G01 X-40.8030 Y33.4785 
G01 X-40.8030 Y32.5615 
G01 X-41.4515 Y31.9130 
G01 X-42.3685 Y31.9130 
G01 X-43.0170 Y32.5615 
G00 Z1.0000 
G00 X-41.8232 Y53.7264 
G01 Z0.0000 F254.00 
G01 X-41.8232 Y54.7306 F508.00 
G01 X-42.3890 Y55.2964 
G01 X-42.4936 Y55.4010 
G01 X-42.5759 Y55.5241 
G01 X-42.6325 Y55.6608 
G01 X-42.6614 Y55.8060 
G01 X-42.6614 Y57.7496 
G01 X-42.9154 Y58.0036 
G01 X-42.9154 Y58.8364 
G01 X-42.3264 Y59.4254 
G01 X-41.4935 Y59.4254 
G01 X-40.9046 Y58.8364 
G01 X-40.9046 Y58.0036 
G01 X-41.1586 Y57.7496 
G01 X-41.1586 Y56.1912 
G01 X-40.7606 Y55.7932 
G01 X-39.7564 Y55.7932 
G01 X-39.6686 Y55.7697 
G01 X-39.5900 Y55.7243 
G01 X-39.5257 Y55.6600 
G01 X-39.4803 Y55.5814 
G01 X-39.4568 Y55.4936 
G01 X-39.4568 Y55.3614 
G01 X-38.8514 Y55.3614 
G01 X-38.8514 Y64.4588 
G01 X-39.6812 Y65.2886 
G01 X-47.9488 Y65.2886 
G01 X-56.3986 Y56.8388 
G01 X-56.3986 Y35.8712 
G01 X-51.7588 Y31.2314 
G01 X-47.8041 Y31.2314 
G01 X-47.4485 Y31.5870 
G01 X-46.5315 Y31.5870 
G01 X-45.8830 Y30.9385 
G01 X-45.8830 Y30.0215 
G01 X-46.5315 Y29.3730 
G01 X-47.4485 Y29.3730 
G01 X-47.8041 Y29.7286 
G01 X-52.1440 Y29.7286 
G01 X-52.2892 Y29.7575 
G01 X-52.4259 Y29.8141 
G01 X-52.5490 Y29.8964 
G01 X-57.6290 Y34.9764 
G01 X-57.7336 Y35.0810 
G01 X-57.8159 Y35.2041 
G01 X-57.8725 Y35.3408 
G01 X-57.9014 Y35.4860 
G01 X-57.9014 Y57.2240 
G01 X-57.8725 Y57.3692 
G01 X-57.8159 Y57.5059 
G01 X-57.7336 Y57.6290 
G01 X-57.6290 Y57.7336 
G01 X-48.8436 Y66.5190 
G01 X-48.7390 Y66.6236 
G01 X-48.6159 Y66.7059 
G01 X-48.4792 Y66.7625 
G01 X-48.3340 Y66.7914 
G01 X-39.2960 Y66.7914 
G01 X-39.1508 Y66.7625 
G01 X-39.0141 Y66.7059 
G01 X-38.8910 Y66.6236 
G01 X-38.7863 Y66.5190 
G01 X-37.5164 Y65.2490 
G01 X-37.4341 Y65.1259 
G01 X-37.3775 Y64.9892 
G01 X-37.3486 Y64.8440 
G01 X-37.3486 Y49.8412 
G01 X-27.3564 Y39.8490 
G01 X-27.2741 Y39.7259 
G01 X-27.2175 Y39.5892 
G01 X-27.1886 Y39.4440 
G01 X-27.1886 Y36.7476 
G01 X-27.1212 Y36.6467 
G01 X-27.0515 Y36.4785 
G01 X-27.0160 Y36.3000 
G01 X-27.0160 Y34.9600 
G01 X-27.0515 Y34.7815 
G01 X-27.1212 Y34.6133 
G01 X-27.2223 Y34.4620 
G01 X-27.3510 Y34.3333 
G01 X-27.5023 Y34.2322 
G01 X-27.6705 Y34.1625 
G01 X-27.8490 Y34.1270 
G01 X-28.0310 Y34.1270 
G01 X-28.2095 Y34.1625 
G01 X-28.3777 Y34.2322 
G01 X-28.5290 Y34.3333 
G01 X-28.6577 Y34.4620 
G01 X-28.7588 Y34.6133 
G01 X-28.8285 Y34.7815 
G01 X-28.8640 Y34.9600 
G01 X-28.8640 Y36.3000 
G01 X-28.8285 Y36.4785 
G01 X-28.7588 Y36.6467 
G01 X-28.6914 Y36.7476 
G01 X-28.6914 Y39.0588 
G01 X-38.6836 Y49.0510 
G01 X-38.7659 Y49.1741 
G01 X-38.8225 Y49.3108 
G01 X-38.8514 Y49.4560 
G01 X-38.8514 Y53.8586 
G01 X-39.4568 Y53.8586 
G01 X-39.4568 Y53.7264 
G01 X-39.4803 Y53.6386 
G01 X-39.5257 Y53.5600 
G01 X-39.5900 Y53.4957 
G01 X-39.6686 Y53.4503 
G01 X-39.7564 Y53.4268 
G01 X-41.5236 Y53.4268 
G01 X-41.6114 Y53.4503 
G01 X-41.6900 Y53.4957 
G01 X-41.7543 Y53.5600 
G01 X-41.7997 Y53.6386 
G01 X-41.8232 Y53.7264 
G00 Z1.0000 
G00 X-41.5425 Y52.8408 
G01 Z0.0000 F254.00 
G01 X-41.4108 Y52.9725 F508.00 
G01 X-41.2601 Y53.0820 
G01 X-41.0942 Y53.1665 
G01 X-40.9171 Y53.2241 
G01 X-40.7331 Y53.2532 
G01 X-40.5469 Y53.2532 
G01 X-40.3629 Y53.2241 
G01 X-40.1858 Y53.1665 
G01 X-40.0199 Y53.0820 
G01 X-39.8692 Y52.9725 
G01 X-39.7375 Y52.8408 
G01 X-39.6280 Y52.6901 
G01 X-39.5435 Y52.5242 
G01 X-39.4859 Y52.3471 
G01 X-39.4568 Y52.1631 
G01 X-39.4568 Y51.9769 
G01 X-39.4859 Y51.7929 
G01 X-39.5435 Y51.6158 
G01 X-39.6280 Y51.4499 
G01 X-39.7375 Y51.2992 
G01 X-39.8692 Y51.1675 
G01 X-40.0199 Y51.0580 
G01 X-40.1858 Y50.9735 
G01 X-40.3629 Y50.9159 
G01 X-40.5469 Y50.8868 
G01 X-40.7331 Y50.8868 
G01 X-40.9171 Y50.9159 
G01 X-41.0942 Y50.9735 
G01 X-41.2601 Y51.0580 
G01 X-41.4108 Y51.1675 
G01 X-41.5425 Y51.2992 
G01 X-41.5566 Y51.3186 
G01 X-41.9840 Y51.3186 
